T0
; G-Code generated by Simplify3D(R) Version 4.1.2
; Jan 9, 2020 at 2:08:20 PM
; Settings Summary
;   processName,T0
;   applyToModels,Box_bore
;   profileName,Default (modified)
;   profileVersion,2019-07-26 10:50:59
;   baseProfile,Generic Dual Extrusion Profile (modified)
;   printMaterial,PLA
;   printQuality,Medium
;   printExtruders,Both Extruders
;   extruderName,T0,Skrillex Jr,T2
;   extruderToolheadNumber,0,3,2
;   extruderDiameter,0.6,3.16,0.6
;   extruderAutoWidth,0,0,0
;   extruderWidth,0.9,2.66,0.9
;   extrusionMultiplier,1,1,1
;   extruderUseRetract,1,1,1
;   extruderRetractionDistance,5.5,1,5.5
;   extruderExtraRestartDistance,0.1,0,0.1
;   extruderRetractionZLift,0.5,5,1
;   extruderRetractionSpeed,6000,60,6000
;   extruderUseCoasting,1,0,1
;   extruderCoastingDistance,0.3,0.2,0.3
;   extruderUseWipe,1,0,1
;   extruderWipeDistance,4,5,4
;   primaryExtruder,0
;   layerHeight,0.4
;   topSolidLayers,5
;   bottomSolidLayers,0
;   perimeterOutlines,3
;   printPerimetersInsideOut,1
;   startPointOption,3
;   startPointOriginX,170
;   startPointOriginY,120
;   sequentialIslands,1
;   spiralVaseMode,0
;   firstLayerHeightPercentage,100
;   firstLayerWidthPercentage,100
;   firstLayerUnderspeed,0.5
;   useRaft,1
;   raftExtruder,0
;   raftTopLayers,2
;   raftBaseLayers,1
;   raftOffset,0
;   raftSeparationDistance,0
;   raftTopInfill,100
;   aboveRaftSpeedMultiplier,1
;   useSkirt,1
;   skirtExtruder,0
;   skirtLayers,1
;   skirtOutlines,1
;   skirtOffset,3
;   usePrimePillar,0
;   primePillarExtruder,999
;   primePillarWidth,10
;   primePillarLocation,6
;   primePillarSpeedMultiplier,1
;   useOozeShield,0
;   oozeShieldExtruder,1
;   oozeShieldOffset,0
;   oozeShieldOutlines,1
;   oozeShieldSidewallShape,2
;   oozeShieldSidewallAngle,45
;   oozeShieldSpeedMultiplier,0.15
;   infillExtruder,0
;   internalInfillPattern,Grid
;   externalInfillPattern,Rectilinear
;   infillPercentage,15
;   outlineOverlapPercentage,0
;   infillExtrusionWidthPercentage,100
;   minInfillLength,5
;   infillLayerInterval,1
;   internalInfillAngles,45,-45
;   overlapInternalInfillAngles,1
;   externalInfillAngles,45,-45
;   generateSupport,0
;   supportExtruder,0
;   supportInfillPercentage,20
;   supportExtraInflation,0.5
;   supportBaseLayers,1
;   denseSupportExtruder,0
;   denseSupportLayers,0
;   denseSupportInfillPercentage,90
;   supportLayerInterval,1
;   supportHorizontalPartOffset,0.75
;   supportUpperSeparationLayers,1
;   supportLowerSeparationLayers,1
;   supportType,0
;   supportGridSpacing,100
;   maxOverhangAngle,89
;   supportAngles,45
;   temperatureName
;   temperatureNumber
;   temperatureSetpointCount
;   temperatureSetpointLayers
;   temperatureSetpointTemperatures
;   temperatureStabilizeAtStartup
;   temperatureHeatedBed
;   fanLayers,1
;   fanSpeeds,0
;   blipFanToFullPower,0
;   adjustSpeedForCooling,1
;   minSpeedLayerTime,5
;   minCoolingSpeedSlowdown,10
;   increaseFanForCooling,0
;   minFanLayerTime,5
;   maxCoolingFanSpeed,75
;   increaseFanForBridging,0
;   bridgingFanSpeed,75
;   use5D,1
;   relativeEdistances,1
;   allowEaxisZeroing,1
;   independentExtruderAxes,0
;   includeM10123,0
;   stickySupport,1
;   applyToolheadOffsets,0
;   gcodeXoffset,0
;   gcodeYoffset,0
;   gcodeZoffset,0
;   overrideMachineDefinition,1
;   machineTypeOverride,0
;   strokeXoverride,300
;   strokeYoverride,200
;   strokeZoverride,300
;   originOffsetXoverride,0
;   originOffsetYoverride,0
;   originOffsetZoverride,0
;   homeXdirOverride,-1
;   homeYdirOverride,-1
;   homeZdirOverride,-1
;   flipXoverride,1
;   flipYoverride,-1
;   flipZoverride,1
;   toolheadOffsets,0,0|0,0|0,0|0,0|0,0|0,0
;   overrideFirmwareConfiguration,0
;   firmwareTypeOverride,RepRap (Marlin/Repetier/Sprinter)
;   GPXconfigOverride,r2
;   baudRateOverride,115200
;   overridePrinterModels,1
;   printerModelsOverride
;   startingGcode,G29 S1
;   layerChangeGcode,;Clean the nozzle must use a hardened nozzle!,;M98 Pbrush.g
;   retractionGcode,
;   toolChangeGcode,
;   endingGcode,;Drop Bed,G91,G1 Z2 F1000,G90,,; Drop off the tool,T-1,,; Disable Mesh Compensation.,G29 S2,,; Park,G1 X-30 Y200 F50000,,M0	;turn off all heaters
;   exportFileFormat,gcode
;   celebration,0
;   celebrationSong,Star Wars
;   postProcessing,
;   defaultSpeed,2400
;   outlineUnderspeed,1
;   solidInfillUnderspeed,1
;   supportUnderspeed,1
;   rapidXYspeed,21000
;   rapidZspeed,1500
;   minBridgingArea,50
;   bridgingExtraInflation,1
;   bridgingExtrusionMultiplier,1
;   bridgingSpeedMultiplier,1
;   useFixedBridgingAngle,0
;   fixedBridgingAngle,0
;   applyBridgingToPerimeters,1
;   filamentDiameters,1.75|1.75|1.75|1.75|1.75|1.75
;   filamentPricesPerKg,46|46|46|46|46|46
;   filamentDensities,1.25|1.25|1.25|1.25|1.25|1.25
;   useMinPrintHeight,0
;   minPrintHeight,12
;   useMaxPrintHeight,0
;   maxPrintHeight,1
;   useDiaphragm,0
;   diaphragmLayerInterval,20
;   robustSlicing,1
;   mergeAllIntoSolid,0
;   onlyRetractWhenCrossingOutline,0
;   retractBetweenLayers,0
;   useRetractionMinTravel,1
;   retractionMinTravel,3
;   retractWhileWiping,1
;   onlyWipeOutlines,1
;   avoidCrossingOutline,0
;   maxMovementDetourFactor,3
;   toolChangeRetractionDistance,5
;   toolChangeExtraRestartDistance,0
;   toolChangeRetractionSpeed,3000
;   externalThinWallType,0
;   internalThinWallType,0
;   thinWallAllowedOverlapPercentage,5
;   singleExtrusionMinLength,0.5
;   singleExtrusionMinPrintingWidthPercentage,50
;   singleExtrusionMaxPrintingWidthPercentage,150
;   singleExtrusionEndpointExtension,0.2
;   horizontalSizeCompensation,0.3
G90
M83
M106 S0
G29 S1
; process T0
; layer 1, Z = 0.750
T0
G1 E-5.5000 F6000
;Clean the nozzle must use a hardened nozzle!
;M98 Pbrush.g
; feature skirt
; tool H0.750 W0.900
G1 Z0.750 F1500
G1 X169.229 Y113.750 F21000
G1 E5.6000 F6000
G1 X130.771 Y113.750 E10.7926 F1200
G1 X128.750 Y111.729 E0.8021
G1 X128.750 Y88.271 E6.5831
G1 X130.771 Y86.250 E0.8021
G1 X169.229 Y86.250 E10.7926
G1 X171.250 Y88.271 E0.8021
G1 X171.250 Y111.729 E6.5831
G1 X169.229 Y113.750 E0.8021
G1 E-5.5000 F6000
; feature raft
; tool H0.750 W1.200
G1 Z1.250 F1500
G1 X167.200 Y109.700 F21000
G1 Z0.750 F1500
G1 E5.6000 F6000
G1 X132.800 Y109.700 E12.8717 F300
G1 X132.800 Y90.300 E7.2590
G1 X167.200 Y90.300 E12.8717
G1 X167.200 Y109.400 E7.1468
G1 X167.200 Y109.700 F300
G1 E-5.5000 F6000
G1 Z1.250 F1500
G1 X166.000 Y106.857 F21000
G1 Z0.750 F1500
G1 E5.6000 F6000
G1 X134.000 Y106.857 E11.9736 F300
G1 X134.000 Y103.429 E1.2829
G1 X166.000 Y103.429 E11.9736
G1 X166.000 Y100.000 E1.2829
G1 X134.000 Y100.000 E11.9736
G1 X134.000 Y96.571 E1.2829
G1 X166.000 Y96.571 E11.9736
G1 X166.000 Y93.143 E1.2829
G1 X134.300 Y93.143 E11.8614
G1 X134.000 Y93.143 F300
G1 E-5.5000 F6000
; layer 2, Z = 1.083
;Clean the nozzle must use a hardened nozzle!
;M98 Pbrush.g
; tool H0.333 W0.600
G1 Z1.250 F1500
G1 X167.500 Y109.653 F21000
G1 Z1.083 F1500
G1 E5.6000 F6000
G1 X167.153 Y110.000 E0.0408 F1800
G1 X166.304 Y110.000 E0.0706
G1 X167.500 Y108.804 E0.1406
G1 X167.500 Y107.956 E0.0706
G1 X165.456 Y110.000 E0.2404
G1 X164.607 Y110.000 E0.0706
G1 X167.500 Y107.107 E0.3402
G1 X167.500 Y106.259 E0.0706
G1 X163.759 Y110.000 E0.4399
G1 X162.910 Y110.000 E0.0706
G1 X167.500 Y105.410 E0.5397
G1 X167.500 Y104.562 E0.0706
G1 X162.062 Y110.000 E0.6395
G1 X161.213 Y110.000 E0.0706
G1 X167.500 Y103.713 E0.7393
G1 X167.500 Y102.865 E0.0706
G1 X160.365 Y110.000 E0.8391
G1 X159.516 Y110.000 E0.0706
G1 X167.500 Y102.016 E0.9388
G1 X167.500 Y101.168 E0.0706
G1 X158.668 Y110.000 E1.0386
G1 X157.819 Y110.000 E0.0706
G1 X167.500 Y100.319 E1.1384
G1 X167.500 Y99.471 E0.0706
G1 X156.971 Y110.000 E1.2382
G1 X156.122 Y110.000 E0.0706
G1 X167.500 Y98.622 E1.3380
G1 X167.500 Y97.774 E0.0706
G1 X155.274 Y110.000 E1.4377
G1 X154.425 Y110.000 E0.0706
G1 X167.500 Y96.925 E1.5375
G1 X167.500 Y96.076 E0.0706
G1 X153.576 Y110.000 E1.6373
G1 X152.728 Y110.000 E0.0706
G1 X167.500 Y95.228 E1.7371
G1 X167.500 Y94.379 E0.0706
G1 X151.879 Y110.000 E1.8369
G1 X151.031 Y110.000 E0.0706
G1 X167.500 Y93.531 E1.9366
G1 X167.500 Y92.682 E0.0706
G1 X150.182 Y110.000 E2.0364
G1 X149.334 Y110.000 E0.0706
G1 X167.500 Y91.834 E2.1362
G1 X167.500 Y90.985 E0.0706
G1 X148.485 Y110.000 E2.2360
G1 X147.637 Y110.000 E0.0706
G1 X167.500 Y90.137 E2.3358
G1 X167.500 Y90.000 E0.0114
G1 X166.788 Y90.000 E0.0592
G1 X146.788 Y110.000 E2.3518
G1 X145.940 Y110.000 E0.0706
G1 X165.940 Y90.000 E2.3518
G1 X165.091 Y90.000 E0.0706
G1 X145.091 Y110.000 E2.3518
G1 X144.243 Y110.000 E0.0706
G1 X164.243 Y90.000 E2.3518
G1 X163.394 Y90.000 E0.0706
G1 X143.394 Y110.000 E2.3518
G1 X142.546 Y110.000 E0.0706
G1 X162.546 Y90.000 E2.3518
G1 X161.697 Y90.000 E0.0706
G1 X141.697 Y110.000 E2.3518
G1 X140.849 Y110.000 E0.0706
G1 X160.849 Y90.000 E2.3518
G1 X160.000 Y90.000 E0.0706
G1 X140.000 Y110.000 E2.3518
G1 X139.152 Y110.000 E0.0706
G1 X159.152 Y90.000 E2.3518
G1 X158.303 Y90.000 E0.0706
G1 X138.303 Y110.000 E2.3518
G1 X137.454 Y110.000 E0.0706
G1 X157.454 Y90.000 E2.3518
G1 X156.606 Y90.000 E0.0706
G1 X136.606 Y110.000 E2.3518
G1 X135.757 Y110.000 E0.0706
G1 X155.757 Y90.000 E2.3518
G1 X154.909 Y90.000 E0.0706
G1 X134.909 Y110.000 E2.3518
G1 X134.060 Y110.000 E0.0706
G1 X154.060 Y90.000 E2.3518
G1 X153.212 Y90.000 E0.0706
G1 X133.212 Y110.000 E2.3518
G1 X132.500 Y110.000 E0.0592
G1 X132.500 Y109.863 E0.0114
G1 X152.363 Y90.000 E2.3358
G1 X151.515 Y90.000 E0.0706
G1 X132.500 Y109.015 E2.2360
G1 X132.500 Y108.166 E0.0706
G1 X150.666 Y90.000 E2.1362
G1 X149.818 Y90.000 E0.0706
G1 X132.500 Y107.318 E2.0364
G1 X132.500 Y106.469 E0.0706
G1 X148.969 Y90.000 E1.9366
G1 X148.121 Y90.000 E0.0706
G1 X132.500 Y105.621 E1.8369
G1 X132.500 Y104.772 E0.0706
G1 X147.272 Y90.000 E1.7371
G1 X146.424 Y90.000 E0.0706
G1 X132.500 Y103.924 E1.6373
G1 X132.500 Y103.075 E0.0706
G1 X145.575 Y90.000 E1.5375
G1 X144.727 Y90.000 E0.0706
G1 X132.500 Y102.227 E1.4377
G1 X132.500 Y101.378 E0.0706
G1 X143.878 Y90.000 E1.3380
G1 X143.029 Y90.000 E0.0706
G1 X132.500 Y100.529 E1.2382
G1 X132.500 Y99.681 E0.0706
G1 X142.181 Y90.000 E1.1384
G1 X141.332 Y90.000 E0.0706
G1 X132.500 Y98.832 E1.0386
G1 X132.500 Y97.984 E0.0706
G1 X140.484 Y90.000 E0.9388
G1 X139.635 Y90.000 E0.0706
G1 X132.500 Y97.135 E0.8391
G1 X132.500 Y96.287 E0.0706
G1 X138.787 Y90.000 E0.7393
G1 X137.938 Y90.000 E0.0706
G1 X132.500 Y95.438 E0.6395
G1 X132.500 Y94.590 E0.0706
G1 X137.090 Y90.000 E0.5397
G1 X136.241 Y90.000 E0.0706
G1 X132.500 Y93.741 E0.4399
G1 X132.500 Y92.893 E0.0706
G1 X135.393 Y90.000 E0.3402
G1 X134.544 Y90.000 E0.0706
G1 X132.500 Y92.044 E0.2404
G1 X132.500 Y91.196 E0.0706
G1 X133.696 Y90.000 E0.1406
G1 X132.847 Y90.000 E0.0706
G1 X132.712 Y90.135 E0.0159
G1 X132.500 Y90.347 F1800
G1 E-5.5000 F6000
; layer 3, Z = 1.417
;Clean the nozzle must use a hardened nozzle!
;M98 Pbrush.g
G1 Z1.583 F1500
G1 X167.153 Y90.000 F21000
G1 Z1.417 F1500
G1 E5.6000 F6000
G1 X167.500 Y90.347 E0.0408 F1800
G1 X167.500 Y91.196 E0.0706
G1 X166.304 Y90.000 E0.1406
G1 X165.456 Y90.000 E0.0706
G1 X167.500 Y92.044 E0.2404
G1 X167.500 Y92.893 E0.0706
G1 X164.607 Y90.000 E0.3402
G1 X163.759 Y90.000 E0.0706
G1 X167.500 Y93.741 E0.4399
G1 X167.500 Y94.590 E0.0706
G1 X162.910 Y90.000 E0.5397
G1 X162.062 Y90.000 E0.0706
G1 X167.500 Y95.438 E0.6395
G1 X167.500 Y96.287 E0.0706
G1 X161.213 Y90.000 E0.7393
G1 X160.365 Y90.000 E0.0706
G1 X167.500 Y97.135 E0.8391
G1 X167.500 Y97.984 E0.0706
G1 X159.516 Y90.000 E0.9388
G1 X158.668 Y90.000 E0.0706
G1 X167.500 Y98.832 E1.0386
G1 X167.500 Y99.681 E0.0706
G1 X157.819 Y90.000 E1.1384
G1 X156.971 Y90.000 E0.0706
G1 X167.500 Y100.529 E1.2382
G1 X167.500 Y101.378 E0.0706
G1 X156.122 Y90.000 E1.3380
G1 X155.274 Y90.000 E0.0706
G1 X167.500 Y102.226 E1.4377
G1 X167.500 Y103.075 E0.0706
G1 X154.425 Y90.000 E1.5375
G1 X153.576 Y90.000 E0.0706
G1 X167.500 Y103.924 E1.6373
G1 X167.500 Y104.772 E0.0706
G1 X152.728 Y90.000 E1.7371
G1 X151.879 Y90.000 E0.0706
G1 X167.500 Y105.621 E1.8369
G1 X167.500 Y106.469 E0.0706
G1 X151.031 Y90.000 E1.9366
G1 X150.182 Y90.000 E0.0706
G1 X167.500 Y107.318 E2.0364
G1 X167.500 Y108.166 E0.0706
G1 X149.334 Y90.000 E2.1362
G1 X148.485 Y90.000 E0.0706
G1 X167.500 Y109.015 E2.2360
G1 X167.500 Y109.863 E0.0706
G1 X147.637 Y90.000 E2.3358
G1 X146.788 Y90.000 E0.0706
G1 X166.788 Y110.000 E2.3518
G1 X165.940 Y110.000 E0.0706
G1 X145.940 Y90.000 E2.3518
G1 X145.091 Y90.000 E0.0706
G1 X165.091 Y110.000 E2.3518
G1 X164.243 Y110.000 E0.0706
G1 X144.243 Y90.000 E2.3518
G1 X143.394 Y90.000 E0.0706
G1 X163.394 Y110.000 E2.3518
G1 X162.546 Y110.000 E0.0706
G1 X142.546 Y90.000 E2.3518
G1 X141.697 Y90.000 E0.0706
G1 X161.697 Y110.000 E2.3518
G1 X160.849 Y110.000 E0.0706
G1 X140.849 Y90.000 E2.3518
G1 X140.000 Y90.000 E0.0706
G1 X160.000 Y110.000 E2.3518
G1 X159.151 Y110.000 E0.0706
G1 X139.151 Y90.000 E2.3518
G1 X138.303 Y90.000 E0.0706
G1 X158.303 Y110.000 E2.3518
G1 X157.454 Y110.000 E0.0706
G1 X137.454 Y90.000 E2.3518
G1 X136.606 Y90.000 E0.0706
G1 X156.606 Y110.000 E2.3518
G1 X155.757 Y110.000 E0.0706
G1 X135.757 Y90.000 E2.3518
G1 X134.909 Y90.000 E0.0706
G1 X154.909 Y110.000 E2.3518
G1 X154.060 Y110.000 E0.0706
G1 X134.060 Y90.000 E2.3518
G1 X133.212 Y90.000 E0.0706
G1 X153.212 Y110.000 E2.3518
G1 X152.363 Y110.000 E0.0706
G1 X132.500 Y90.137 E2.3358
G1 X132.500 Y90.985 E0.0706
G1 X151.515 Y110.000 E2.2360
G1 X150.666 Y110.000 E0.0706
G1 X132.500 Y91.834 E2.1362
G1 X132.500 Y92.682 E0.0706
G1 X149.818 Y110.000 E2.0364
G1 X148.969 Y110.000 E0.0706
G1 X132.500 Y93.531 E1.9366
G1 X132.500 Y94.379 E0.0706
G1 X148.121 Y110.000 E1.8369
G1 X147.272 Y110.000 E0.0706
G1 X132.500 Y95.228 E1.7371
G1 X132.500 Y96.076 E0.0706
G1 X146.424 Y110.000 E1.6373
G1 X145.575 Y110.000 E0.0706
G1 X132.500 Y96.925 E1.5375
G1 X132.500 Y97.773 E0.0706
G1 X144.727 Y110.000 E1.4377
G1 X143.878 Y110.000 E0.0706
G1 X132.500 Y98.622 E1.3380
G1 X132.500 Y99.471 E0.0706
G1 X143.029 Y110.000 E1.2382
G1 X142.181 Y110.000 E0.0706
G1 X132.500 Y100.319 E1.1384
G1 X132.500 Y101.168 E0.0706
G1 X141.332 Y110.000 E1.0386
G1 X140.484 Y110.000 E0.0706
G1 X132.500 Y102.016 E0.9388
G1 X132.500 Y102.865 E0.0706
G1 X139.635 Y110.000 E0.8391
G1 X138.787 Y110.000 E0.0706
G1 X132.500 Y103.713 E0.7393
G1 X132.500 Y104.562 E0.0706
G1 X137.938 Y110.000 E0.6395
G1 X137.090 Y110.000 E0.0706
G1 X132.500 Y105.410 E0.5397
G1 X132.500 Y106.259 E0.0706
G1 X136.241 Y110.000 E0.4399
G1 X135.393 Y110.000 E0.0706
G1 X132.500 Y107.107 E0.3402
G1 X132.500 Y107.956 E0.0706
G1 X134.544 Y110.000 E0.2404
G1 X133.696 Y110.000 E0.0706
G1 X132.500 Y108.804 E0.1406
G1 X132.500 Y109.653 E0.0706
G1 X132.635 Y109.788 E0.0159
G1 X132.847 Y110.000 F1800
G1 E-5.5000 F6000
; layer 4, Z = 1.817
;Clean the nozzle must use a hardened nozzle!
;M98 Pbrush.g
; feature inner perimeter
; tool H0.400 W0.900
G1 Z1.917 F1500
G1 X165.550 Y108.050 F21000
G1 Z1.817 F1500
G1 E5.6000 F6000
G1 X134.450 Y108.050 E4.6548 F2400
G1 X134.450 Y91.950 E2.4097
G1 X165.550 Y91.950 E4.6548
G1 X165.550 Y107.750 E2.3648
G1 X165.550 Y108.050 F2400
G1 X166.450 Y108.950 F21000
G1 X133.550 Y108.950 E4.9242 F2400
G1 X133.550 Y91.050 E2.6791
G1 X166.450 Y91.050 E4.9242
G1 X166.450 Y108.650 E2.6342
G1 X166.450 Y108.950 F2400
; feature outer perimeter
G1 X167.350 Y109.850 F21000
G1 X132.650 Y109.850 E5.1936 F2400
G1 X132.650 Y90.150 E2.9485
G1 X167.350 Y90.150 E5.1936
G1 X167.350 Y109.550 E2.9036
G1 X167.350 Y109.850 F2400
G1 X165.150 Y109.850 E-5.5000 F2400
G1 X163.350 Y109.850 F2400
; feature infill
G1 Z2.317 F1500
G1 X164.650 Y102.321 F21000
G1 Z1.817 F1500
G1 E5.6000 F6000
G1 X159.821 Y107.150 E1.0222 F2400
G1 X142.850 Y107.150 E2.5400
G1 X157.150 Y92.850 E3.0268
G1 X140.179 Y92.850 E2.5400
G1 X135.562 Y97.467 E0.9773
G1 X135.350 Y97.679 F2400
G1 E-5.5000 F6000
G1 Z2.317 F1500
G1 X140.179 Y107.150 F21000
G1 Z1.817 F1500
G1 E5.6000 F6000
G1 X135.350 Y102.321 E1.0222 F2400
G1 X135.350 Y92.850 E1.4175
G1 X142.850 Y92.850 E1.1225
G1 X157.150 Y107.150 E3.0268
G1 X164.650 Y107.150 E1.1225
G1 X164.650 Y97.679 E1.4175
G1 X160.033 Y93.062 E0.9773
G1 X159.821 Y92.850 F2400
G1 E-5.5000 F6000
T3
