; G-Code generated by Simplify3D(R) Version 4.1.1
; Mar 17, 2020 at 3:46:16 PM
; Settings Summary
;   processName,T0
;   applyToModels,Box
;   profileName,Default (modified)
;   profileVersion,2019-07-26 10:50:01
;   baseProfile,Generic Dual Extrusion Profile (modified)
;   printMaterial,PLA
;   printQuality,Medium
;   printExtruders,Both Extruders
;   extruderName,T0,T1,T2
;   extruderToolheadNumber,0,1,2
;   extruderDiameter,0.4,0.4,0.8
;   extruderAutoWidth,1,1,1
;   extruderWidth,0.48,0.48,0.96
;   extrusionMultiplier,1,1,1
;   extruderUseRetract,1,1,1
;   extruderRetractionDistance,1.5,1.5,4.5
;   extruderExtraRestartDistance,0,0,0.1
;   extruderRetractionZLift,0.5,0.5,1
;   extruderRetractionSpeed,6000,6000,6000
;   extruderUseCoasting,1,1,0
;   extruderCoastingDistance,0.3,0.3,0.2
;   extruderUseWipe,1,1,1
;   extruderWipeDistance,4,4,5
;   primaryExtruder,0
;   layerHeight,0.3
;   topSolidLayers,4
;   bottomSolidLayers,4
;   perimeterOutlines,3
;   printPerimetersInsideOut,1
;   startPointOption,1
;   startPointOriginX,0
;   startPointOriginY,100
;   sequentialIslands,1
;   spiralVaseMode,0
;   firstLayerHeightPercentage,100
;   firstLayerWidthPercentage,100
;   firstLayerUnderspeed,1
;   useRaft,1
;   raftExtruder,2
;   raftTopLayers,3
;   raftBaseLayers,1
;   raftOffset,4
;   raftSeparationDistance,0
;   raftTopInfill,100
;   aboveRaftSpeedMultiplier,1
;   useSkirt,0
;   skirtExtruder,0
;   skirtLayers,1
;   skirtOutlines,1
;   skirtOffset,3
;   usePrimePillar,0
;   primePillarExtruder,999
;   primePillarWidth,10
;   primePillarLocation,6
;   primePillarSpeedMultiplier,1
;   useOozeShield,0
;   oozeShieldExtruder,0
;   oozeShieldOffset,2
;   oozeShieldOutlines,1
;   oozeShieldSidewallShape,2
;   oozeShieldSidewallAngle,30
;   oozeShieldSpeedMultiplier,1
;   infillExtruder,0
;   internalInfillPattern,Grid
;   externalInfillPattern,Rectilinear
;   infillPercentage,12
;   outlineOverlapPercentage,0
;   infillExtrusionWidthPercentage,100
;   minInfillLength,5
;   infillLayerInterval,1
;   internalInfillAngles,45,-45
;   overlapInternalInfillAngles,1
;   externalInfillAngles,45,-45
;   generateSupport,1
;   supportExtruder,2
;   supportInfillPercentage,20
;   supportExtraInflation,0.5
;   supportBaseLayers,1
;   denseSupportExtruder,2
;   denseSupportLayers,3
;   denseSupportInfillPercentage,90
;   supportLayerInterval,1
;   supportHorizontalPartOffset,0.75
;   supportUpperSeparationLayers,0
;   supportLowerSeparationLayers,0
;   supportType,0
;   supportGridSpacing,100
;   maxOverhangAngle,89
;   supportAngles,45,-45
;   temperatureName,Primary Extruder
;   temperatureNumber,0
;   temperatureSetpointCount,1
;   temperatureSetpointLayers,1
;   temperatureSetpointTemperatures,190
;   temperatureStabilizeAtStartup,1
;   temperatureHeatedBed,0
;   fanLayers,1
;   fanSpeeds,0
;   blipFanToFullPower,0
;   adjustSpeedForCooling,1
;   minSpeedLayerTime,5
;   minCoolingSpeedSlowdown,10
;   increaseFanForCooling,0
;   minFanLayerTime,5
;   maxCoolingFanSpeed,75
;   increaseFanForBridging,0
;   bridgingFanSpeed,75
;   use5D,1
;   relativeEdistances,1
;   allowEaxisZeroing,1
;   independentExtruderAxes,0
;   includeM10123,0
;   stickySupport,1
;   applyToolheadOffsets,0
;   gcodeXoffset,0
;   gcodeYoffset,0
;   gcodeZoffset,0
;   overrideMachineDefinition,1
;   machineTypeOverride,0
;   strokeXoverride,300
;   strokeYoverride,200
;   strokeZoverride,300
;   originOffsetXoverride,0
;   originOffsetYoverride,0
;   originOffsetZoverride,0
;   homeXdirOverride,-1
;   homeYdirOverride,-1
;   homeZdirOverride,-1
;   flipXoverride,1
;   flipYoverride,-1
;   flipZoverride,1
;   toolheadOffsets,0,0|0,0|0,0|0,0|0,0|0,0
;   overrideFirmwareConfiguration,0
;   firmwareTypeOverride,RepRap (Marlin/Repetier/Sprinter)
;   GPXconfigOverride,r2
;   baudRateOverride,115200
;   overridePrinterModels,1
;   printerModelsOverride
;   startingGcode,G29 S1,,T0
;   layerChangeGcode,
;   retractionGcode,
;   toolChangeGcode,
;   endingGcode,;Drop Bed,G91,G1 Z2 F1000,G90,,; Drop off the tool,T-1,,; Disable Mesh Compensation.,G29 S2,,; Park,G1 X-20 Y200 F50000,,M0	;turn off all heaters
;   exportFileFormat,gcode
;   celebration,0
;   celebrationSong,Star Wars
;   postProcessing,
;   defaultSpeed,3000
;   outlineUnderspeed,1
;   solidInfillUnderspeed,1
;   supportUnderspeed,1
;   rapidXYspeed,21000
;   rapidZspeed,1500
;   minBridgingArea,50
;   bridgingExtraInflation,1
;   bridgingExtrusionMultiplier,1
;   bridgingSpeedMultiplier,1
;   useFixedBridgingAngle,0
;   fixedBridgingAngle,0
;   applyBridgingToPerimeters,1
;   filamentDiameters,1.75|1.75|1.75|1.75|1.75|1.75
;   filamentPricesPerKg,46|46|46|46|46|46
;   filamentDensities,1.25|1.25|1.25|1.25|1.25|1.25
;   useMinPrintHeight,0
;   minPrintHeight,12
;   useMaxPrintHeight,0
;   maxPrintHeight,1
;   useDiaphragm,0
;   diaphragmLayerInterval,20
;   robustSlicing,1
;   mergeAllIntoSolid,0
;   onlyRetractWhenCrossingOutline,0
;   retractBetweenLayers,0
;   useRetractionMinTravel,1
;   retractionMinTravel,1
;   retractWhileWiping,1
;   onlyWipeOutlines,1
;   avoidCrossingOutline,0
;   maxMovementDetourFactor,3
;   toolChangeRetractionDistance,0
;   toolChangeExtraRestartDistance,0
;   toolChangeRetractionSpeed,3000
;   externalThinWallType,0
;   internalThinWallType,0
;   thinWallAllowedOverlapPercentage,5
;   singleExtrusionMinLength,0.5
;   singleExtrusionMinPrintingWidthPercentage,50
;   singleExtrusionMaxPrintingWidthPercentage,200
;   singleExtrusionEndpointExtension,0.2
;   horizontalSizeCompensation,0.2
G90
M83
M106 S0
M104 S190 T0
M109 S190 T0
G29 S1
T0
; process T0
; layer 1, Z = 1.000
T2
G1 E-4.5000 F6000
; feature raft
; tool H1.000 W1.600
G1 Z1.000 F1500
G1 X203.400 Y73.475 F21000
G1 E4.6000 F6000
G1 X203.400 Y126.525 E35.2896 F750
G1 X201.525 Y128.400 E1.7634
G1 X98.475 Y128.400 E68.5498
G1 X96.600 Y126.525 E1.7634
G1 X96.600 Y73.475 E35.2896
G1 X98.475 Y71.600 E1.7634
G1 X201.525 Y71.600 E68.5498
G1 X203.400 Y73.475 E1.7634
G1 E-4.5000 F6000
G1 Z2.000 F1500
G1 X201.800 Y122.857 F21000
G1 Z1.000 F1500
G1 E4.6000 F6000
G1 X98.200 Y122.857 E68.9150 F750
G1 X98.200 Y118.286 E3.0409
G1 X201.800 Y118.286 E68.9150
G1 X201.800 Y113.714 E3.0409
G1 X98.200 Y113.714 E68.9150
G1 X98.200 Y109.143 E3.0409
G1 X201.800 Y109.143 E68.9150
G1 X201.800 Y104.571 E3.0409
G1 X98.200 Y104.571 E68.9150
G1 X98.200 Y100.000 E3.0409
G1 X201.800 Y100.000 E68.9150
G1 X201.800 Y95.429 E3.0409
G1 X98.200 Y95.429 E68.9150
G1 X98.200 Y90.857 E3.0409
G1 X201.800 Y90.857 E68.9150
G1 X201.800 Y86.286 E3.0409
G1 X98.200 Y86.286 E68.9150
G1 X98.200 Y81.714 E3.0409
G1 X201.800 Y81.714 E68.9150
G1 X201.800 Y77.143 E3.0409
G1 X98.200 Y77.143 E68.9150
G1 E-4.5000 F6000
; layer 2, Z = 1.444
; tool H0.444 W0.800
G1 Z2.000 F1500
G1 X96.200 Y73.473 F21000
G1 Z1.444 F1500
G1 E4.6000 F6000
G1 X98.473 Y71.200 E0.4751 F2250
G1 X99.604 Y71.200 E0.1672
G1 X96.200 Y74.604 E0.7116
G1 X96.200 Y75.735 E0.1672
G1 X100.735 Y71.200 E0.9481
G1 X101.867 Y71.200 E0.1672
G1 X96.200 Y76.867 E1.1847
G1 X96.200 Y77.998 E0.1672
G1 X102.998 Y71.200 E1.4212
G1 X104.130 Y71.200 E0.1672
G1 X96.200 Y79.130 E1.6577
G1 X96.200 Y80.261 E0.1672
G1 X105.261 Y71.200 E1.8942
G1 X106.392 Y71.200 E0.1672
G1 X96.200 Y81.392 E2.1307
G1 X96.200 Y82.524 E0.1672
G1 X107.524 Y71.200 E2.3672
G1 X108.655 Y71.200 E0.1672
G1 X96.200 Y83.655 E2.6038
G1 X96.200 Y84.786 E0.1672
G1 X109.786 Y71.200 E2.8403
G1 X110.918 Y71.200 E0.1672
G1 X96.200 Y85.918 E3.0768
G1 X96.200 Y87.049 E0.1672
G1 X112.049 Y71.200 E3.3133
G1 X113.181 Y71.200 E0.1672
G1 X96.200 Y88.181 E3.5498
G1 X96.200 Y89.312 E0.1672
G1 X114.312 Y71.200 E3.7863
G1 X115.443 Y71.200 E0.1672
G1 X96.200 Y90.443 E4.0229
G1 X96.200 Y91.575 E0.1672
G1 X116.575 Y71.200 E4.2594
G1 X117.706 Y71.200 E0.1672
G1 X96.200 Y92.706 E4.4959
G1 X96.200 Y93.837 E0.1672
G1 X118.837 Y71.200 E4.7324
G1 X119.969 Y71.200 E0.1672
G1 X96.200 Y94.969 E4.9689
G1 X96.200 Y96.100 E0.1672
G1 X121.100 Y71.200 E5.2054
G1 X122.231 Y71.200 E0.1672
G1 X96.200 Y97.231 E5.4420
G1 X96.200 Y98.363 E0.1672
G1 X123.363 Y71.200 E5.6785
G1 X124.494 Y71.200 E0.1672
G1 X96.200 Y99.494 E5.9150
G1 X96.200 Y100.626 E0.1672
G1 X125.626 Y71.200 E6.1515
G1 X126.757 Y71.200 E0.1672
G1 X96.200 Y101.757 E6.3880
G1 X96.200 Y102.888 E0.1672
G1 X127.888 Y71.200 E6.6245
G1 X129.020 Y71.200 E0.1672
G1 X96.200 Y104.020 E6.8611
G1 X96.200 Y105.151 E0.1672
G1 X130.151 Y71.200 E7.0976
G1 X131.282 Y71.200 E0.1672
G1 X96.200 Y106.282 E7.3341
G1 X96.200 Y107.414 E0.1672
G1 X132.414 Y71.200 E7.5706
G1 X133.545 Y71.200 E0.1672
G1 X96.200 Y108.545 E7.8071
G1 X96.200 Y109.677 E0.1672
G1 X134.677 Y71.200 E8.0436
G1 X135.808 Y71.200 E0.1672
G1 X96.200 Y110.808 E8.2802
G1 X96.200 Y111.939 E0.1672
G1 X136.939 Y71.200 E8.5167
G1 X138.071 Y71.200 E0.1672
G1 X96.200 Y113.071 E8.7532
G1 X96.200 Y114.202 E0.1672
G1 X139.202 Y71.200 E8.9897
G1 X140.333 Y71.200 E0.1672
G1 X96.200 Y115.333 E9.2262
G1 X96.200 Y116.465 E0.1672
G1 X141.465 Y71.200 E9.4627
G1 X142.596 Y71.200 E0.1672
G1 X96.200 Y117.596 E9.6993
G1 X96.200 Y118.728 E0.1672
G1 X143.728 Y71.200 E9.9358
G1 X144.859 Y71.200 E0.1672
G1 X96.200 Y119.859 E10.1723
G1 X96.200 Y120.990 E0.1672
G1 X145.990 Y71.200 E10.4088
G1 X147.122 Y71.200 E0.1672
G1 X96.200 Y122.122 E10.6453
G1 X96.200 Y123.253 E0.1672
G1 X148.253 Y71.200 E10.8818
G1 X149.384 Y71.200 E0.1672
G1 X96.200 Y124.384 E11.1184
G1 X96.200 Y125.516 E0.1672
G1 X150.516 Y71.200 E11.3549
G1 X151.647 Y71.200 E0.1672
G1 X96.200 Y126.647 E11.5914
G1 X96.200 Y126.691 E0.0065
G1 X96.744 Y127.235 E0.1137
G1 X152.779 Y71.200 E11.7143
G1 X153.910 Y71.200 E0.1672
G1 X97.309 Y127.801 E11.8325
G1 X97.875 Y128.366 E0.1183
G1 X155.041 Y71.200 E11.9508
G1 X156.173 Y71.200 E0.1672
G1 X98.573 Y128.800 E12.0415
G1 X99.704 Y128.800 E0.1672
G1 X157.304 Y71.200 E12.0415
G1 X158.435 Y71.200 E0.1672
G1 X100.835 Y128.800 E12.0415
G1 X101.967 Y128.800 E0.1672
G1 X159.567 Y71.200 E12.0415
G1 X160.698 Y71.200 E0.1672
G1 X103.098 Y128.800 E12.0415
G1 X104.229 Y128.800 E0.1672
G1 X161.829 Y71.200 E12.0415
G1 X162.961 Y71.200 E0.1672
G1 X105.361 Y128.800 E12.0415
G1 X106.492 Y128.800 E0.1672
G1 X164.092 Y71.200 E12.0415
G1 X165.224 Y71.200 E0.1672
G1 X107.624 Y128.800 E12.0415
G1 X108.755 Y128.800 E0.1672
G1 X166.355 Y71.200 E12.0415
G1 X167.486 Y71.200 E0.1672
G1 X109.886 Y128.800 E12.0415
G1 X111.018 Y128.800 E0.1672
G1 X168.618 Y71.200 E12.0415
G1 X169.749 Y71.200 E0.1672
G1 X112.149 Y128.800 E12.0415
G1 X113.280 Y128.800 E0.1672
G1 X170.880 Y71.200 E12.0415
G1 X172.012 Y71.200 E0.1672
G1 X114.412 Y128.800 E12.0415
G1 X115.543 Y128.800 E0.1672
G1 X173.143 Y71.200 E12.0415
G1 X174.275 Y71.200 E0.1672
G1 X116.675 Y128.800 E12.0415
G1 X117.806 Y128.800 E0.1672
G1 X175.406 Y71.200 E12.0415
G1 X176.537 Y71.200 E0.1672
G1 X118.937 Y128.800 E12.0415
G1 X120.069 Y128.800 E0.1672
G1 X177.669 Y71.200 E12.0415
G1 X178.800 Y71.200 E0.1672
G1 X121.200 Y128.800 E12.0415
G1 X122.331 Y128.800 E0.1672
G1 X179.931 Y71.200 E12.0415
G1 X181.063 Y71.200 E0.1672
G1 X123.463 Y128.800 E12.0415
G1 X124.594 Y128.800 E0.1672
G1 X182.194 Y71.200 E12.0415
G1 X183.326 Y71.200 E0.1672
G1 X125.726 Y128.800 E12.0415
G1 X126.857 Y128.800 E0.1672
G1 X184.457 Y71.200 E12.0415
G1 X185.588 Y71.200 E0.1672
G1 X127.988 Y128.800 E12.0415
G1 X129.120 Y128.800 E0.1672
G1 X186.720 Y71.200 E12.0415
G1 X187.851 Y71.200 E0.1672
G1 X130.251 Y128.800 E12.0415
G1 X131.382 Y128.800 E0.1672
G1 X188.982 Y71.200 E12.0415
G1 X190.114 Y71.200 E0.1672
G1 X132.514 Y128.800 E12.0415
G1 X133.645 Y128.800 E0.1672
G1 X191.245 Y71.200 E12.0415
G1 X192.376 Y71.200 E0.1672
G1 X134.776 Y128.800 E12.0415
G1 X135.908 Y128.800 E0.1672
G1 X193.508 Y71.200 E12.0415
G1 X194.639 Y71.200 E0.1672
G1 X137.039 Y128.800 E12.0415
G1 X138.171 Y128.800 E0.1672
G1 X195.771 Y71.200 E12.0415
G1 X196.902 Y71.200 E0.1672
G1 X139.302 Y128.800 E12.0415
G1 X140.433 Y128.800 E0.1672
G1 X198.033 Y71.200 E12.0415
G1 X199.165 Y71.200 E0.1672
G1 X141.565 Y128.800 E12.0415
G1 X142.696 Y128.800 E0.1672
G1 X200.296 Y71.200 E12.0415
G1 X201.427 Y71.200 E0.1672
G1 X143.827 Y128.800 E12.0415
G1 X144.959 Y128.800 E0.1672
G1 X202.125 Y71.634 E11.9508
G1 X202.691 Y72.200 E0.1183
G1 X146.090 Y128.800 E11.8325
G1 X147.222 Y128.800 E0.1672
G1 X203.256 Y72.765 E11.7142
G1 X203.800 Y73.309 E0.1136
G1 X203.800 Y73.353 E0.0065
G1 X148.353 Y128.800 E11.5914
G1 X149.484 Y128.800 E0.1672
G1 X203.800 Y74.484 E11.3549
G1 X203.800 Y75.616 E0.1672
G1 X150.616 Y128.800 E11.1183
G1 X151.747 Y128.800 E0.1672
G1 X203.800 Y76.747 E10.8818
G1 X203.800 Y77.878 E0.1672
G1 X152.878 Y128.800 E10.6453
G1 X154.010 Y128.800 E0.1672
G1 X203.800 Y79.010 E10.4088
G1 X203.800 Y80.141 E0.1672
G1 X155.141 Y128.800 E10.1723
G1 X156.273 Y128.800 E0.1672
G1 X203.800 Y81.273 E9.9358
G1 X203.800 Y82.404 E0.1672
G1 X157.404 Y128.800 E9.6992
G1 X158.535 Y128.800 E0.1672
G1 X203.800 Y83.535 E9.4627
G1 X203.800 Y84.667 E0.1672
G1 X159.667 Y128.800 E9.2262
G1 X160.798 Y128.800 E0.1672
G1 X203.800 Y85.798 E8.9897
G1 X203.800 Y86.929 E0.1672
G1 X161.929 Y128.800 E8.7532
G1 X163.061 Y128.800 E0.1672
G1 X203.800 Y88.061 E8.5167
G1 X203.800 Y89.192 E0.1672
G1 X164.192 Y128.800 E8.2801
G1 X165.323 Y128.800 E0.1672
G1 X203.800 Y90.323 E8.0436
G1 X203.800 Y91.455 E0.1672
G1 X166.455 Y128.800 E7.8071
G1 X167.586 Y128.800 E0.1672
G1 X203.800 Y92.586 E7.5706
G1 X203.800 Y93.718 E0.1672
G1 X168.718 Y128.800 E7.3341
G1 X169.849 Y128.800 E0.1672
G1 X203.800 Y94.849 E7.0976
G1 X203.800 Y95.980 E0.1672
G1 X170.980 Y128.800 E6.8610
G1 X172.112 Y128.800 E0.1672
G1 X203.800 Y97.112 E6.6245
G1 X203.800 Y98.243 E0.1672
G1 X173.243 Y128.800 E6.3880
G1 X174.374 Y128.800 E0.1672
G1 X203.800 Y99.374 E6.1515
G1 X203.800 Y100.506 E0.1672
G1 X175.506 Y128.800 E5.9150
G1 X176.637 Y128.800 E0.1672
G1 X203.800 Y101.637 E5.6785
G1 X203.800 Y102.769 E0.1672
G1 X177.769 Y128.800 E5.4419
G1 X178.900 Y128.800 E0.1672
G1 X203.800 Y103.900 E5.2054
G1 X203.800 Y105.031 E0.1672
G1 X180.031 Y128.800 E4.9689
G1 X181.163 Y128.800 E0.1672
G1 X203.800 Y106.163 E4.7324
G1 X203.800 Y107.294 E0.1672
G1 X182.294 Y128.800 E4.4959
G1 X183.425 Y128.800 E0.1672
G1 X203.800 Y108.425 E4.2594
G1 X203.800 Y109.557 E0.1672
G1 X184.557 Y128.800 E4.0228
G1 X185.688 Y128.800 E0.1672
G1 X203.800 Y110.688 E3.7863
G1 X203.800 Y111.820 E0.1672
G1 X186.820 Y128.800 E3.5498
G1 X187.951 Y128.800 E0.1672
G1 X203.800 Y112.951 E3.3133
G1 X203.800 Y114.082 E0.1672
G1 X189.082 Y128.800 E3.0768
G1 X190.214 Y128.800 E0.1672
G1 X203.800 Y115.214 E2.8403
G1 X203.800 Y116.345 E0.1672
G1 X191.345 Y128.800 E2.6038
G1 X192.476 Y128.800 E0.1672
G1 X203.800 Y117.476 E2.3672
G1 X203.800 Y118.608 E0.1672
G1 X193.608 Y128.800 E2.1307
G1 X194.739 Y128.800 E0.1672
G1 X203.800 Y119.739 E1.8942
G1 X203.800 Y120.871 E0.1672
G1 X195.871 Y128.800 E1.6577
G1 X197.002 Y128.800 E0.1672
G1 X203.800 Y122.002 E1.4212
G1 X203.800 Y123.133 E0.1672
G1 X198.133 Y128.800 E1.1847
G1 X199.265 Y128.800 E0.1672
G1 X203.800 Y124.265 E0.9481
G1 X203.800 Y125.396 E0.1672
G1 X200.396 Y128.800 E0.7116
G1 X201.527 Y128.800 E0.1672
G1 X203.800 Y126.527 E0.4751
G1 E-4.5000 F6000
; layer 3, Z = 1.889
G1 Z2.444 F1500
G1 X98.473 Y128.800 F21000
G1 Z1.889 F1500
G1 E4.6000 F6000
G1 X96.200 Y126.527 E0.4751 F2250
G1 X96.200 Y125.396 E0.1672
G1 X99.604 Y128.800 E0.7116
G1 X100.735 Y128.800 E0.1672
G1 X96.200 Y124.265 E0.9481
G1 X96.200 Y123.133 E0.1672
G1 X101.867 Y128.800 E1.1847
G1 X102.998 Y128.800 E0.1672
G1 X96.200 Y122.002 E1.4212
G1 X96.200 Y120.870 E0.1672
G1 X104.130 Y128.800 E1.6577
G1 X105.261 Y128.800 E0.1672
G1 X96.200 Y119.739 E1.8942
G1 X96.200 Y118.608 E0.1672
G1 X106.392 Y128.800 E2.1307
G1 X107.524 Y128.800 E0.1672
G1 X96.200 Y117.476 E2.3672
G1 X96.200 Y116.345 E0.1672
G1 X108.655 Y128.800 E2.6038
G1 X109.786 Y128.800 E0.1672
G1 X96.200 Y115.214 E2.8403
G1 X96.200 Y114.082 E0.1672
G1 X110.918 Y128.800 E3.0768
G1 X112.049 Y128.800 E0.1672
G1 X96.200 Y112.951 E3.3133
G1 X96.200 Y111.819 E0.1672
G1 X113.181 Y128.800 E3.5498
G1 X114.312 Y128.800 E0.1672
G1 X96.200 Y110.688 E3.7863
G1 X96.200 Y109.557 E0.1672
G1 X115.443 Y128.800 E4.0229
