T0
; G-Code generated by Simplify3D(R) Version 4.1.2
; Jan 2, 2020 at 9:50:21 AM
; Settings Summary
;   processName,Process1
;   applyToModels,Box
;   profileName,Default (modified)
;   profileVersion,2017-03-01 08:00:00
;   baseProfile,
;   printMaterial,PLA
;   printQuality,Medium
;   printExtruders,
;   extruderName,Primary Extruder
;   extruderToolheadNumber,0
;   extruderDiameter,0.35
;   extruderAutoWidth,0
;   extruderWidth,0.4
;   extrusionMultiplier,0.9
;   extruderUseRetract,1
;   extruderRetractionDistance,1
;   extruderExtraRestartDistance,0
;   extruderRetractionZLift,0
;   extruderRetractionSpeed,1800
;   extruderUseCoasting,0
;   extruderCoastingDistance,0.2
;   extruderUseWipe,0
;   extruderWipeDistance,5
;   primaryExtruder,0
;   layerHeight,0.2
;   topSolidLayers,3
;   bottomSolidLayers,3
;   perimeterOutlines,2
;   printPerimetersInsideOut,1
;   startPointOption,2
;   startPointOriginX,0
;   startPointOriginY,0
;   sequentialIslands,0
;   spiralVaseMode,0
;   firstLayerHeightPercentage,90
;   firstLayerWidthPercentage,100
;   firstLayerUnderspeed,0.5
;   useRaft,0
;   raftExtruder,0
;   raftTopLayers,3
;   raftBaseLayers,2
;   raftOffset,3
;   raftSeparationDistance,0.14
;   raftTopInfill,100
;   aboveRaftSpeedMultiplier,0.3
;   useSkirt,1
;   skirtExtruder,0
;   skirtLayers,1
;   skirtOutlines,2
;   skirtOffset,4
;   usePrimePillar,0
;   primePillarExtruder,999
;   primePillarWidth,12
;   primePillarLocation,7
;   primePillarSpeedMultiplier,1
;   useOozeShield,0
;   oozeShieldExtruder,999
;   oozeShieldOffset,2
;   oozeShieldOutlines,1
;   oozeShieldSidewallShape,1
;   oozeShieldSidewallAngle,30
;   oozeShieldSpeedMultiplier,1
;   infillExtruder,0
;   internalInfillPattern,Rectilinear
;   externalInfillPattern,Rectilinear
;   infillPercentage,20
;   outlineOverlapPercentage,15
;   infillExtrusionWidthPercentage,100
;   minInfillLength,5
;   infillLayerInterval,1
;   internalInfillAngles,45,-45
;   overlapInternalInfillAngles,0
;   externalInfillAngles,45,-45
;   generateSupport,0
;   supportExtruder,0
;   supportInfillPercentage,30
;   supportExtraInflation,0
;   supportBaseLayers,0
;   denseSupportExtruder,0
;   denseSupportLayers,0
;   denseSupportInfillPercentage,70
;   supportLayerInterval,1
;   supportHorizontalPartOffset,0.3
;   supportUpperSeparationLayers,1
;   supportLowerSeparationLayers,1
;   supportType,0
;   supportGridSpacing,4
;   maxOverhangAngle,45
;   supportAngles,0
;   temperatureName,Primary Extruder
;   temperatureNumber,0
;   temperatureSetpointCount,1
;   temperatureSetpointLayers,1
;   temperatureSetpointTemperatures,190
;   temperatureStabilizeAtStartup,1
;   temperatureHeatedBed,0
;   fanLayers,1,2
;   fanSpeeds,0,100
;   blipFanToFullPower,0
;   adjustSpeedForCooling,1
;   minSpeedLayerTime,15
;   minCoolingSpeedSlowdown,20
;   increaseFanForCooling,0
;   minFanLayerTime,45
;   maxCoolingFanSpeed,100
;   increaseFanForBridging,0
;   bridgingFanSpeed,100
;   use5D,1
;   relativeEdistances,0
;   allowEaxisZeroing,1
;   independentExtruderAxes,0
;   includeM10123,0
;   stickySupport,1
;   applyToolheadOffsets,0
;   gcodeXoffset,0
;   gcodeYoffset,0
;   gcodeZoffset,0
;   overrideMachineDefinition,1
;   machineTypeOverride,0
;   strokeXoverride,200
;   strokeYoverride,200
;   strokeZoverride,200
;   originOffsetXoverride,100
;   originOffsetYoverride,100
;   originOffsetZoverride,0
;   homeXdirOverride,-1
;   homeYdirOverride,-1
;   homeZdirOverride,-1
;   flipXoverride,1
;   flipYoverride,-1
;   flipZoverride,1
;   toolheadOffsets,0,0|0,0|0,0|0,0|0,0|0,0
;   overrideFirmwareConfiguration,0
;   firmwareTypeOverride,RepRap (Marlin/Repetier/Sprinter)
;   GPXconfigOverride,r2
;   baudRateOverride,115200
;   overridePrinterModels,0
;   printerModelsOverride
;   startingGcode,G28 ; home all axes
;   layerChangeGcode,
;   retractionGcode,
;   toolChangeGcode,
;   endingGcode,M104 S0 ; turn off extruder,M140 S0 ; turn off bed,M84 ; disable motors
;   exportFileFormat,gcode
;   celebration,0
;   celebrationSong,Random Song
;   postProcessing,
;   defaultSpeed,3600
;   outlineUnderspeed,0.5
;   solidInfillUnderspeed,0.8
;   supportUnderspeed,0.8
;   rapidXYspeed,4800
;   rapidZspeed,1000
;   minBridgingArea,50
;   bridgingExtraInflation,0
;   bridgingExtrusionMultiplier,1
;   bridgingSpeedMultiplier,1
;   useFixedBridgingAngle,0
;   fixedBridgingAngle,0
;   applyBridgingToPerimeters,0
;   filamentDiameters,1.75|1.75|1.75|1.75|1.75|1.75
;   filamentPricesPerKg,46|46|46|46|46|46
;   filamentDensities,1.25|1.25|1.25|1.25|1.25|1.25
;   useMinPrintHeight,0
;   minPrintHeight,0
;   useMaxPrintHeight,0
;   maxPrintHeight,0
;   useDiaphragm,0
;   diaphragmLayerInterval,20
;   robustSlicing,1
;   mergeAllIntoSolid,0
;   onlyRetractWhenCrossingOutline,1
;   retractBetweenLayers,1
;   useRetractionMinTravel,0
;   retractionMinTravel,3
;   retractWhileWiping,0
;   onlyWipeOutlines,1
;   avoidCrossingOutline,0
;   maxMovementDetourFactor,3
;   toolChangeRetractionDistance,12
;   toolChangeExtraRestartDistance,-0.5
;   toolChangeRetractionSpeed,600
;   externalThinWallType,0
;   internalThinWallType,2
;   thinWallAllowedOverlapPercentage,10
;   singleExtrusionMinLength,1
;   singleExtrusionMinPrintingWidthPercentage,50
;   singleExtrusionMaxPrintingWidthPercentage,200
;   singleExtrusionEndpointExtension,0.2
;   horizontalSizeCompensation,0
G90
M82
M106 S0
M104 S190 T0
M109 S190 T0
G28 ; home all axes
; process Process1
; layer 1, Z = 0.180
T0
G92 E0.0000
G1 E-1.0000 F1800
; feature skirt
; tool H0.180 W0.400
G1 Z0.180 F1000
G1 X14.600 Y-11.905 F4800
G1 E0.0000 F1800
G92 E0.0000
G1 X14.600 Y11.905 E0.6415 F1800
G1 X11.905 Y14.600 E0.7441
G1 X-11.905 Y14.600 E1.3856
G1 X-14.600 Y11.905 E1.4883
G1 X-14.600 Y-11.905 E2.1298
G1 X-11.905 Y-14.600 E2.2324
G1 X11.905 Y-14.600 E2.8739
G1 X14.600 Y-11.905 E2.9766
G92 E0.0000
G1 E-1.0000 F1800
G1 X14.200 Y-11.740 F4800
G1 E0.0000 F1800
G92 E0.0000
G1 X14.200 Y11.740 E0.6326 F1800
G1 X11.740 Y14.200 E0.7263
G1 X-11.740 Y14.200 E1.3588
G1 X-14.200 Y11.740 E1.4526
G1 X-14.200 Y-11.740 E2.0851
G1 X-11.740 Y-14.200 E2.1789
G1 X11.740 Y-14.200 E2.8114
G1 X14.200 Y-11.740 E2.9052
G92 E0.0000
G1 E-1.0000 F1800
; feature inner perimeter
G1 X9.400 Y-9.400 F4800
G1 E0.0000 F1800
G92 E0.0000
G1 X9.400 Y9.400 E0.5065 F1350
G1 X-9.400 Y9.400 E1.0130
G1 X-9.400 Y-9.400 E1.5195
G1 X9.400 Y-9.400 E2.0259
; feature outer perimeter
G1 X9.800 Y-9.800 F4800
G92 E0.0000
G1 X9.800 Y9.800 E0.5280 F900
G1 X-9.800 Y9.800 E1.0561
G1 X-9.800 Y-9.800 E1.5841
G1 X9.800 Y-9.800 E2.1122
; feature solid layer
G1 X9.042 Y-9.060 F4800
G92 E0.0000
G1 X9.060 Y-9.042 E0.0007 F1440
G1 X9.060 Y-8.476 E0.0159
G1 X8.476 Y-9.060 E0.0382
G1 X7.911 Y-9.060 E0.0534
G1 X9.060 Y-7.911 E0.0972
G1 X9.060 Y-7.345 E0.1124
G1 X7.345 Y-9.060 E0.1778
G1 X6.779 Y-9.060 E0.1930
G1 X9.060 Y-6.779 E0.2799
G1 X9.060 Y-6.214 E0.2952
G1 X6.214 Y-9.060 E0.4036
G1 X5.648 Y-9.060 E0.4189
G1 X9.060 Y-5.648 E0.5489
G1 X9.060 Y-5.082 E0.5641
G1 X5.082 Y-9.060 E0.7157
G1 X4.516 Y-9.060 E0.7309
G1 X9.060 Y-4.516 E0.9040
G1 X9.060 Y-3.951 E0.9192
G1 X3.951 Y-9.060 E1.1139
G1 X3.385 Y-9.060 E1.1291
G1 X9.060 Y-3.385 E1.3454
G1 X9.060 Y-2.819 E1.3606
G1 X2.819 Y-9.060 E1.5984
G1 X2.254 Y-9.060 E1.6136
G1 X9.060 Y-2.254 E1.8729
G1 X9.060 Y-1.688 E1.8882
G1 X1.688 Y-9.060 E2.1690
G1 X1.122 Y-9.060 E2.1843
G1 X9.060 Y-1.122 E2.4867
G1 X9.060 Y-0.557 E2.5019
G1 X0.557 Y-9.060 E2.8259
G1 X-0.009 Y-9.060 E2.8412
G1 X9.060 Y0.009 E3.1867
G1 X9.060 Y0.575 E3.2019
G1 X-0.575 Y-9.060 E3.5690
G1 X-1.140 Y-9.060 E3.5842
G1 X9.060 Y1.140 E3.9729
G1 X9.060 Y1.706 E3.9881
G1 X-1.706 Y-9.060 E4.3983
G1 X-2.272 Y-9.060 E4.4135
G1 X9.060 Y2.272 E4.8453
G1 X9.060 Y2.837 E4.8605
G1 X-2.837 Y-9.060 E5.3138
G1 X-3.403 Y-9.060 E5.3291
G1 X9.060 Y3.403 E5.8039
G1 X9.060 Y3.969 E5.8191
G1 X-3.969 Y-9.060 E6.3155
G1 X-4.535 Y-9.060 E6.3308
G1 X9.060 Y4.535 E6.8487
G1 X9.060 Y5.100 E6.8640
G1 X-5.100 Y-9.060 E7.4035
G1 X-5.666 Y-9.060 E7.4187
G1 X9.060 Y5.666 E7.9798
G1 X9.060 Y6.232 E7.9950
G1 X-6.232 Y-9.060 E8.5776
G1 X-6.797 Y-9.060 E8.5928
G1 X9.060 Y6.797 E9.1970
G1 X9.060 Y7.363 E9.2122
G1 X-7.363 Y-9.060 E9.8380
G1 X-7.929 Y-9.060 E9.8532
G1 X9.060 Y7.929 E10.5005
G1 X9.060 Y8.494 E10.5157
G1 X-8.494 Y-9.060 E11.1845
G1 X-9.060 Y-9.060 E11.1998
G1 X9.060 Y9.060 E11.8901
G1 X8.494 Y9.060 E11.9054
G1 X-9.060 Y-8.494 E12.5742
G1 X-9.060 Y-7.929 E12.5894
G1 X7.929 Y9.060 E13.2367
G1 X7.363 Y9.060 E13.2519
G1 X-9.060 Y-7.363 E13.8777
G1 X-9.060 Y-6.797 E13.8929
G1 X6.797 Y9.060 E14.4971
G1 X6.232 Y9.060 E14.5123
G1 X-9.060 Y-6.232 E15.0949
G1 X-9.060 Y-5.666 E15.1101
G1 X5.666 Y9.060 E15.6712
G1 X5.100 Y9.060 E15.6864
G1 X-9.060 Y-5.100 E16.2259
G1 X-9.060 Y-4.535 E16.2412
G1 X4.535 Y9.060 E16.7591
G1 X3.969 Y9.060 E16.7744
G1 X-9.060 Y-3.969 E17.2708
G1 X-9.060 Y-3.403 E17.2860
G1 X3.403 Y9.060 E17.7609
G1 X2.837 Y9.060 E17.7761
G1 X-9.060 Y-2.837 E18.2294
G1 X-9.060 Y-2.272 E18.2446
G1 X2.272 Y9.060 E18.6764
G1 X1.706 Y9.060 E18.6916
G1 X-9.060 Y-1.706 E19.1018
G1 X-9.060 Y-1.140 E19.1170
G1 X1.140 Y9.060 E19.5057
G1 X0.575 Y9.060 E19.5209
G1 X-9.060 Y-0.575 E19.8880
G1 X-9.060 Y-0.009 E19.9032
G1 X0.009 Y9.060 E20.2488
G1 X-0.557 Y9.060 E20.2640
G1 X-9.060 Y0.557 E20.5880
G1 X-9.060 Y1.122 E20.6032
G1 X-1.122 Y9.060 E20.9056
G1 X-1.688 Y9.060 E20.9209
G1 X-9.060 Y1.688 E21.2018
G1 X-9.060 Y2.254 E21.2170
G1 X-2.254 Y9.060 E21.4763
G1 X-2.819 Y9.060 E21.4916
G1 X-9.060 Y2.819 E21.7293
G1 X-9.060 Y3.385 E21.7446
G1 X-3.385 Y9.060 E21.9608
G1 X-3.951 Y9.060 E21.9760
G1 X-9.060 Y3.951 E22.1707
G1 X-9.060 Y4.516 E22.1859
G1 X-4.516 Y9.060 E22.3590
G1 X-5.082 Y9.060 E22.3743
G1 X-9.060 Y5.082 E22.5258
G1 X-9.060 Y5.648 E22.5411
G1 X-5.648 Y9.060 E22.6711
G1 X-6.213 Y9.060 E22.6863
G1 X-9.060 Y6.213 E22.7948
G1 X-9.060 Y6.779 E22.8100
G1 X-6.779 Y9.060 E22.8969
G1 X-7.345 Y9.060 E22.9121
G1 X-9.060 Y7.345 E22.9775
G1 X-9.060 Y7.911 E22.9927
G1 X-7.911 Y9.060 E23.0365
G1 X-8.476 Y9.060 E23.0518
G1 X-9.060 Y8.476 E23.0740
G1 X-9.060 Y9.042 E23.0892
G1 X-9.042 Y9.060 E23.0899
G92 E0.0000
G1 E-1.0000 F1800
; layer 2, Z = 0.380
M106 S255
; feature inner perimeter
; tool H0.200 W0.400
G1 Z0.380 F1000
G1 X-9.400 Y9.400 F4800
G1 E0.0000 F1800
G92 E0.0000
G1 X-9.400 Y-9.400 E0.5628 F2700
G1 X9.400 Y-9.400 E1.1255
G1 X9.400 Y9.400 E1.6883
G1 X-9.400 Y9.400 E2.2510
; feature outer perimeter
G1 X-9.800 Y9.800 F4800
G92 E0.0000
G1 X-9.800 Y-9.800 E0.5867 F1800
G1 X9.800 Y-9.800 E1.1734
G1 X9.800 Y9.800 E1.7601
G1 X-9.800 Y9.800 E2.3468
; feature solid layer
G1 X-9.060 Y-9.042 F4800
G92 E0.0000
G1 X-9.042 Y-9.060 E0.0008 F2880
G1 X-8.476 Y-9.060 E0.0177
G1 X-9.060 Y-8.476 E0.0424
G1 X-9.060 Y-7.911 E0.0593
G1 X-7.911 Y-9.060 E0.1080
G1 X-7.345 Y-9.060 E0.1249
G1 X-9.060 Y-7.345 E0.1975
G1 X-9.060 Y-6.779 E0.2145
G1 X-6.779 Y-9.060 E0.3110
G1 X-6.213 Y-9.060 E0.3280
G1 X-9.060 Y-6.213 E0.4485
G1 X-9.060 Y-5.648 E0.4654
G1 X-5.648 Y-9.060 E0.6099
G1 X-5.082 Y-9.060 E0.6268
G1 X-9.060 Y-5.082 E0.7952
G1 X-9.060 Y-4.516 E0.8121
G1 X-4.516 Y-9.060 E1.0045
G1 X-3.951 Y-9.060 E1.0214
G1 X-9.060 Y-3.951 E1.2377
G1 X-9.060 Y-3.385 E1.2546
G1 X-3.385 Y-9.060 E1.4949
G1 X-2.819 Y-9.060 E1.5118
G1 X-9.060 Y-2.819 E1.7760
G1 X-9.060 Y-2.254 E1.7929
G1 X-2.254 Y-9.060 E2.0810
G1 X-1.688 Y-9.060 E2.0980
G1 X-9.060 Y-1.688 E2.4101
G1 X-9.060 Y-1.122 E2.4270
G1 X-1.122 Y-9.060 E2.7630
G1 X-0.557 Y-9.060 E2.7800
G1 X-9.060 Y-0.557 E3.1399
G1 X-9.060 Y0.009 E3.1569
G1 X0.009 Y-9.060 E3.5408
G1 X0.575 Y-9.060 E3.5577
G1 X-9.060 Y0.575 E3.9656
G1 X-9.060 Y1.140 E3.9825
G1 X1.140 Y-9.060 E4.4143
G1 X1.706 Y-9.060 E4.4313
G1 X-9.060 Y1.706 E4.8870
G1 X-9.060 Y2.272 E4.9040
G1 X2.272 Y-9.060 E5.3837
G1 X2.837 Y-9.060 E5.4006
G1 X-9.060 Y2.837 E5.9043
G1 X-9.060 Y3.403 E5.9212
G1 X3.403 Y-9.060 E6.4488
G1 X3.969 Y-9.060 E6.4658
G1 X-9.060 Y3.969 E7.0173
G1 X-9.060 Y4.535 E7.0342
G1 X4.535 Y-9.060 E7.6097
G1 X5.100 Y-9.060 E7.6267
G1 X-9.060 Y5.100 E8.2261
G1 X-9.060 Y5.666 E8.2431
G1 X5.666 Y-9.060 E8.8665
G1 X6.232 Y-9.060 E8.8834
G1 X-9.060 Y6.232 E9.5307
G1 X-9.060 Y6.797 E9.5477
G1 X6.797 Y-9.060 E10.2190
G1 X7.363 Y-9.060 E10.2359
G1 X-9.060 Y7.363 E10.9311
G1 X-9.060 Y7.929 E10.9481
G1 X7.929 Y-9.060 E11.6672
G1 X8.494 Y-9.060 E11.6842
G1 X-9.060 Y8.494 E12.4273
G1 X-9.060 Y9.060 E12.4442
G1 X9.060 Y-9.060 E13.2113
G1 X9.060 Y-8.494 E13.2283
G1 X-8.494 Y9.060 E13.9714
G1 X-7.929 Y9.060 E13.9883
G1 X9.060 Y-7.929 E14.7075
G1 X9.060 Y-7.363 E14.7244
G1 X-7.363 Y9.060 E15.4197
G1 X-6.797 Y9.060 E15.4366
G1 X9.060 Y-6.797 E16.1079
G1 X9.060 Y-6.232 E16.1248
G1 X-6.232 Y9.060 E16.7722
G1 X-5.666 Y9.060 E16.7891
G1 X9.060 Y-5.666 E17.4125
G1 X9.060 Y-5.100 E17.4294
G1 X-5.100 Y9.060 E18.0289
G1 X-4.534 Y9.060 E18.0458
G1 X9.060 Y-4.534 E18.6213
G1 X9.060 Y-3.969 E18.6382
G1 X-3.969 Y9.060 E19.1898
G1 X-3.403 Y9.060 E19.2067
G1 X9.060 Y-3.403 E19.7343
G1 X9.060 Y-2.837 E19.7513
G1 X-2.837 Y9.060 E20.2549
G1 X-2.272 Y9.060 E20.2718
G1 X9.060 Y-2.272 E20.7516
G1 X9.060 Y-1.706 E20.7685
G1 X-1.706 Y9.060 E21.2242
G1 X-1.140 Y9.060 E21.2412
G1 X9.060 Y-1.140 E21.6730
G1 X9.060 Y-0.575 E21.6899
G1 X-0.575 Y9.060 E22.0978
G1 X-0.009 Y9.060 E22.1147
G1 X9.060 Y-0.009 E22.4987
G1 X9.060 Y0.557 E22.5156
G1 X0.557 Y9.060 E22.8756
G1 X1.122 Y9.060 E22.8925
G1 X9.060 Y1.122 E23.2285
G1 X9.060 Y1.688 E23.2455
G1 X1.688 Y9.060 E23.5575
G1 X2.254 Y9.060 E23.5745
G1 X9.060 Y2.254 E23.8626
G1 X9.060 Y2.819 E23.8795
G1 X2.819 Y9.060 E24.1437
G1 X3.385 Y9.060 E24.1606
G1 X9.060 Y3.385 E24.4009
G1 X9.060 Y3.951 E24.4178
G1 X3.951 Y9.060 E24.6341
G1 X4.516 Y9.060 E24.6510
G1 X9.060 Y4.516 E24.8434
G1 X9.060 Y5.082 E24.8603
G1 X5.082 Y9.060 E25.0287
G1 X5.648 Y9.060 E25.0456
G1 X9.060 Y5.648 E25.1901
G1 X9.060 Y6.214 E25.2070
G1 X6.214 Y9.060 E25.3275
G1 X6.779 Y9.060 E25.3445
G1 X9.060 Y6.779 E25.4410
G1 X9.060 Y7.345 E25.4579
G1 X7.345 Y9.060 E25.5305
G1 X7.911 Y9.060 E25.5475
G1 X9.060 Y7.911 E25.5961
G1 X9.060 Y8.476 E25.6131
G1 X8.476 Y9.060 E25.6378
G1 X9.042 Y9.060 E25.6547
G1 X9.060 Y9.042 E25.6555
G92 E0.0000
G1 E-1.0000 F1800
; layer 3, Z = 0.580
; feature inner perimeter
G1 Z0.580 F1000
G1 X9.400 Y9.400 F4800
G1 E0.0000 F1800
G92 E0.0000
G1 X-9.400 Y9.400 E0.5628 F2700
G1 X-9.400 Y-9.400 E1.1255
G1 X9.400 Y-9.400 E1.6883
G1 X9.400 Y9.400 E2.2510
; feature outer perimeter
G1 X9.800 Y9.800 F4800
G92 E0.0000
G1 X-9.800 Y9.800 E0.5867 F1800
G1 X-9.800 Y-9.800 E1.1734
G1 X9.800 Y-9.800 E1.7601
G1 X9.800 Y9.800 E2.3468
; feature solid layer
G1 X-9.042 Y9.060 F4800
G92 E0.0000
G1 X-9.060 Y9.042 E0.0008 F2880
G1 X-9.060 Y8.476 E0.0177
G1 X-8.476 Y9.060 E0.0424
G1 X-7.911 Y9.060 E0.0593
G1 X-9.060 Y7.911 E0.1080
G1 X-9.060 Y7.345 E0.1249
G1 X-7.345 Y9.060 E0.1975
G1 X-6.779 Y9.060 E0.2145
G1 X-9.060 Y6.779 E0.3110
G1 X-9.060 Y6.213 E0.3280
G1 X-6.213 Y9.060 E0.4485
G1 X-5.648 Y9.060 E0.4654
G1 X-9.060 Y5.648 E0.6099
G1 X-9.060 Y5.082 E0.6268
G1 X-5.082 Y9.060 E0.7952
G1 X-4.516 Y9.060 E0.8121
G1 X-9.060 Y4.516 E1.0045
G1 X-9.060 Y3.951 E1.0214
G1 X-3.951 Y9.060 E1.2377
G1 X-3.385 Y9.060 E1.2546
G1 X-9.060 Y3.385 E1.4949
G1 X-9.060 Y2.819 E1.5118
G1 X-2.819 Y9.060 E1.7760
G1 X-2.254 Y9.060 E1.7929
G1 X-9.060 Y2.254 E2.0810
G1 X-9.060 Y1.688 E2.0980
G1 X-1.688 Y9.060 E2.4101
G1 X-1.122 Y9.060 E2.4270
G1 X-9.060 Y1.122 E2.7630
G1 X-9.060 Y0.557 E2.7799
G1 X-0.557 Y9.060 E3.1399
G1 X0.009 Y9.060 E3.1569
G1 X-9.060 Y-0.009 E3.5408
G1 X-9.060 Y-0.575 E3.5577
G1 X0.575 Y9.060 E3.9656
G1 X1.140 Y9.060 E3.9825
G1 X-9.060 Y-1.140 E4.4143
G1 X-9.060 Y-1.706 E4.4313
G1 X1.706 Y9.060 E4.8870
G1 X2.272 Y9.060 E4.9040
G1 X-9.060 Y-2.272 E5.3837
G1 X-9.060 Y-2.837 E5.4006
G1 X2.837 Y9.060 E5.9043
G1 X3.403 Y9.060 E5.9212
G1 X-9.060 Y-3.403 E6.4488
G1 X-9.060 Y-3.969 E6.4657
G1 X3.969 Y9.060 E7.0173
G1 X4.535 Y9.060 E7.0342
G1 X-9.060 Y-4.535 E7.6097
G1 X-9.060 Y-5.100 E7.6267
G1 X5.100 Y9.060 E8.2261
G1 X5.666 Y9.060 E8.2430
G1 X-9.060 Y-5.666 E8.8664
G1 X-9.060 Y-6.232 E8.8834
G1 X6.232 Y9.060 E9.5307
G1 X6.797 Y9.060 E9.5476
G1 X-9.060 Y-6.797 E10.2189
G1 X-9.060 Y-7.363 E10.2359
