T0
; G-Code generated by Simplify3D(R) Version 4.1.2
; Jan 8, 2020 at 4:07:44 PM
; Settings Summary
;   processName,T0
;   applyToModels,Box
;   profileName,Default (modified)
;   profileVersion,2019-07-26 10:50:59
;   baseProfile,Generic Dual Extrusion Profile (modified)
;   printMaterial,PLA
;   printQuality,Medium
;   printExtruders,Both Extruders
;   extruderName,T0,Skrillex Jr,T2
;   extruderToolheadNumber,0,3,2
;   extruderDiameter,0.6,3.16,0.6
;   extruderAutoWidth,0,0,0
;   extruderWidth,0.9,2.66,0.9
;   extrusionMultiplier,1,1,1
;   extruderUseRetract,1,1,1
;   extruderRetractionDistance,5.5,1,5.5
;   extruderExtraRestartDistance,0.1,0,0.1
;   extruderRetractionZLift,0.5,5,1
;   extruderRetractionSpeed,6000,60,6000
;   extruderUseCoasting,1,0,1
;   extruderCoastingDistance,0.3,0.2,0.3
;   extruderUseWipe,1,0,1
;   extruderWipeDistance,4,5,4
;   primaryExtruder,0
;   layerHeight,0.4
;   topSolidLayers,5
;   bottomSolidLayers,0
;   perimeterOutlines,3
;   printPerimetersInsideOut,1
;   startPointOption,3
;   startPointOriginX,170
;   startPointOriginY,120
;   sequentialIslands,1
;   spiralVaseMode,0
;   firstLayerHeightPercentage,100
;   firstLayerWidthPercentage,100
;   firstLayerUnderspeed,0.5
;   useRaft,1
;   raftExtruder,0
;   raftTopLayers,2
;   raftBaseLayers,1
;   raftOffset,0
;   raftSeparationDistance,0
;   raftTopInfill,100
;   aboveRaftSpeedMultiplier,1
;   useSkirt,1
;   skirtExtruder,0
;   skirtLayers,1
;   skirtOutlines,1
;   skirtOffset,3
;   usePrimePillar,0
;   primePillarExtruder,999
;   primePillarWidth,10
;   primePillarLocation,6
;   primePillarSpeedMultiplier,1
;   useOozeShield,0
;   oozeShieldExtruder,1
;   oozeShieldOffset,0
;   oozeShieldOutlines,1
;   oozeShieldSidewallShape,2
;   oozeShieldSidewallAngle,45
;   oozeShieldSpeedMultiplier,0.15
;   infillExtruder,0
;   internalInfillPattern,Grid
;   externalInfillPattern,Rectilinear
;   infillPercentage,15
;   outlineOverlapPercentage,0
;   infillExtrusionWidthPercentage,100
;   minInfillLength,5
;   infillLayerInterval,1
;   internalInfillAngles,45,-45
;   overlapInternalInfillAngles,1
;   externalInfillAngles,45,-45
;   generateSupport,0
;   supportExtruder,0
;   supportInfillPercentage,20
;   supportExtraInflation,0.5
;   supportBaseLayers,1
;   denseSupportExtruder,0
;   denseSupportLayers,0
;   denseSupportInfillPercentage,90
;   supportLayerInterval,1
;   supportHorizontalPartOffset,0.75
;   supportUpperSeparationLayers,1
;   supportLowerSeparationLayers,1
;   supportType,0
;   supportGridSpacing,100
;   maxOverhangAngle,89
;   supportAngles,45
;   temperatureName,Primary Extruder
;   temperatureNumber,0
;   temperatureSetpointCount,1
;   temperatureSetpointLayers,1
;   temperatureSetpointTemperatures,190
;   temperatureStabilizeAtStartup,1
;   temperatureHeatedBed,0
;   fanLayers,1
;   fanSpeeds,0
;   blipFanToFullPower,0
;   adjustSpeedForCooling,1
;   minSpeedLayerTime,5
;   minCoolingSpeedSlowdown,10
;   increaseFanForCooling,0
;   minFanLayerTime,5
;   maxCoolingFanSpeed,75
;   increaseFanForBridging,0
;   bridgingFanSpeed,75
;   use5D,1
;   relativeEdistances,1
;   allowEaxisZeroing,1
;   independentExtruderAxes,0
;   includeM10123,0
;   stickySupport,1
;   applyToolheadOffsets,0
;   gcodeXoffset,0
;   gcodeYoffset,0
;   gcodeZoffset,0
;   overrideMachineDefinition,1
;   machineTypeOverride,0
;   strokeXoverride,300
;   strokeYoverride,200
;   strokeZoverride,300
;   originOffsetXoverride,0
;   originOffsetYoverride,0
;   originOffsetZoverride,0
;   homeXdirOverride,-1
;   homeYdirOverride,-1
;   homeZdirOverride,-1
;   flipXoverride,1
;   flipYoverride,-1
;   flipZoverride,1
;   toolheadOffsets,0,0|0,0|0,0|0,0|0,0|0,0
;   overrideFirmwareConfiguration,0
;   firmwareTypeOverride,RepRap (Marlin/Repetier/Sprinter)
;   GPXconfigOverride,r2
;   baudRateOverride,115200
;   overridePrinterModels,1
;   printerModelsOverride
;   startingGcode,G29 S1
;   layerChangeGcode,;Clean the nozzle must use a hardened nozzle!,;M98 Pbrush.g
;   retractionGcode,
;   toolChangeGcode,
;   endingGcode,;Drop Bed,G91,G1 Z2 F1000,G90,,; Drop off the tool,T-1,,; Disable Mesh Compensation.,G29 S2,,; Park,G1 X-30 Y200 F50000,,M0	;turn off all heaters
;   exportFileFormat,gcode
;   celebration,0
;   celebrationSong,Star Wars
;   postProcessing,
;   defaultSpeed,2400
;   outlineUnderspeed,1
;   solidInfillUnderspeed,1
;   supportUnderspeed,1
;   rapidXYspeed,21000
;   rapidZspeed,1500
;   minBridgingArea,50
;   bridgingExtraInflation,1
;   bridgingExtrusionMultiplier,1
;   bridgingSpeedMultiplier,1
;   useFixedBridgingAngle,0
;   fixedBridgingAngle,0
;   applyBridgingToPerimeters,1
;   filamentDiameters,1.75|1.75|1.75|1.75|1.75|1.75
;   filamentPricesPerKg,46|46|46|46|46|46
;   filamentDensities,1.25|1.25|1.25|1.25|1.25|1.25
;   useMinPrintHeight,0
;   minPrintHeight,12
;   useMaxPrintHeight,0
;   maxPrintHeight,1
;   useDiaphragm,0
;   diaphragmLayerInterval,20
;   robustSlicing,1
;   mergeAllIntoSolid,0
;   onlyRetractWhenCrossingOutline,0
;   retractBetweenLayers,0
;   useRetractionMinTravel,1
;   retractionMinTravel,3
;   retractWhileWiping,1
;   onlyWipeOutlines,1
;   avoidCrossingOutline,0
;   maxMovementDetourFactor,3
;   toolChangeRetractionDistance,5
;   toolChangeExtraRestartDistance,0
;   toolChangeRetractionSpeed,3000
;   externalThinWallType,0
;   internalThinWallType,0
;   thinWallAllowedOverlapPercentage,5
;   singleExtrusionMinLength,0.5
;   singleExtrusionMinPrintingWidthPercentage,50
;   singleExtrusionMaxPrintingWidthPercentage,150
;   singleExtrusionEndpointExtension,0.2
;   horizontalSizeCompensation,0.25
G90
M83
M106 S0
M104 S190 T0
M109 S190 T0
G29 S1
; process T0
; layer 1, Z = 0.750
T0
G1 E-5.5000 F6000
;Clean the nozzle must use a hardened nozzle!
;M98 Pbrush.g
; feature skirt
; tool H0.750 W0.900
G1 Z0.750 F1500
G1 X163.700 Y111.679 F21000
G1 E5.6000 F6000
G1 X161.679 Y113.700 E0.8021 F1200
G1 X138.321 Y113.700 E6.5550
G1 X136.300 Y111.679 E0.8021
G1 X136.300 Y88.321 E6.5550
G1 X138.321 Y86.300 E0.8021
G1 X161.679 Y86.300 E6.5550
G1 X163.700 Y88.321 E0.8021
G1 X163.700 Y111.679 E6.5550
G1 E-5.5000 F6000
; feature raft
; tool H0.750 W1.200
G1 Z1.250 F1500
G1 X159.650 Y109.650 F21000
G1 Z0.750 F1500
G1 E5.6000 F6000
G1 X140.350 Y109.650 E7.2216 F300
G1 X140.350 Y90.350 E7.2216
G1 X159.650 Y90.350 E7.2216
G1 X159.650 Y109.350 E7.1094
G1 X159.650 Y109.650 F300
G1 E-5.5000 F6000
G1 Z1.250 F1500
G1 X158.450 Y106.857 F21000
G1 Z0.750 F1500
G1 E5.6000 F6000
G1 X141.550 Y106.857 E6.3236 F300
G1 X141.550 Y103.429 E1.2829
G1 X158.450 Y103.429 E6.3236
G1 X158.450 Y100.000 E1.2829
G1 X141.550 Y100.000 E6.3236
G1 X141.550 Y96.571 E1.2829
G1 X158.450 Y96.571 E6.3236
G1 X158.450 Y93.143 E1.2829
G1 X141.850 Y93.143 E6.2113
G1 X141.550 Y93.143 F300
G1 E-5.5000 F6000
; layer 2, Z = 1.083
;Clean the nozzle must use a hardened nozzle!
;M98 Pbrush.g
; tool H0.333 W0.600
G1 Z1.250 F1500
G1 X159.950 Y109.566 F21000
G1 Z1.083 F1500
G1 E5.6000 F6000
G1 X159.566 Y109.950 E0.0451 F1800
G1 X158.718 Y109.950 E0.0706
G1 X159.950 Y108.718 E0.1449
G1 X159.950 Y107.869 E0.0706
G1 X157.869 Y109.950 E0.2447
G1 X157.021 Y109.950 E0.0706
G1 X159.950 Y107.021 E0.3445
G1 X159.950 Y106.172 E0.0706
G1 X156.172 Y109.950 E0.4443
G1 X155.324 Y109.950 E0.0706
G1 X159.950 Y105.324 E0.5440
G1 X159.950 Y104.475 E0.0706
G1 X154.475 Y109.950 E0.6438
G1 X153.626 Y109.950 E0.0706
G1 X159.950 Y103.626 E0.7436
G1 X159.950 Y102.778 E0.0706
G1 X152.778 Y109.950 E0.8434
G1 X151.929 Y109.950 E0.0706
G1 X159.950 Y101.929 E0.9432
G1 X159.950 Y101.081 E0.0706
G1 X151.081 Y109.950 E1.0429
G1 X150.232 Y109.950 E0.0706
G1 X159.950 Y100.232 E1.1427
G1 X159.950 Y99.384 E0.0706
G1 X149.384 Y109.950 E1.2425
G1 X148.535 Y109.950 E0.0706
G1 X159.950 Y98.535 E1.3423
G1 X159.950 Y97.687 E0.0706
G1 X147.687 Y109.950 E1.4421
G1 X146.838 Y109.950 E0.0706
G1 X159.950 Y96.838 E1.5418
G1 X159.950 Y95.990 E0.0706
G1 X145.990 Y109.950 E1.6416
G1 X145.141 Y109.950 E0.0706
G1 X159.950 Y95.141 E1.7414
G1 X159.950 Y94.293 E0.0706
G1 X144.293 Y109.950 E1.8412
G1 X143.444 Y109.950 E0.0706
G1 X159.950 Y93.444 E1.9410
G1 X159.950 Y92.596 E0.0706
G1 X142.596 Y109.950 E2.0407
G1 X141.747 Y109.950 E0.0706
G1 X159.950 Y91.747 E2.1405
G1 X159.950 Y90.899 E0.0706
G1 X140.899 Y109.950 E2.2403
G1 X140.050 Y109.950 E0.0706
G1 X159.950 Y90.050 E2.3401
G1 X159.102 Y90.050 E0.0706
G1 X140.050 Y109.102 E2.2403
G1 X140.050 Y108.253 E0.0706
G1 X158.253 Y90.050 E2.1405
G1 X157.404 Y90.050 E0.0706
G1 X140.050 Y107.404 E2.0408
G1 X140.050 Y106.556 E0.0706
G1 X156.556 Y90.050 E1.9410
G1 X155.707 Y90.050 E0.0706
G1 X140.050 Y105.707 E1.8412
G1 X140.050 Y104.859 E0.0706
G1 X154.859 Y90.050 E1.7414
G1 X154.010 Y90.050 E0.0706
G1 X140.050 Y104.010 E1.6416
G1 X140.050 Y103.162 E0.0706
G1 X153.162 Y90.050 E1.5418
G1 X152.313 Y90.050 E0.0706
G1 X140.050 Y102.313 E1.4421
G1 X140.050 Y101.465 E0.0706
G1 X151.465 Y90.050 E1.3423
G1 X150.616 Y90.050 E0.0706
G1 X140.050 Y100.616 E1.2425
G1 X140.050 Y99.768 E0.0706
G1 X149.768 Y90.050 E1.1427
G1 X148.919 Y90.050 E0.0706
G1 X140.050 Y98.919 E1.0429
G1 X140.050 Y98.071 E0.0706
G1 X148.071 Y90.050 E0.9432
G1 X147.222 Y90.050 E0.0706
G1 X140.050 Y97.222 E0.8434
G1 X140.050 Y96.374 E0.0706
G1 X146.374 Y90.050 E0.7436
G1 X145.525 Y90.050 E0.0706
G1 X140.050 Y95.525 E0.6438
G1 X140.050 Y94.677 E0.0706
G1 X144.677 Y90.050 E0.5440
G1 X143.828 Y90.050 E0.0706
G1 X140.050 Y93.828 E0.4443
G1 X140.050 Y92.979 E0.0706
G1 X142.979 Y90.050 E0.3445
G1 X142.131 Y90.050 E0.0706
G1 X140.050 Y92.131 E0.2447
G1 X140.050 Y91.282 E0.0706
G1 X141.282 Y90.050 E0.1449
G1 X140.434 Y90.050 E0.0706
G1 X140.262 Y90.222 E0.0202
G1 X140.050 Y90.434 F1800
G1 E-5.5000 F6000
; layer 3, Z = 1.417
;Clean the nozzle must use a hardened nozzle!
;M98 Pbrush.g
G1 Z1.583 F1500
G1 X140.434 Y109.950 F21000
G1 Z1.417 F1500
G1 E5.6000 F6000
G1 X140.050 Y109.566 E0.0451 F1800
G1 X140.050 Y108.718 E0.0706
G1 X141.282 Y109.950 E0.1449
G1 X142.131 Y109.950 E0.0706
G1 X140.050 Y107.869 E0.2447
G1 X140.050 Y107.021 E0.0706
G1 X142.979 Y109.950 E0.3445
G1 X143.828 Y109.950 E0.0706
G1 X140.050 Y106.172 E0.4443
G1 X140.050 Y105.323 E0.0706
G1 X144.677 Y109.950 E0.5440
G1 X145.525 Y109.950 E0.0706
G1 X140.050 Y104.475 E0.6438
G1 X140.050 Y103.626 E0.0706
G1 X146.374 Y109.950 E0.7436
G1 X147.222 Y109.950 E0.0706
G1 X140.050 Y102.778 E0.8434
G1 X140.050 Y101.929 E0.0706
G1 X148.071 Y109.950 E0.9432
G1 X148.919 Y109.950 E0.0706
G1 X140.050 Y101.081 E1.0429
G1 X140.050 Y100.232 E0.0706
G1 X149.768 Y109.950 E1.1427
G1 X150.616 Y109.950 E0.0706
G1 X140.050 Y99.384 E1.2425
G1 X140.050 Y98.535 E0.0706
G1 X151.465 Y109.950 E1.3423
G1 X152.313 Y109.950 E0.0706
G1 X140.050 Y97.687 E1.4421
G1 X140.050 Y96.838 E0.0706
G1 X153.162 Y109.950 E1.5418
G1 X154.010 Y109.950 E0.0706
G1 X140.050 Y95.990 E1.6416
G1 X140.050 Y95.141 E0.0706
G1 X154.859 Y109.950 E1.7414
G1 X155.707 Y109.950 E0.0706
G1 X140.050 Y94.293 E1.8412
G1 X140.050 Y93.444 E0.0706
G1 X156.556 Y109.950 E1.9410
G1 X157.404 Y109.950 E0.0706
G1 X140.050 Y92.596 E2.0407
G1 X140.050 Y91.747 E0.0706
G1 X158.253 Y109.950 E2.1405
G1 X159.101 Y109.950 E0.0706
G1 X140.050 Y90.899 E2.2403
G1 X140.050 Y90.050 E0.0706
G1 X159.950 Y109.950 E2.3401
G1 X159.950 Y109.101 E0.0706
G1 X140.899 Y90.050 E2.2403
G1 X141.747 Y90.050 E0.0706
G1 X159.950 Y108.253 E2.1405
G1 X159.950 Y107.404 E0.0706
G1 X142.596 Y90.050 E2.0407
G1 X143.444 Y90.050 E0.0706
G1 X159.950 Y106.556 E1.9410
G1 X159.950 Y105.707 E0.0706
G1 X144.293 Y90.050 E1.8412
G1 X145.141 Y90.050 E0.0706
G1 X159.950 Y104.859 E1.7414
G1 X159.950 Y104.010 E0.0706
G1 X145.990 Y90.050 E1.6416
G1 X146.838 Y90.050 E0.0706
G1 X159.950 Y103.162 E1.5418
G1 X159.950 Y102.313 E0.0706
G1 X147.687 Y90.050 E1.4421
G1 X148.535 Y90.050 E0.0706
G1 X159.950 Y101.465 E1.3423
G1 X159.950 Y100.616 E0.0706
G1 X149.384 Y90.050 E1.2425
G1 X150.232 Y90.050 E0.0706
G1 X159.950 Y99.768 E1.1427
G1 X159.950 Y98.919 E0.0706
G1 X151.081 Y90.050 E1.0429
G1 X151.929 Y90.050 E0.0706
G1 X159.950 Y98.071 E0.9432
G1 X159.950 Y97.222 E0.0706
G1 X152.778 Y90.050 E0.8434
G1 X153.626 Y90.050 E0.0706
G1 X159.950 Y96.374 E0.7436
G1 X159.950 Y95.525 E0.0706
G1 X154.475 Y90.050 E0.6438
G1 X155.324 Y90.050 E0.0706
G1 X159.950 Y94.676 E0.5440
G1 X159.950 Y93.828 E0.0706
G1 X156.172 Y90.050 E0.4443
G1 X157.021 Y90.050 E0.0706
G1 X159.950 Y92.979 E0.3445
G1 X159.950 Y92.131 E0.0706
G1 X157.869 Y90.050 E0.2447
G1 X158.718 Y90.050 E0.0706
G1 X159.950 Y91.282 E0.1449
G1 X159.950 Y90.434 E0.0706
G1 X159.778 Y90.262 E0.0202
G1 X159.566 Y90.050 F1800
G1 E-5.5000 F6000
; layer 4, Z = 1.817
;Clean the nozzle must use a hardened nozzle!
;M98 Pbrush.g
; feature inner perimeter
; tool H0.400 W0.900
G1 Z1.917 F1500
G1 X158.000 Y108.000 F21000
G1 Z1.817 F1500
G1 E5.6000 F6000
G1 X142.000 Y108.000 E2.3947 F2400
G1 X142.000 Y92.000 E2.3947
G1 X158.000 Y92.000 E2.3947
G1 X158.000 Y107.700 E2.3498
G1 X158.000 Y108.000 F2400
G1 X158.900 Y108.900 F21000
G1 X141.100 Y108.900 E2.6641 F2400
G1 X141.100 Y91.100 E2.6641
G1 X158.900 Y91.100 E2.6641
G1 X158.900 Y108.600 E2.6192
G1 X158.900 Y108.900 F2400
; feature outer perimeter
G1 X159.800 Y109.800 F21000
G1 X140.200 Y109.800 E2.9335 F2400
G1 X140.200 Y90.200 E2.9335
G1 X159.800 Y90.200 E2.9335
G1 X159.800 Y109.500 E2.8886
G1 X159.800 Y109.800 F2400
G1 X155.800 Y109.800 F2400
; feature infill
G1 X157.100 Y107.100 F21000
G1 X143.112 Y93.112 E2.9608 F2400
G1 X142.900 Y92.900 F2400
G1 E-5.5000 F6000
G1 Z2.317 F1500
G1 X157.100 Y92.900 F21000
G1 Z1.817 F1500
G1 E5.6000 F6000
G1 X143.112 Y106.888 E2.9608 F2400
G1 X142.900 Y107.100 F2400
G1 E-5.5000 F6000
; layer 5, Z = 2.217
;Clean the nozzle must use a hardened nozzle!
;M98 Pbrush.g
; feature inner perimeter
G1 Z2.317 F1500
G1 X158.000 Y108.000 F21000
G1 Z2.217 F1500
G1 E5.6000 F6000
G1 X142.000 Y108.000 E2.3947 F2400
G1 X142.000 Y92.000 E2.3947
G1 X158.000 Y92.000 E2.3947
G1 X158.000 Y107.700 E2.3498
G1 X158.000 Y108.000 F2400
G1 X158.900 Y108.900 F21000
G1 X141.100 Y108.900 E2.6641 F2400
G1 X141.100 Y91.100 E2.6641
G1 X158.900 Y91.100 E2.6641
G1 X158.900 Y108.600 E2.6192
G1 X158.900 Y108.900 F2400
; feature outer perimeter
G1 X159.800 Y109.800 F21000
G1 X140.200 Y109.800 E2.9335 F2400
G1 X140.200 Y90.200 E2.9335
G1 X159.800 Y90.200 E2.9335
G1 X159.800 Y109.500 E2.8886
G1 X159.800 Y109.800 F2400
G1 X155.800 Y109.800 F2400
; feature infill
G1 X157.100 Y107.100 F21000
G1 X143.112 Y93.112 E2.9608 F2400
G1 X142.900 Y92.900 F2400
G1 E-5.5000 F6000
G1 Z2.717 F1500
G1 X157.100 Y92.900 F21000
G1 Z2.217 F1500
G1 E5.6000 F6000
G1 X143.112 Y106.888 E2.9608 F2400
G1 X142.900 Y107.100 F2400
G1 E-5.5000 F6000
T3
G0 X137.778 Y100.317 Z16.817
G0 X137.778 Y100.317 Z11.817
G1 X137.778 Y100.317 Z3.417 F999
G1 X137.778 Y100.317 Z1.817 F999
G1 X138.095 Y100.317 Z1.817 F888
G1 X138.166 Y100.31 Z1.817 F888
G1 X138.233 Y100.286 Z1.817 F888
G1 X138.293 Y100.248 Z1.817 F888
G1 X138.343 Y100.198 Z1.817 F888
G1 X138.381 Y100.138 Z1.817 F888
G1 X138.405 Y100.071 Z1.817 F888
G1 X138.413 Y100.0 Z1.817 F888
G1 X138.413 Y90.0 Z1.817 F762
G1 X138.42 Y89.844 Z1.817 F762
G1 X138.443 Y89.69 Z1.817 F762
G1 X138.481 Y89.539 Z1.817 F762
G1 X138.533 Y89.392 Z1.817 F762
G1 X138.6 Y89.252 Z1.817 F762
G1 X138.68 Y89.118 Z1.817 F762
G1 X138.773 Y88.993 Z1.817 F762
G1 X138.877 Y88.877 Z1.817 F762
G1 X138.993 Y88.773 Z1.817 F762
G1 X139.118 Y88.68 Z1.817 F762
G1 X139.252 Y88.6 Z1.817 F762
G1 X139.392 Y88.533 Z1.817 F762
G1 X139.539 Y88.481 Z1.817 F762
G1 X139.69 Y88.443 Z1.817 F762
G1 X139.844 Y88.42 Z1.817 F762
G1 X140.0 Y88.413 Z1.817 F762
G1 X160.0 Y88.413 Z1.817 F762
G1 X160.156 Y88.42 Z1.817 F762
G1 X160.31 Y88.443 Z1.817 F762
G1 X160.461 Y88.481 Z1.817 F762
G1 X160.608 Y88.533 Z1.817 F762
G1 X160.748 Y88.6 Z1.817 F762
G1 X160.882 Y88.68 Z1.817 F762
G1 X161.007 Y88.773 Z1.817 F762
G1 X161.123 Y88.877 Z1.817 F762
G1 X161.227 Y88.993 Z1.817 F762
G1 X161.32 Y89.118 Z1.817 F762
G1 X161.4 Y89.252 Z1.817 F762
G1 X161.467 Y89.392 Z1.817 F762
G1 X161.519 Y89.539 Z1.817 F762
G1 X161.557 Y89.69 Z1.817 F762
G1 X161.58 Y89.844 Z1.817 F762
G1 X161.587 Y90.0 Z1.817 F762
