; G-Code generated by Simplify3D(R) Version 4.1.2
; Feb 19, 2020 at 3:23:08 PM
; Settings Summary
;   processName,T0
;   applyToModels,gear
;   profileName,Default (modified)
;   profileVersion,2019-07-26 10:50:01
;   baseProfile,Generic Dual Extrusion Profile (modified)
;   printMaterial,PLA
;   printQuality,Medium
;   printExtruders,Both Extruders
;   extruderName,T0,T1
;   extruderToolheadNumber,0,1
;   extruderDiameter,0.4,0.4
;   extruderAutoWidth,1,1
;   extruderWidth,0.48,0.48
;   extrusionMultiplier,1,1
;   extruderUseRetract,1,1
;   extruderRetractionDistance,1.5,1.5
;   extruderExtraRestartDistance,0,0
;   extruderRetractionZLift,0.5,0.5
;   extruderRetractionSpeed,6000,6000
;   extruderUseCoasting,1,1
;   extruderCoastingDistance,0.3,0.3
;   extruderUseWipe,1,1
;   extruderWipeDistance,4,4
;   primaryExtruder,0
;   layerHeight,0.2
;   topSolidLayers,4
;   bottomSolidLayers,4
;   perimeterOutlines,3
;   printPerimetersInsideOut,1
;   startPointOption,1
;   startPointOriginX,0
;   startPointOriginY,100
;   sequentialIslands,1
;   spiralVaseMode,0
;   firstLayerHeightPercentage,100
;   firstLayerWidthPercentage,100
;   firstLayerUnderspeed,0.5
;   useRaft,1
;   raftExtruder,1
;   raftTopLayers,3
;   raftBaseLayers,1
;   raftOffset,1
;   raftSeparationDistance,0
;   raftTopInfill,100
;   aboveRaftSpeedMultiplier,0.3
;   useSkirt,1
;   skirtExtruder,0
;   skirtLayers,1
;   skirtOutlines,1
;   skirtOffset,3
;   usePrimePillar,0
;   primePillarExtruder,999
;   primePillarWidth,10
;   primePillarLocation,6
;   primePillarSpeedMultiplier,1
;   useOozeShield,0
;   oozeShieldExtruder,0
;   oozeShieldOffset,2
;   oozeShieldOutlines,1
;   oozeShieldSidewallShape,2
;   oozeShieldSidewallAngle,30
;   oozeShieldSpeedMultiplier,1
;   infillExtruder,0
;   internalInfillPattern,Grid
;   externalInfillPattern,Rectilinear
;   infillPercentage,12
;   outlineOverlapPercentage,0
;   infillExtrusionWidthPercentage,100
;   minInfillLength,5
;   infillLayerInterval,1
;   internalInfillAngles,45,-45
;   overlapInternalInfillAngles,1
;   externalInfillAngles,45,-45
;   generateSupport,0
;   supportExtruder,0
;   supportInfillPercentage,20
;   supportExtraInflation,0.5
;   supportBaseLayers,1
;   denseSupportExtruder,0
;   denseSupportLayers,0
;   denseSupportInfillPercentage,90
;   supportLayerInterval,1
;   supportHorizontalPartOffset,0.75
;   supportUpperSeparationLayers,1
;   supportLowerSeparationLayers,1
;   supportType,0
;   supportGridSpacing,100
;   maxOverhangAngle,89
;   supportAngles,45
;   temperatureName,Primary Extruder,Heated Bed
;   temperatureNumber,0,0
;   temperatureSetpointCount,1,1
;   temperatureSetpointLayers,1,1
;   temperatureSetpointTemperatures,215,55
;   temperatureStabilizeAtStartup,1,1
;   temperatureHeatedBed,0,1
;   fanLayers,1
;   fanSpeeds,0
;   blipFanToFullPower,0
;   adjustSpeedForCooling,1
;   minSpeedLayerTime,5
;   minCoolingSpeedSlowdown,10
;   increaseFanForCooling,0
;   minFanLayerTime,5
;   maxCoolingFanSpeed,75
;   increaseFanForBridging,0
;   bridgingFanSpeed,75
;   use5D,1
;   relativeEdistances,1
;   allowEaxisZeroing,1
;   independentExtruderAxes,0
;   includeM10123,0
;   stickySupport,1
;   applyToolheadOffsets,0
;   gcodeXoffset,0
;   gcodeYoffset,0
;   gcodeZoffset,0
;   overrideMachineDefinition,1
;   machineTypeOverride,0
;   strokeXoverride,300
;   strokeYoverride,200
;   strokeZoverride,300
;   originOffsetXoverride,0
;   originOffsetYoverride,0
;   originOffsetZoverride,0
;   homeXdirOverride,-1
;   homeYdirOverride,-1
;   homeZdirOverride,-1
;   flipXoverride,1
;   flipYoverride,-1
;   flipZoverride,1
;   toolheadOffsets,0,0|0,0|0,0|0,0|0,0|0,0
;   overrideFirmwareConfiguration,0
;   firmwareTypeOverride,RepRap (Marlin/Repetier/Sprinter)
;   GPXconfigOverride,r2
;   baudRateOverride,115200
;   overridePrinterModels,1
;   printerModelsOverride
;   startingGcode,G29 S1,,T0
;   layerChangeGcode,
;   retractionGcode,
;   toolChangeGcode,
;   endingGcode,;Drop Bed,G91,G1 Z2 F1000,G90,,; Drop off the tool,T-1,,; Disable Mesh Compensation.,G29 S2,,; Park,G1 X-20 Y200 F50000,,M0	;turn off all heaters
;   exportFileFormat,gcode
;   celebration,0
;   celebrationSong,Star Wars
;   postProcessing,
;   defaultSpeed,3000
;   outlineUnderspeed,1
;   solidInfillUnderspeed,1
;   supportUnderspeed,1
;   rapidXYspeed,21000
;   rapidZspeed,1500
;   minBridgingArea,50
;   bridgingExtraInflation,1
;   bridgingExtrusionMultiplier,1
;   bridgingSpeedMultiplier,1
;   useFixedBridgingAngle,0
;   fixedBridgingAngle,0
;   applyBridgingToPerimeters,1
;   filamentDiameters,1.75|1.75|1.75|1.75|1.75|1.75
;   filamentPricesPerKg,46|46|46|46|46|46
;   filamentDensities,1.25|1.25|1.25|1.25|1.25|1.25
;   useMinPrintHeight,0
;   minPrintHeight,12
;   useMaxPrintHeight,0
;   maxPrintHeight,1
;   useDiaphragm,0
;   diaphragmLayerInterval,20
;   robustSlicing,1
;   mergeAllIntoSolid,0
;   onlyRetractWhenCrossingOutline,0
;   retractBetweenLayers,0
;   useRetractionMinTravel,1
;   retractionMinTravel,1
;   retractWhileWiping,1
;   onlyWipeOutlines,1
;   avoidCrossingOutline,0
;   maxMovementDetourFactor,3
;   toolChangeRetractionDistance,5
;   toolChangeExtraRestartDistance,0
;   toolChangeRetractionSpeed,3000
;   externalThinWallType,0
;   internalThinWallType,0
;   thinWallAllowedOverlapPercentage,5
;   singleExtrusionMinLength,0.5
;   singleExtrusionMinPrintingWidthPercentage,50
;   singleExtrusionMaxPrintingWidthPercentage,150
;   singleExtrusionEndpointExtension,0.2
;   horizontalSizeCompensation,0.25
G90
M83
M106 S0
M140 S55
M190 S55
M104 S215 T0
M109 S215 T0
G29 S1
T0
; process T0
; layer 1, Z = 0.500
T0
G1 E-1.5000 F6000
; feature skirt
; tool H0.500 W0.480
G1 Z0.500 F1500
G1 X153.102 Y68.647 F21000
G1 E1.5000 F6000
G1 X153.317 Y68.660 E0.0215 F1500
G1 X153.449 Y68.673 E0.0133
G1 X154.255 Y68.789 E0.0812
G1 X154.399 Y68.817 E0.0147
G1 X154.631 Y68.872 E0.0237
G1 X154.772 Y68.912 E0.0147
G1 X155.696 Y69.223 E0.0972
G1 X155.834 Y69.277 E0.0148
G1 X156.053 Y69.373 E0.0239
G1 X156.185 Y69.439 E0.0148
G1 X156.868 Y69.819 E0.0780
G1 X156.977 Y69.885 E0.0127
G1 X157.148 Y69.999 E0.0206
G1 X157.252 Y70.073 E0.0127
G1 X157.852 Y70.543 E0.0761
G1 X157.922 Y70.601 E0.0091
G1 X158.033 Y70.699 E0.0147
G1 X158.100 Y70.761 E0.0091
G1 X159.174 Y71.817 E0.1503
G1 X159.278 Y71.892 E0.0128
G1 X159.346 Y71.926 E0.0075
G1 X159.416 Y71.948 E0.0073
G1 X159.510 Y71.960 E0.0095
G1 X159.715 Y71.954 E0.0205
G1 X160.634 Y71.805 E0.0928
G1 X160.678 Y71.798 E0.0044
G1 X160.748 Y71.789 E0.0071
G1 X160.792 Y71.784 E0.0044
G1 X161.671 Y71.690 E0.0882
G1 X161.807 Y71.681 E0.0135
G1 X162.026 Y71.676 E0.0219
G1 X162.161 Y71.679 E0.0135
G1 X162.960 Y71.727 E0.0798
G1 X163.084 Y71.740 E0.0125
G1 X163.284 Y71.767 E0.0201
G1 X163.406 Y71.789 E0.0124
G1 X164.096 Y71.940 E0.0704
G1 X164.216 Y71.971 E0.0124
G1 X164.409 Y72.029 E0.0201
G1 X164.526 Y72.069 E0.0124
G1 X165.281 Y72.360 E0.0807
G1 X165.404 Y72.414 E0.0134
G1 X165.599 Y72.508 E0.0216
G1 X165.718 Y72.572 E0.0134
G1 X166.418 Y72.986 E0.0812
G1 X166.530 Y73.058 E0.0132
G1 X166.705 Y73.182 E0.0214
G1 X166.810 Y73.262 E0.0132
G1 X167.427 Y73.780 E0.0803
G1 X167.527 Y73.871 E0.0135
G1 X167.682 Y74.024 E0.0218
G1 X167.774 Y74.123 E0.0135
G1 X168.309 Y74.750 E0.0822
G1 X168.392 Y74.856 E0.0134
G1 X168.518 Y75.032 E0.0216
G1 X168.592 Y75.144 E0.0134
G1 X168.998 Y75.818 E0.0785
G1 X169.060 Y75.933 E0.0130
G1 X169.154 Y76.123 E0.0211
G1 X169.208 Y76.242 E0.0130
G1 X169.846 Y77.842 E0.1719
G1 X169.927 Y77.985 E0.0165
G1 X169.977 Y78.047 E0.0079
G1 X170.039 Y78.102 E0.0083
G1 X170.072 Y78.123 E0.0039
G1 X170.351 Y78.241 E0.0303
G1 X172.037 Y78.721 E0.1749
G1 X172.184 Y78.770 E0.0155
G1 X172.418 Y78.862 E0.0251
G1 X172.560 Y78.925 E0.0155
G1 X173.294 Y79.297 E0.0822
G1 X173.412 Y79.363 E0.0135
G1 X173.598 Y79.478 E0.0218
G1 X173.710 Y79.554 E0.0135
G1 X174.368 Y80.039 E0.0816
G1 X174.474 Y80.124 E0.0136
G1 X174.640 Y80.269 E0.0220
G1 X174.738 Y80.363 E0.0136
G1 X175.310 Y80.957 E0.0822
G1 X175.399 Y81.057 E0.0134
G1 X175.536 Y81.225 E0.0216
G1 X175.617 Y81.332 E0.0134
G1 X176.076 Y82.000 E0.0809
G1 X176.145 Y82.111 E0.0131
G1 X176.251 Y82.296 E0.0212
G1 X176.312 Y82.412 E0.0131
G1 X176.652 Y83.135 E0.0797
G1 X176.704 Y83.257 E0.0133
G1 X176.779 Y83.459 E0.0215
G1 X176.820 Y83.585 E0.0133
G1 X177.037 Y84.352 E0.0795
G1 X177.067 Y84.480 E0.0131
G1 X177.109 Y84.688 E0.0212
G1 X177.129 Y84.818 E0.0131
G1 X177.217 Y85.590 E0.0775
G1 X177.226 Y85.709 E0.0119
G1 X177.233 Y85.902 E0.0193
G1 X177.234 Y86.021 E0.0119
G1 X177.173 Y87.813 E0.1789
G1 X177.185 Y87.906 E0.0093
G1 X177.206 Y87.975 E0.0073
G1 X177.239 Y88.043 E0.0076
G1 X177.298 Y88.125 E0.0100
G1 X177.486 Y88.313 E0.0265
G1 X178.401 Y89.045 E0.1170
G1 X178.465 Y89.099 E0.0084
G1 X178.567 Y89.189 E0.0136
G1 X178.628 Y89.247 E0.0084
G1 X179.162 Y89.773 E0.0747
G1 X179.250 Y89.866 E0.0128
G1 X179.386 Y90.024 E0.0207
G1 X179.466 Y90.124 E0.0128
G1 X179.945 Y90.775 E0.0806
G1 X180.021 Y90.888 E0.0136
G1 X180.136 Y91.076 E0.0220
G1 X180.202 Y91.195 E0.0136
G1 X180.571 Y91.929 E0.0819
G1 X180.626 Y92.052 E0.0135
G1 X180.708 Y92.254 E0.0218
G1 X180.753 Y92.382 E0.0135
G1 X180.994 Y93.165 E0.0818
G1 X181.029 Y93.295 E0.0134
G1 X181.075 Y93.507 E0.0216
G1 X181.098 Y93.639 E0.0134
G1 X181.207 Y94.447 E0.0813
G1 X181.219 Y94.579 E0.0132
G1 X181.230 Y94.792 E0.0214
G1 X181.232 Y94.925 E0.0132
G1 X181.208 Y95.719 E0.0793
G1 X181.199 Y95.849 E0.0129
G1 X181.176 Y96.057 E0.0209
G1 X181.156 Y96.186 E0.0130
G1 X181.012 Y96.937 E0.0763
G1 X180.982 Y97.062 E0.0129
G1 X180.927 Y97.264 E0.0208
G1 X180.887 Y97.387 E0.0129
G1 X180.615 Y98.135 E0.0794
G1 X180.575 Y98.233 E0.0106
G1 X180.506 Y98.390 E0.0171
G1 X180.460 Y98.486 E0.0106
G1 X179.994 Y99.379 E0.1005
G1 X179.791 Y99.850 E0.0512
G1 X179.771 Y99.930 E0.0082
G1 X179.766 Y100.000 E0.0070
G1 X179.771 Y100.070 E0.0070
G1 X179.791 Y100.150 E0.0082
G1 X179.994 Y100.621 E0.0512
G1 X180.460 Y101.514 E0.1005
G1 X180.506 Y101.610 E0.0106
G1 X180.575 Y101.767 E0.0171
G1 X180.615 Y101.865 E0.0106
G1 X180.887 Y102.613 E0.0794
G1 X180.927 Y102.736 E0.0129
G1 X180.982 Y102.938 E0.0208
G1 X181.012 Y103.063 E0.0129
G1 X181.156 Y103.814 E0.0763
G1 X181.176 Y103.943 E0.0130
G1 X181.199 Y104.151 E0.0209
G1 X181.208 Y104.281 E0.0129
G1 X181.232 Y105.075 E0.0793
G1 X181.230 Y105.208 E0.0132
G1 X181.219 Y105.421 E0.0214
G1 X181.207 Y105.553 E0.0132
G1 X181.098 Y106.361 E0.0813
G1 X181.075 Y106.493 E0.0134
G1 X181.029 Y106.705 E0.0216
G1 X180.994 Y106.835 E0.0134
G1 X180.753 Y107.618 E0.0818
G1 X180.708 Y107.746 E0.0135
G1 X180.626 Y107.948 E0.0218
G1 X180.571 Y108.071 E0.0135
G1 X180.202 Y108.805 E0.0819
G1 X180.136 Y108.924 E0.0136
G1 X180.021 Y109.112 E0.0220
G1 X179.945 Y109.225 E0.0136
G1 X179.466 Y109.876 E0.0806
G1 X179.386 Y109.976 E0.0128
G1 X179.250 Y110.134 E0.0207
G1 X179.162 Y110.227 E0.0128
G1 X178.628 Y110.753 E0.0747
G1 X178.567 Y110.811 E0.0084
G1 X178.465 Y110.901 E0.0136
G1 X178.401 Y110.955 E0.0084
G1 X177.486 Y111.687 E0.1170
G1 X177.298 Y111.875 E0.0265
G1 X177.239 Y111.957 E0.0100
G1 X177.206 Y112.025 E0.0076
G1 X177.185 Y112.094 E0.0073
G1 X177.173 Y112.187 E0.0094
G1 X177.234 Y113.979 E0.1789
G1 X177.233 Y114.098 E0.0119
G1 X177.226 Y114.291 E0.0193
G1 X177.217 Y114.410 E0.0119
G1 X177.129 Y115.182 E0.0775
G1 X177.109 Y115.312 E0.0131
G1 X177.067 Y115.520 E0.0212
G1 X177.037 Y115.648 E0.0131
G1 X176.820 Y116.415 E0.0795
G1 X176.779 Y116.541 E0.0133
G1 X176.704 Y116.742 E0.0215
G1 X176.652 Y116.865 E0.0133
G1 X176.312 Y117.588 E0.0797
G1 X176.251 Y117.704 E0.0131
G1 X176.145 Y117.889 E0.0212
G1 X176.076 Y118.000 E0.0131
G1 X175.617 Y118.668 E0.0809
G1 X175.536 Y118.775 E0.0134
G1 X175.399 Y118.943 E0.0216
G1 X175.310 Y119.043 E0.0134
G1 X174.738 Y119.636 E0.0822
G1 X174.640 Y119.730 E0.0136
G1 X174.474 Y119.876 E0.0220
G1 X174.368 Y119.961 E0.0136
G1 X173.710 Y120.446 E0.0816
G1 X173.598 Y120.522 E0.0135
G1 X173.412 Y120.637 E0.0218
G1 X173.294 Y120.702 E0.0135
G1 X172.560 Y121.075 E0.0822
G1 X172.418 Y121.138 E0.0155
G1 X172.184 Y121.230 E0.0251
G1 X172.037 Y121.279 E0.0155
G1 X170.351 Y121.759 E0.1749
G1 X170.072 Y121.877 E0.0303
G1 X170.039 Y121.898 E0.0039
G1 X169.977 Y121.953 E0.0083
G1 X169.927 Y122.015 E0.0079
G1 X169.846 Y122.158 E0.0164
G1 X169.208 Y123.758 E0.1719
G1 X169.154 Y123.877 E0.0130
G1 X169.060 Y124.067 E0.0211
G1 X168.998 Y124.182 E0.0130
G1 X168.592 Y124.856 E0.0785
G1 X168.518 Y124.968 E0.0134
G1 X168.392 Y125.144 E0.0216
G1 X168.309 Y125.250 E0.0134
G1 X167.774 Y125.877 E0.0822
G1 X167.682 Y125.976 E0.0135
G1 X167.527 Y126.129 E0.0218
G1 X167.427 Y126.220 E0.0135
G1 X166.810 Y126.737 E0.0803
G1 X166.705 Y126.818 E0.0132
G1 X166.530 Y126.942 E0.0214
G1 X166.418 Y127.014 E0.0132
G1 X165.718 Y127.428 E0.0812
G1 X165.600 Y127.492 E0.0134
G1 X165.405 Y127.586 E0.0216
G1 X165.281 Y127.640 E0.0134
G1 X164.526 Y127.931 E0.0808
G1 X164.409 Y127.971 E0.0124
G1 X164.216 Y128.029 E0.0201
G1 X164.096 Y128.060 E0.0124
G1 X163.406 Y128.211 E0.0704
G1 X163.284 Y128.233 E0.0124
G1 X163.084 Y128.260 E0.0201
G1 X162.960 Y128.273 E0.0125
G1 X162.161 Y128.321 E0.0798
G1 X162.026 Y128.324 E0.0135
G1 X161.807 Y128.319 E0.0219
G1 X161.671 Y128.310 E0.0135
G1 X160.792 Y128.216 E0.0882
G1 X160.748 Y128.211 E0.0044
G1 X160.678 Y128.202 E0.0071
G1 X160.634 Y128.195 E0.0044
G1 X159.715 Y128.046 E0.0928
G1 X159.510 Y128.040 E0.0205
G1 X159.416 Y128.052 E0.0095
G1 X159.346 Y128.074 E0.0073
G1 X159.278 Y128.108 E0.0075
G1 X159.174 Y128.183 E0.0128
G1 X158.100 Y129.239 E0.1503
G1 X158.033 Y129.301 E0.0091
G1 X157.922 Y129.399 E0.0147
G1 X157.852 Y129.457 E0.0091
G1 X157.252 Y129.927 E0.0761
G1 X157.148 Y130.001 E0.0127
G1 X156.977 Y130.115 E0.0206
G1 X156.868 Y130.181 E0.0127
G1 X156.197 Y130.554 E0.0765
G1 X156.081 Y130.613 E0.0130
G1 X155.889 Y130.700 E0.0211
G1 X155.768 Y130.749 E0.0130
G1 X155.012 Y131.022 E0.0802
G1 X154.871 Y131.065 E0.0147
G1 X154.641 Y131.125 E0.0238
G1 X154.497 Y131.156 E0.0147
G1 X153.526 Y131.317 E0.0982
G1 X153.377 Y131.335 E0.0150
G1 X153.134 Y131.352 E0.0243
G1 X152.984 Y131.356 E0.0150
G1 X152.149 Y131.339 E0.0833
G1 X152.013 Y131.330 E0.0136
G1 X151.793 Y131.307 E0.0220
G1 X151.659 Y131.287 E0.0136
G1 X150.851 Y131.132 E0.0821
G1 X150.718 Y131.101 E0.0136
G1 X150.507 Y131.041 E0.0219
G1 X150.378 Y130.999 E0.0135
G1 X149.625 Y130.719 E0.0801
G1 X149.501 Y130.667 E0.0134
G1 X149.305 Y130.574 E0.0217
G1 X149.185 Y130.512 E0.0134
G1 X148.419 Y130.070 E0.0883
G1 X148.379 Y130.046 E0.0047
G1 X148.315 Y130.006 E0.0075
G1 X148.276 Y129.982 E0.0046
G1 X147.492 Y129.468 E0.0935
G1 X147.294 Y129.372 E0.0219
G1 X147.203 Y129.345 E0.0095
G1 X147.185 Y129.342 E0.0018
G1 X147.089 Y129.343 E0.0096
G1 X147.015 Y129.356 E0.0075
G1 X145.221 Y129.997 E0.1900
G1 X145.100 Y130.035 E0.0127
G1 X144.900 Y130.089 E0.0206
G1 X144.776 Y130.118 E0.0127
G1 X144.005 Y130.262 E0.0783
G1 X143.873 Y130.282 E0.0133
G1 X143.657 Y130.304 E0.0216
G1 X143.523 Y130.312 E0.0134
G1 X142.704 Y130.329 E0.0818
G1 X142.569 Y130.326 E0.0134
G1 X142.352 Y130.312 E0.0217
G1 X142.218 Y130.298 E0.0134
G1 X141.421 Y130.181 E0.0804
G1 X141.290 Y130.156 E0.0133
G1 X141.081 Y130.108 E0.0215
G1 X140.952 Y130.072 E0.0133
G1 X140.174 Y129.823 E0.0815
G1 X140.048 Y129.777 E0.0134
G1 X139.848 Y129.694 E0.0217
G1 X139.726 Y129.637 E0.0134
G1 X138.996 Y129.261 E0.0819
G1 X138.878 Y129.194 E0.0136
G1 X138.692 Y129.077 E0.0219
G1 X138.580 Y129.000 E0.0136
G1 X137.923 Y128.508 E0.0818
G1 X137.818 Y128.422 E0.0135
G1 X137.654 Y128.276 E0.0219
G1 X137.557 Y128.182 E0.0135
G1 X137.000 Y127.595 E0.0807
G1 X136.910 Y127.493 E0.0136
G1 X136.772 Y127.321 E0.0220
G1 X136.692 Y127.211 E0.0136
G1 X135.700 Y125.736 E0.1774
G1 X135.589 Y125.612 E0.0166
G1 X135.543 Y125.575 E0.0060
G1 X135.481 Y125.540 E0.0071
G1 X135.375 Y125.502 E0.0113
G1 X135.208 Y125.471 E0.0169
G1 X134.179 Y125.419 E0.1028
G1 X134.134 Y125.416 E0.0045
G1 X134.061 Y125.410 E0.0073
G1 X134.016 Y125.406 E0.0045
G1 X133.233 Y125.323 E0.0786
G1 X133.107 Y125.305 E0.0127
G1 X132.904 Y125.267 E0.0206
G1 X132.779 Y125.238 E0.0127
G1 X131.997 Y125.027 E0.0809
