; G-Code generated by Simplify3D(R) Version 4.1.1
; Mar 7, 2020 at 12:47:36 PM
; Settings Summary
;   processName,T0
;   applyToModels,Spinner_Demo
;   profileName,Default (modified)
;   profileVersion,2019-07-26 10:50:01
;   baseProfile,Generic Dual Extrusion Profile (modified)
;   printMaterial,PLA
;   printQuality,Medium
;   printExtruders,Both Extruders
;   extruderName,T0,T1,T2
;   extruderToolheadNumber,0,1,2
;   extruderDiameter,0.4,0.4,0.8
;   extruderAutoWidth,1,1,1
;   extruderWidth,0.48,0.48,0.96
;   extrusionMultiplier,1,1,1
;   extruderUseRetract,1,1,1
;   extruderRetractionDistance,1.5,1.5,4.5
;   extruderExtraRestartDistance,0,0,0.1
;   extruderRetractionZLift,0.5,0.5,1
;   extruderRetractionSpeed,6000,6000,6000
;   extruderUseCoasting,1,1,1
;   extruderCoastingDistance,0.3,0.3,0.2
;   extruderUseWipe,1,1,1
;   extruderWipeDistance,4,4,5
;   primaryExtruder,0
;   layerHeight,0.3
;   topSolidLayers,4
;   bottomSolidLayers,4
;   perimeterOutlines,3
;   printPerimetersInsideOut,1
;   startPointOption,1
;   startPointOriginX,0
;   startPointOriginY,100
;   sequentialIslands,1
;   spiralVaseMode,0
;   firstLayerHeightPercentage,100
;   firstLayerWidthPercentage,100
;   firstLayerUnderspeed,1
;   useRaft,1
;   raftExtruder,2
;   raftTopLayers,3
;   raftBaseLayers,1
;   raftOffset,4
;   raftSeparationDistance,0
;   raftTopInfill,100
;   aboveRaftSpeedMultiplier,0.3
;   useSkirt,0
;   skirtExtruder,0
;   skirtLayers,1
;   skirtOutlines,1
;   skirtOffset,3
;   usePrimePillar,0
;   primePillarExtruder,999
;   primePillarWidth,10
;   primePillarLocation,6
;   primePillarSpeedMultiplier,1
;   useOozeShield,0
;   oozeShieldExtruder,0
;   oozeShieldOffset,2
;   oozeShieldOutlines,1
;   oozeShieldSidewallShape,2
;   oozeShieldSidewallAngle,30
;   oozeShieldSpeedMultiplier,1
;   infillExtruder,0
;   internalInfillPattern,Grid
;   externalInfillPattern,Rectilinear
;   infillPercentage,12
;   outlineOverlapPercentage,0
;   infillExtrusionWidthPercentage,100
;   minInfillLength,5
;   infillLayerInterval,1
;   internalInfillAngles,45,-45
;   overlapInternalInfillAngles,1
;   externalInfillAngles,45,-45
;   generateSupport,1
;   supportExtruder,2
;   supportInfillPercentage,20
;   supportExtraInflation,0.5
;   supportBaseLayers,1
;   denseSupportExtruder,2
;   denseSupportLayers,3
;   denseSupportInfillPercentage,90
;   supportLayerInterval,1
;   supportHorizontalPartOffset,0.75
;   supportUpperSeparationLayers,0
;   supportLowerSeparationLayers,0
;   supportType,0
;   supportGridSpacing,100
;   maxOverhangAngle,89
;   supportAngles,45,-45
;   temperatureName
;   temperatureNumber
;   temperatureSetpointCount
;   temperatureSetpointLayers
;   temperatureSetpointTemperatures
;   temperatureStabilizeAtStartup
;   temperatureHeatedBed
;   fanLayers,1
;   fanSpeeds,0
;   blipFanToFullPower,0
;   adjustSpeedForCooling,1
;   minSpeedLayerTime,5
;   minCoolingSpeedSlowdown,10
;   increaseFanForCooling,0
;   minFanLayerTime,5
;   maxCoolingFanSpeed,75
;   increaseFanForBridging,0
;   bridgingFanSpeed,75
;   use5D,1
;   relativeEdistances,1
;   allowEaxisZeroing,1
;   independentExtruderAxes,0
;   includeM10123,0
;   stickySupport,1
;   applyToolheadOffsets,0
;   gcodeXoffset,0
;   gcodeYoffset,0
;   gcodeZoffset,0
;   overrideMachineDefinition,1
;   machineTypeOverride,0
;   strokeXoverride,300
;   strokeYoverride,200
;   strokeZoverride,300
;   originOffsetXoverride,0
;   originOffsetYoverride,0
;   originOffsetZoverride,0
;   homeXdirOverride,-1
;   homeYdirOverride,-1
;   homeZdirOverride,-1
;   flipXoverride,1
;   flipYoverride,-1
;   flipZoverride,1
;   toolheadOffsets,0,0|0,0|0,0|0,0|0,0|0,0
;   overrideFirmwareConfiguration,0
;   firmwareTypeOverride,RepRap (Marlin/Repetier/Sprinter)
;   GPXconfigOverride,r2
;   baudRateOverride,115200
;   overridePrinterModels,1
;   printerModelsOverride
;   startingGcode,G29 S1,,T0
;   layerChangeGcode,
;   retractionGcode,
;   toolChangeGcode,
;   endingGcode,;Drop Bed,G91,G1 Z2 F1000,G90,,; Drop off the tool,T-1,,; Disable Mesh Compensation.,G29 S2,,; Park,G1 X-20 Y200 F50000,,M0	;turn off all heaters
;   exportFileFormat,gcode
;   celebration,0
;   celebrationSong,Star Wars
;   postProcessing,
;   defaultSpeed,3000
;   outlineUnderspeed,1
;   solidInfillUnderspeed,1
;   supportUnderspeed,1
;   rapidXYspeed,21000
;   rapidZspeed,1500
;   minBridgingArea,50
;   bridgingExtraInflation,1
;   bridgingExtrusionMultiplier,1
;   bridgingSpeedMultiplier,1
;   useFixedBridgingAngle,0
;   fixedBridgingAngle,0
;   applyBridgingToPerimeters,1
;   filamentDiameters,1.75|1.75|1.75|1.75|1.75|1.75
;   filamentPricesPerKg,46|46|46|46|46|46
;   filamentDensities,1.25|1.25|1.25|1.25|1.25|1.25
;   useMinPrintHeight,0
;   minPrintHeight,12
;   useMaxPrintHeight,0
;   maxPrintHeight,1
;   useDiaphragm,0
;   diaphragmLayerInterval,20
;   robustSlicing,1
;   mergeAllIntoSolid,0
;   onlyRetractWhenCrossingOutline,0
;   retractBetweenLayers,0
;   useRetractionMinTravel,1
;   retractionMinTravel,1
;   retractWhileWiping,1
;   onlyWipeOutlines,1
;   avoidCrossingOutline,0
;   maxMovementDetourFactor,3
;   toolChangeRetractionDistance,0
;   toolChangeExtraRestartDistance,0
;   toolChangeRetractionSpeed,3000
;   externalThinWallType,0
;   internalThinWallType,0
;   thinWallAllowedOverlapPercentage,5
;   singleExtrusionMinLength,0.5
;   singleExtrusionMinPrintingWidthPercentage,50
;   singleExtrusionMaxPrintingWidthPercentage,150
;   singleExtrusionEndpointExtension,0.2
;   horizontalSizeCompensation,0.2
G90
M83
M106 S0
G29 S1
T0
; process T0
; layer 1, Z = 1.000
T2
G1 E-4.5000 F6000
; feature raft
; tool H1.000 W1.600
G1 Z1.000 F1500
G1 X150.810 Y81.067 F21000
G1 E4.6000 F6000
G1 X150.903 Y81.072 E0.0618 F750
G1 X152.211 Y81.180 E0.8731
G1 X152.303 Y81.190 E0.0617
G1 X152.999 Y81.289 E0.4675
G1 X153.090 Y81.304 E0.0619
G1 X154.392 Y81.566 E0.8834
G1 X154.513 Y81.595 E0.0823
G1 X155.805 Y81.961 E0.8938
G1 X155.923 Y81.999 E0.0822
G1 X157.183 Y82.464 E0.8937
G1 X157.298 Y82.512 E0.0826
G1 X158.505 Y83.066 E0.8831
G1 X158.588 Y83.107 E0.0617
G1 X159.202 Y83.434 E0.4628
G1 X159.270 Y83.472 E0.0516
G1 X160.734 Y84.345 E1.1344
G1 X160.955 Y84.436 E0.1587
G1 X161.212 Y84.504 E0.1767
G1 X161.527 Y84.546 E0.2116
G1 X161.663 Y84.550 E0.0906
G1 X170.060 Y84.550 E5.5856
G1 X170.173 Y84.554 E0.0754
G1 X170.991 Y84.612 E0.5450
G1 X171.179 Y84.637 E0.1265
G1 X171.767 Y84.750 E0.3983
G1 X171.922 Y84.787 E0.1059
G1 X172.653 Y85.005 E0.5075
G1 X172.855 Y85.080 E0.1431
G1 X173.669 Y85.447 E0.5941
G1 X173.868 Y85.554 E0.1504
G1 X174.601 Y86.018 E0.5770
G1 X174.739 Y86.116 E0.1127
G1 X175.141 Y86.435 E0.3411
G1 X175.278 Y86.557 E0.1225
G1 X175.964 Y87.243 E0.6450
G1 X176.121 Y87.425 E0.1598
G1 X176.639 Y88.129 E0.5817
G1 X176.733 Y88.270 E0.1128
G1 X176.986 Y88.703 E0.3334
G1 X177.059 Y88.843 E0.1050
G1 X177.378 Y89.538 E0.5088
G1 X177.456 Y89.744 E0.1465
G1 X177.735 Y90.667 E0.6411
G1 X177.778 Y90.849 E0.1243
G1 X177.868 Y91.353 E0.3412
G1 X177.889 Y91.521 E0.1126
G1 X177.946 Y92.327 E0.5370
G1 X177.950 Y92.440 E0.0753
G1 X177.950 Y107.544 E10.0475
G1 X177.948 Y107.623 E0.0527
G1 X177.921 Y108.161 E0.3584
G1 X177.906 Y108.317 E0.1039
G1 X177.797 Y109.054 E0.4959
G1 X177.760 Y109.231 E0.1198
G1 X177.607 Y109.809 E0.3976
G1 X177.558 Y109.961 E0.1065
G1 X177.296 Y110.659 E0.4959
G1 X177.225 Y110.820 E0.1174
G1 X176.954 Y111.353 E0.3976
G1 X176.872 Y111.496 E0.1092
G1 X176.473 Y112.115 E0.4902
G1 X176.382 Y112.242 E0.1040
G1 X176.066 Y112.640 E0.3380
G1 X175.944 Y112.777 E0.1223
G1 X175.261 Y113.460 E0.6423
G1 X175.089 Y113.609 E0.1512
G1 X174.471 Y114.073 E0.5145
G1 X174.333 Y114.166 E0.1102
G1 X173.820 Y114.473 E0.3976
G1 X173.666 Y114.554 E0.1162
G1 X172.988 Y114.866 E0.4960
G1 X172.838 Y114.926 E0.1075
G1 X172.271 Y115.120 E0.3989
G1 X172.089 Y115.171 E0.1256
G1 X171.230 Y115.355 E0.5843
G1 X171.007 Y115.387 E0.1500
G1 X170.173 Y115.446 E0.5559
G1 X170.060 Y115.450 E0.0753
G1 X161.663 Y115.450 E5.5856
G1 X161.527 Y115.454 E0.0906
G1 X161.212 Y115.496 E0.2116
G1 X160.955 Y115.564 E0.1767
G1 X160.734 Y115.655 E0.1587
G1 X159.270 Y116.528 E1.1344
G1 X159.202 Y116.566 E0.0516
G1 X158.588 Y116.893 E0.4628
G1 X158.505 Y116.934 E0.0617
G1 X157.298 Y117.488 E0.8831
G1 X157.183 Y117.536 E0.0826
G1 X155.923 Y118.001 E0.8936
G1 X155.805 Y118.039 E0.0824
G1 X154.523 Y118.402 E0.8868
G1 X154.423 Y118.427 E0.0680
G1 X153.583 Y118.608 E0.5717
G1 X153.494 Y118.624 E0.0603
G1 X152.341 Y118.805 E0.7766
G1 X152.224 Y118.819 E0.0779
G1 X150.883 Y118.929 E0.8954
G1 X150.751 Y118.935 E0.0874
G1 X149.248 Y118.935 E1.0002
G1 X149.117 Y118.929 E0.0874
G1 X147.774 Y118.819 E0.8962
G1 X147.651 Y118.804 E0.0826
G1 X146.325 Y118.590 E0.8934
G1 X146.203 Y118.566 E0.0824
G1 X144.897 Y118.250 E0.8938
G1 X144.778 Y118.216 E0.0824
G1 X143.501 Y117.801 E0.8936
G1 X143.385 Y117.758 E0.0824
G1 X142.143 Y117.244 E0.8938
G1 X142.030 Y117.193 E0.0824
G1 X140.831 Y116.584 E0.8943
G1 X140.721 Y116.523 E0.0838
G1 X139.461 Y115.754 E0.9820
G1 X139.170 Y115.611 E0.2161
G1 X138.918 Y115.526 E0.1769
G1 X138.657 Y115.474 E0.1766
G1 X138.285 Y115.450 E0.2483
G1 X123.925 Y115.450 E9.5525
G1 X122.050 Y113.575 E1.7634
G1 X122.050 Y86.425 E18.0609
G1 X123.925 Y84.550 E1.7634
G1 X138.285 Y84.550 E9.5525
G1 X138.657 Y84.526 E0.2483
G1 X138.918 Y84.474 E0.1766
G1 X139.170 Y84.389 E0.1769
G1 X139.442 Y84.256 E0.2020
G1 X140.141 Y83.816 E0.5492
G1 X140.215 Y83.773 E0.0569
G1 X141.371 Y83.129 E0.8802
G1 X141.481 Y83.073 E0.0823
G1 X142.702 Y82.512 E0.8938
G1 X142.817 Y82.464 E0.0825
G1 X144.077 Y81.999 E0.8936
G1 X144.194 Y81.961 E0.0823
G1 X145.487 Y81.595 E0.8938
G1 X145.608 Y81.566 E0.0823
G1 X146.925 Y81.301 E0.8937
G1 X147.047 Y81.282 E0.0824
G1 X148.385 Y81.119 E0.8962
G1 X148.516 Y81.109 E0.0877
G1 X150.002 Y81.051 E0.9896
G1 X150.103 Y81.050 E0.0668
G1 X150.610 Y81.063 E0.3373
G1 X150.810 Y81.067 F750
G1 E-4.5000 F6000
G1 Z2.000 F1500
G1 X153.031 Y107.454 F21000
G1 Z1.000 F1500
G1 E4.6000 F6000
G1 X153.700 Y107.145 E0.4904 F750
G1 X154.370 Y106.759 E0.5142
G1 X154.615 Y106.594 E0.1963
G1 X155.225 Y106.119 E0.5143
G1 X155.762 Y105.616 E0.4896
G1 X156.252 Y105.066 E0.4899
G1 X156.688 Y104.473 E0.4898
G1 X157.069 Y103.843 E0.4899
G1 X157.394 Y103.175 E0.4937
G1 X157.616 Y102.593 E0.4148
G1 X157.848 Y101.772 E0.5674
G1 X157.976 Y101.057 E0.4832
G1 X158.043 Y100.287 E0.5141
G1 X158.048 Y99.955 E0.2207
G1 X158.039 Y99.616 E0.2258
G1 X157.978 Y98.950 E0.4450
G1 X157.846 Y98.218 E0.4944
G1 X157.651 Y97.508 E0.4898
G1 X157.391 Y96.819 E0.4899
G1 X157.069 Y96.157 E0.4897
G1 X156.688 Y95.527 E0.4899
G1 X156.252 Y94.934 E0.4898
G1 X155.763 Y94.384 E0.4894
G1 X155.225 Y93.881 E0.4901
G1 X154.644 Y93.428 E0.4898
G1 X154.023 Y93.031 E0.4899
G1 X153.369 Y92.693 E0.4899
G1 X152.687 Y92.415 E0.4897
G1 X151.983 Y92.202 E0.4900
G1 X151.225 Y92.046 E0.5143
G1 X150.933 Y92.006 E0.1961
G1 X150.156 Y91.955 E0.5178
G1 X149.532 Y91.968 E0.4151
G1 X148.684 Y92.062 E0.5677
G1 X147.974 Y92.213 E0.4827
G1 X147.271 Y92.431 E0.4899
G1 X146.556 Y92.726 E0.5142
G1 X146.285 Y92.861 E0.2013
G1 X145.706 Y93.195 E0.4448
G1 X145.096 Y93.621 E0.4947
G1 X144.541 Y94.089 E0.4834
G1 X143.946 Y94.700 E0.5673
G1 X143.530 Y95.213 E0.4391
G1 X143.356 Y95.458 E0.2003
G1 X142.952 Y96.118 E0.5142
G1 X142.627 Y96.778 E0.4898
G1 X142.363 Y97.466 E0.4899
G1 X142.163 Y98.174 E0.4898
G1 X142.029 Y98.899 E0.4898
G1 X141.962 Y99.632 E0.4898
G1 X141.962 Y100.368 E0.4899
G1 X142.029 Y101.102 E0.4902
G1 X142.163 Y101.826 E0.4894
G1 X142.363 Y102.534 E0.4897
G1 X142.627 Y103.222 E0.4899
G1 X142.952 Y103.882 E0.4898
G1 X143.337 Y104.510 E0.4898
G1 X143.777 Y105.101 E0.4899
G1 X144.274 Y105.653 E0.4942
G1 X144.762 Y106.110 E0.4450
G1 X144.996 Y106.303 E0.2017
G1 X145.625 Y106.752 E0.5142
G1 X146.260 Y107.124 E0.4897
G1 X146.951 Y107.447 E0.5073
G1 X147.336 Y107.594 E0.2739
G1 X148.003 Y107.796 E0.4638
G1 X148.332 Y107.874 E0.2248
G1 X148.658 Y107.935 E0.2207
G1 X149.426 Y108.026 E0.5143
G1 X150.162 Y108.045 E0.4898
G1 X150.897 Y107.996 E0.4899
G1 X151.624 Y107.881 E0.4898
G1 X152.337 Y107.700 E0.4898
G1 X152.842 Y107.521 E0.3562
G1 X153.031 Y107.454 F750
G1 E-4.5000 F6000
G1 Z2.000 F1500
G1 X124.452 Y86.286 F21000
G1 Z1.000 F1500
G1 E4.6000 F6000
G1 X171.283 Y86.286 E31.1522 F750
G1 X171.426 Y86.313 E0.0974
G1 X171.504 Y86.332 E0.0534
G1 X172.146 Y86.523 E0.4450
G1 X172.247 Y86.561 E0.0717
G1 X172.960 Y86.882 E0.5207
G1 X173.060 Y86.936 E0.0751
G1 X173.709 Y87.347 E0.5113
G1 X173.778 Y87.396 E0.0565
G1 X174.111 Y87.660 E0.2821
G1 X174.179 Y87.721 E0.0614
G1 X174.790 Y88.332 E0.5743
G1 X174.868 Y88.423 E0.0798
G1 X175.326 Y89.044 E0.5137
G1 X175.373 Y89.115 E0.0564
G1 X175.585 Y89.477 E0.2789
G1 X175.621 Y89.547 E0.0528
G1 X175.901 Y90.156 E0.4459
G1 X175.940 Y90.259 E0.0733
G1 X176.121 Y90.857 E0.4154
G1 X153.062 Y90.857 E15.3386
G1 X152.377 Y90.649 E0.4762
G1 X151.494 Y90.467 E0.5996
G1 X151.093 Y90.413 E0.2692
G1 X150.192 Y90.354 E0.6007
G1 X149.427 Y90.370 E0.5092
G1 X148.429 Y90.481 E0.6676
G1 X147.571 Y90.663 E0.5837
G1 X146.944 Y90.857 E0.4369
G1 X123.650 Y90.857 E15.4949
G1 X123.650 Y95.429 E3.0409
G1 X141.508 Y95.429 E11.8791
G1 X141.159 Y96.137 E0.5252
G1 X140.843 Y96.961 E0.5874
G1 X140.603 Y97.811 E0.5873
G1 X140.443 Y98.679 E0.5874
G1 X140.362 Y99.559 E0.5873
G1 X140.362 Y100.000 E0.2937
G1 X123.650 Y100.000 E11.1168
G1 X123.650 Y104.571 E3.0409
G1 X141.508 Y104.571 E11.8792
G1 X141.549 Y104.655 E0.0621
G1 X142.010 Y105.408 E0.5873
G1 X142.538 Y106.116 E0.5873
G1 X143.130 Y106.774 E0.5889
G1 X143.706 Y107.313 E0.5243
G1 X144.021 Y107.572 E0.2715
G1 X144.754 Y108.097 E0.5995
G1 X145.516 Y108.542 E0.5873
G1 X146.327 Y108.922 E0.5959
G1 X146.819 Y109.109 E0.3498
G1 X146.931 Y109.143 E0.0783
G1 X123.650 Y109.143 E15.4867
G1 X123.650 Y112.913 E2.5077
G1 X124.452 Y113.714 E0.7541
G1 X171.250 Y113.714 E31.1305
G1 X171.706 Y113.616 E0.3105
G1 X171.797 Y113.591 E0.0628
G1 X172.282 Y113.425 E0.3405
G1 X172.357 Y113.395 E0.0539
G1 X172.958 Y113.119 E0.4400
G1 X173.035 Y113.078 E0.0581
G1 X173.475 Y112.814 E0.3411
G1 X173.544 Y112.768 E0.0550
G1 X174.084 Y112.363 E0.4492
G1 X174.170 Y112.289 E0.0755
G1 X174.780 Y111.679 E0.5740
G1 X174.841 Y111.610 E0.0612
G1 X175.104 Y111.279 E0.2813
G1 X175.149 Y111.215 E0.0521
G1 X175.505 Y110.663 E0.4367
G1 X175.546 Y110.592 E0.0545
G1 X175.778 Y110.135 E0.3412
G1 X175.814 Y110.054 E0.0586
G1 X176.047 Y109.435 E0.4400
G1 X176.071 Y109.359 E0.0532
G1 X176.128 Y109.143 E0.1487
G1 X153.055 Y109.143 E15.3486
G1 X153.634 Y108.938 E0.4088
G1 X154.437 Y108.568 E0.5879
G1 X155.217 Y108.117 E0.5995
G1 X155.553 Y107.891 E0.2694
G1 X156.265 Y107.338 E0.5997
G1 X156.909 Y106.734 E0.5871
G1 X157.496 Y106.074 E0.5874
G1 X158.020 Y105.364 E0.5873
G1 X158.477 Y104.608 E0.5874
G1 X158.494 Y104.571 E0.0269
G1 X176.350 Y104.571 E11.8776
G1 X176.350 Y100.000 E3.0409
G1 X159.648 Y100.000 E11.1103
G1 X159.649 Y99.946 E0.0357
G1 X159.637 Y99.520 E0.2837
G1 X159.565 Y98.735 E0.5243
G1 X159.408 Y97.864 E0.5890
G1 X159.174 Y97.012 E0.5873
G1 X158.862 Y96.186 E0.5874
G1 X158.494 Y95.429 E0.5603
G1 X176.150 Y95.429 E11.7446
G1 X176.350 Y95.429 F750
G1 E-4.5000 F6000
; layer 2, Z = 1.444
; tool H0.444 W0.800
G1 Z2.000 F1500
G1 X157.477 Y101.574 F21000
G1 Z1.444 F1500
G1 E4.6000 F6000
G1 X173.922 Y85.129 E3.4379 F2250
G1 X173.846 Y85.088 E0.0128
G1 X173.147 Y84.773 E0.1134
G1 X157.642 Y100.278 E3.2414
G1 X157.643 Y100.266 E0.0017
G1 X157.648 Y99.958 E0.0457
G1 X157.639 Y99.640 E0.0470
G1 X157.598 Y99.190 E0.0668
G1 X172.305 Y84.484 E3.0744
G1 X172.026 Y84.401 E0.0429
G1 X171.852 Y84.359 E0.0264
G1 X171.388 Y84.269 E0.0700
G1 X157.433 Y98.224 E2.9172
G1 X157.270 Y97.632 E0.0907
G1 X157.167 Y97.359 E0.0432
G1 X170.359 Y84.166 E2.7579
G1 X170.195 Y84.155 E0.0244
G1 X170.067 Y84.150 E0.0188
G1 X169.244 Y84.150 E0.1217
G1 X156.825 Y96.569 E2.5963
G1 X156.718 Y96.348 E0.0363
G1 X156.415 Y95.848 E0.0865
G1 X168.113 Y84.150 E2.4454
G1 X166.981 Y84.150 E0.1672
G1 X155.943 Y95.189 E2.3077
G1 X155.476 Y94.664 E0.1039
G1 X155.404 Y94.596 E0.0146
G1 X165.850 Y84.150 E2.1838
G1 X164.719 Y84.150 E0.1672
