; tmpAdditive
; Printer Name: E3D Tool Changer
; Print time: 1444s
; Extruder 1 Material used: 1559mm
; Extruder 1 Material name: PLA 1.75mm
; Extruder 1 Filament diameter: 1.75mm
; Extruder 1 Nozzle diameter: 0.4mm
; Extruder 1 offset x: 0mm
; Extruder 1 offset y: 0mm
; Extruder 1 offset z: 0mm
; Max temp: 240
; Bed temp: 120
; Layer Count: 37
; Extruder 2 material used: 623mm
; Extruder 2 material name: PLA 1.75mm
; Extruder 2 filament diameter: 1.75mm
; Extruder 2 nozzle diameter: 0.4mm
; Extruder 2 max temp: 280
; Extruder 2 offset x: 0mm
; Extruder 2 offset y: 0mm
; Extruder 2 offset z: 0mm
; width: 300mm
; depth: 200mm
; height: 200mm
; Count of bodies: 1
; Version of Fusion: 2.0.7830
; --------------------------------
; Selected Profile: ASMBL
; Selected Printer: E3D, Tool Changer
; --------------------------------
G1 F15000
G21
G90
M82
T0
G29 S1
G0 X0 Y0 Z10
G92 E0
T0
G0 X0 Y0 Z10
; --------------------------------
; layer, 1 of 37
M107
; rapid-leaky
G0 X134.8 Y82.296 Z0.3
G1 F450
G1 F15000
T1
G0 X134.8 Y82.296 Z0.3
G92 E0
G1 F1800 E0.5
; bead-raft
G1 Y82.81 F288 E0.526
G1 X119.8 E1.274
G1 Y86.81 E1.474
G1 X134.8 E2.222
G1 Y90.81 E2.421
G1 X119.8 E3.17
G1 Y94.81 E3.369
G1 X134.8 E4.118
G1 Y98.81 E4.317
G1 X119.8 E5.066
G1 Y102.81 E5.265
G1 X134.8 E6.014
G1 Y106.81 E6.213
G1 X119.8 E6.961
G1 Y110.81 E7.161
G1 X134.8 E7.909
G1 Y114.81 E8.109
G1 X119.8 E8.857
G1 Y117.7 E9.001
G1 X136.7 Y117.705 E9.845
G1 Y114.81 E9.989
G1 X151.7 E10.737
G1 Y110.81 E10.937
G1 X136.7 E11.685
G1 Y106.81 E11.885
G1 X151.7 E12.633
G1 Y105.541 E12.697
G1 X155.067 Y102.81 E12.913
G1 X168.6 E13.588
G1 Y106.81 E13.788
G1 X153.6 E14.536
G1 Y110.81 E14.735
G1 X168.6 E15.484
G1 Y114.81 E15.683
G1 X153.6 E16.432
G1 Y118.81 E16.631
G1 X159.757 E16.938
G1 X151.7 Y121.124 E17.357
G1 Y118.81 E17.472
G1 X140.243 E18.044
; bead-raft
G1 F1800 E17.544
; rapid-dry
G1 F15000
G0 X144.932 Y102.81
G1 F1800 E18.044
; bead-raft
G1 X136.7 F288 E18.454
G1 Y98.81 E18.654
G1 X144.333 E19.035
G1 X147.424 Y94.81 E19.287
G1 X136.7 E19.822
G1 Y90.81 E20.022
G1 X151.7 E20.77
G1 Y86.81 E20.969
G1 X136.7 E21.718
G1 Y82.81 E21.917
G1 X151.7 E22.666
G1 Y78.876 E22.862
G1 X168.6 Y82.299 E23.722
G1 Y82.81 E23.748
G1 X153.6 E24.496
G1 Y86.81 E24.696
G1 X168.6 E25.444
G1 Y90.81 E25.644
G1 X153.6 E26.392
G1 Y94.81 E26.591
G1 X168.6 E27.34
G1 Y98.81 E27.539
G1 X155.667 E28.185
; bead-raft
G1 F1800 E27.685
; rapid-dry
G1 F15000
G0 X173.157 Y82.81
G1 F1800 E28.185
; bead-raft
G1 X170.5 F288 E28.317
G1 Y86.81 E28.517
G1 X178.469 E28.914
G1 X180.05 Y90.81 E29.129
G1 X170.5 E29.605
G1 Y94.81 E29.805
G1 X180.2 E30.289
G1 Y98.81 E30.488
G1 X170.5 E30.972
G1 Y102.81 E31.172
G1 X180.2 E31.656
G1 Y106.81 E31.855
G1 X170.5 E32.339
G1 Y110.81 E32.539
G1 X179.642 E32.995
G1 X177.101 Y114.81 E33.231
G1 X170.5 E33.561
G1 Y117.679 E33.704
; bead-raft
G1 F1800 E33.204
; layer, 2 of 37
M106 S255
; rapid-leaky
G1 F15000
G0 X172.809 Y117.089 Z0.5
G1 F1800 E33.704
; bead-raft
G1 X179.589 Y110.309 F3600 E34.023
G1 X179.718 Y109.895 E34.037
G1 X179.936 Y108.707 E34.077
G1 X179.976 Y108.036 E34.1
G1 X170.536 Y117.476 E34.544
G1 X170.145 Y117.5 E34.557
G1 X168.626 Y117.501 E34.607
G1 X180 Y106.127 E35.142
G1 Y104.241 E35.205
G1 X166.739 Y117.502 E35.829
G1 X164.853 Y117.503 E35.892
G1 X180 Y102.356 E36.604
G1 Y100.47 E36.667
G1 X162.966 Y117.504 E37.468
G1 X161.615 Y117.505 E37.513
G1 X160.377 Y118.26 E37.561
G1 X160.268 Y118.317 E37.565
G1 X180 Y98.585 E38.493
G1 Y96.699 E38.556
G1 X156.86 Y119.839 E39.645
G1 X156.407 Y120.001 E39.661
G1 X155.017 Y120.395 E39.709
G1 X154.26 Y120.553 E39.734
G1 X180 Y94.813 E40.945
G1 Y92.928 E41.008
G1 X152.027 Y120.901 E42.324
G1 X150.722 Y120.99 E42.367
G1 X150.052 E42.389
G1 X179.907 Y91.135 E43.794
G1 X179.718 Y90.105 E43.828
G1 X179.56 Y89.597 E43.846
G1 X148.238 Y120.919 E45.319
G1 X147.834 Y120.891 E45.333
G1 X146.557 Y120.714 E45.376
G1 X179.036 Y88.235 E46.904
G1 X178.863 Y87.85 E46.918
G1 X178.363 Y87.022 E46.95
G1 X144.989 Y120.396 E48.52
G1 X144.983 Y120.395
G1 X143.593 Y120.001 E48.568
G1 X143.523 Y119.976 E48.57
G1 X177.555 Y85.945 E50.171
G1 X177.489 Y85.861 E50.175
G1 X176.639 Y85.011 E50.215
G1 X176.619 Y84.995
G1 X142.14 Y119.474 E51.837
G1 X140.904 Y118.93 E51.882
G1 X140.834 Y118.894 E51.885
G1 X175.549 Y84.18 E53.518
G1 X174.343 Y83.499 E53.564
G1 X155.524 Y102.319 E54.449
G1 X155.654 Y101.996 E54.46
G1 X155.803 Y101.51 E54.477
G1 X155.91 Y101.014 E54.494
G1 X155.974 Y100.509 E54.511
G1 X155.996 Y100 E54.528
G1 X155.994 Y99.963 E54.529
G1 X172.99 Y82.967 E55.329
G1 X172.395 Y82.782 E55.349
G1 X171.461 Y82.611 E55.381
G1 X155.751 Y98.321 E56.12
G1 X155.654 Y98.004 E56.131
G1 X155.463 Y97.529 E56.148
G1 X155.253 Y97.112 E56.163
G1 X155.185 Y97.001 E56.168
G1 X169.686 Y82.5 E56.85
G1 X167.802 Y82.499 E56.913
G1 X154.385 Y95.915 E57.544
G1 X154.33 Y95.853 E57.546
G1 X153.961 Y95.5 E57.563
G1 X153.563 Y95.178 E57.58
G1 X153.368 Y95.046 E57.588
G1 X165.917 Y82.498 E58.178
G1 X164.033 Y82.496 E58.241
G1 X152.13 Y94.399 E58.801
G1 X151.754 Y94.266 E58.814
G1 X151.261 Y94.138 E58.831
G1 X150.806 Y94.06 E58.847
G1 X150.602 Y94.042 E58.853
G1 X162.148 Y82.495 E59.397
G1 X161.614 E59.414
G1 X160.775 Y81.983 E59.447
G1 X148.578 Y94.18 E60.021
G1 X144.178 Y98.58 E60.228
G1 X125.256 Y117.501 E61.118
G1 X127.141 Y117.502 E61.18
G1 X144.038 Y100.605 E61.975
G1 X144.089 Y101.006 E61.989
G1 X144.189 Y101.472 E62.004
G1 X144.35 Y102.006 E62.023
G1 X144.4 Y102.129 E62.027
G1 X129.027 Y117.503 E62.751
G1 X130.912 E62.813
G1 X145.043 Y103.372 E63.478
G1 X145.335 Y103.766 E63.494
G1 X145.67 Y104.147 E63.511
G1 X145.917 Y104.383 E63.522
G1 X132.797 Y117.504 E64.14
G1 X134.682 E64.202
G1 X147 Y105.186 E64.782
G1 X147.299 Y105.353 E64.793
G1 X147.764 Y105.563 E64.81
G1 X148.246 Y105.734 E64.827
G1 X148.319 Y105.753 E64.83
G1 X136.567 Y117.505 E65.382
G1 X138.386 E65.443
G1 X138.427 Y117.53 E65.444
G1 X149.967 Y105.99 E65.987
G1 X150.256 E65.997
G1 X150.763 Y105.947 E66.014
G1 X151.262 Y105.862 E66.031
G1 X151.754 Y105.734 E66.048
G1 X152.236 Y105.563 E66.065
G1 X152.315 Y105.527 E66.067
G1 X139.598 Y118.244 E66.666
G1 X123.371 Y117.501 E67.206
G1 X159.56 Y81.312 E68.908
G1 X159.095 Y81.069 E68.926
G1 X158.277 Y80.71 E68.955
G1 X121.486 Y117.5 E70.686
G1 X120 E70.735
G1 Y117.101 E70.749
G1 X156.919 Y80.182 E72.485
G1 X156.407 Y79.999 E72.503
G1 X155.479 Y79.736 E72.535
G1 X120 Y115.215 E74.204
G1 Y113.33 E74.267
G1 X153.948 Y79.381 E75.864
G1 X153.602 Y79.309 E75.875
G1 X152.315 Y79.129 E75.919
G1 X120 Y111.444 E77.439
G1 Y109.558 E77.501
G1 X150.548 Y79.01 E78.938
G1 X149.278 E78.98
G1 X148.618 Y79.055 E79.002
G1 X120 Y107.673 E80.349
G1 Y105.787 E80.411
G1 X146.492 Y79.296 E81.657
G1 X146.398 Y79.309 E81.661
G1 X144.983 Y79.605 E81.709
G1 X144.025 Y79.877 E81.742
G1 X120 Y103.902 E82.872
G1 Y102.016 E82.934
G1 X140.98 Y81.036 E83.921
G1 X140.905 Y81.069 E83.924
G1 X139.623 Y81.739 E83.972
G1 X138.385 Y82.495 E84.02
G1 X137.635 E84.045
G1 X120 Y100.13 E84.875
G1 Y98.245 E84.938
G1 X135.749 Y82.496 E85.678
G1 X133.863 E85.741
G1 X120 Y96.359 E86.393
G1 Y94.473 E86.456
G1 X131.977 Y82.497 E87.019
G1 X130.091 E87.082
G1 X120 Y92.588 E87.557
G1 Y90.702 E87.619
G1 X128.204 Y82.498 E88.005
G1 X126.318 E88.068
G1 X120 Y88.817 E88.365
G1 Y86.931 E88.428
G1 X124.432 Y82.499 E88.636
G1 X122.546 E88.699
G1 X120 Y85.045 E88.819
G1 Y83.16 E88.882
G1 X120.66 Y82.5 E88.913
; bead-raft
G1 F1800 E88.413
; layer, 3 of 37
; rapid-dry
G1 F15000
G0 X120.2 Y82.7 Z0.8
G1 F1800 E88.913
; bead-raft
G1 X138.441 Y82.695 F3600 E89.823
G1 X139.722 Y81.913 E89.897
G1 X140.992 Y81.249 E89.969
G1 X142.304 Y80.673 E90.041
G1 X143.654 Y80.19 E90.112
G1 X145.031 Y79.8 E90.183
G1 X146.432 Y79.506 E90.255
G1 X147.864 Y79.307 E90.327
G1 X149.285 Y79.21 E90.398
G1 X150.715 E90.469
G1 X152.145 Y79.308 E90.541
G1 X153.567 Y79.506 E90.613
G1 X154.969 Y79.8 E90.684
G1 X156.346 Y80.19 E90.755
G1 X157.696 Y80.673 E90.827
G1 X159.008 Y81.249 E90.898
G1 X160.278 Y81.913 E90.97
G1 X161.557 Y82.695 E91.045
G1 X170.139 Y82.7 E91.473
G1 X171.183 Y82.763 E91.525
G1 X172.347 Y82.976 E91.584
G1 X173.479 Y83.329 E91.643
G1 X174.557 Y83.815 E91.702
G1 X175.573 Y84.428 E91.761
G1 X176.506 Y85.161 E91.821
G1 X177.339 Y85.994 E91.879
G1 X178.072 Y86.927 E91.939
G1 X178.685 Y87.943 E91.998
G1 X179.171 Y89.021 E92.057
G1 X179.524 Y90.153 E92.116
G1 X179.737 Y91.317 E92.175
G1 X179.8 Y92.361 E92.227
G1 Y107.639 E92.989
G1 X179.737 Y108.683 E93.042
G1 X179.524 Y109.847 E93.101
G1 X179.171 Y110.977 E93.16
G1 X178.686 Y112.056 E93.219
G1 X178.072 Y113.074 E93.278
G1 X177.338 Y114.007 E93.337
G1 X176.506 Y114.84 E93.396
G1 X175.573 Y115.572 E93.455
G1 X174.559 Y116.184 E93.514
G1 X173.459 Y116.677 E93.574
G1 X172.347 Y117.024 E93.632
G1 X171.183 Y117.237 E93.691
G1 X170.139 Y117.3 E93.744
G1 X161.559 Y117.305 E94.172
G1 X160.278 Y118.086 E94.247
G1 X159.01 Y118.75 E94.318
G1 X157.696 Y119.327 E94.39
G1 X156.346 Y119.81 E94.461
G1 X154.969 Y120.2 E94.533
G1 X153.568 Y120.494 E94.604
G1 X152.137 Y120.693 E94.676
G1 X150.715 Y120.79 E94.747
G1 X149.285 E94.818
G1 X147.855 Y120.692 E94.89
G1 X146.433 Y120.494 E94.962
G1 X145.031 Y120.2 E95.033
G1 X143.654 Y119.81 E95.104
G1 X142.304 Y119.327 E95.176
G1 X140.99 Y118.75 E95.248
G1 X139.722 Y118.086 E95.319
G1 X138.443 Y117.305 E95.394
G1 X120.2 Y117.3 E96.304
G1 Y82.7 E98.03
; bead-raft
; rapid-leaky
G1 F15000
G0 X120 Y82.5
; bead-raft
G1 X138.385 Y82.495 F3600 E98.947
G1 X139.623 Y81.739 E99.02
G1 X140.905 Y81.069 E99.092
G1 X142.23 Y80.487 E99.164
G1 X143.593 Y79.999 E99.236
G1 X144.983 Y79.605 E99.308
G1 X146.398 Y79.309 E99.381
G1 X147.843 Y79.108 E99.453
G1 X149.278 Y79.01 E99.525
G1 X150.722 E99.597
G1 X152.166 Y79.109 E99.669
G1 X153.602 Y79.309 E99.742
G1 X155.017 Y79.605 E99.814
G1 X156.407 Y79.999 E99.886
G1 X157.77 Y80.487 E99.958
G1 X159.095 Y81.069 E100.03
G1 X160.377 Y81.739 E100.102
G1 X161.614 Y82.495 E100.175
G1 X170.145 Y82.5 E100.6
G1 X171.207 Y82.564 E100.653
G1 X172.395 Y82.782 E100.714
G1 X173.55 Y83.142 E100.774
G1 X174.65 Y83.637 E100.834
G1 X175.687 Y84.263 E100.895
G1 X176.639 Y85.011 E100.955
G1 X177.489 Y85.861 E101.015
G1 X178.237 Y86.813 E101.076
G1 X178.863 Y87.85 E101.136
G1 X179.358 Y88.95 E101.196
G1 X179.718 Y90.105 E101.256
G1 X179.936 Y91.293 E101.317
G1 X180 Y92.355 E101.37
G1 Y107.645 E102.133
G1 X179.936 Y108.707 E102.186
G1 X179.718 Y109.895 E102.246
G1 X179.359 Y111.048 E102.306
G1 X178.863 Y112.149 E102.366
G1 X178.237 Y113.188 E102.427
G1 X177.488 Y114.14 E102.487
G1 X176.639 Y114.989 E102.547
G1 X175.687 Y115.737 E102.608
G1 X174.652 Y116.361 E102.668
G1 X173.53 Y116.864 E102.729
G1 X172.395 Y117.218 E102.789
G1 X171.207 Y117.436 E102.849
G1 X170.145 Y117.5 E102.902
G1 X161.615 Y117.505 E103.328
G1 X160.377 Y118.26 E103.4
G1 X159.096 Y118.93 E103.472
G1 X157.77 Y119.513 E103.544
G1 X156.407 Y120.001 E103.617
G1 X155.017 Y120.395 E103.689
G1 X153.602 Y120.691 E103.761
G1 X152.157 Y120.892 E103.833
G1 X150.722 Y120.99 E103.905
G1 X149.278 E103.977
G1 X147.834 Y120.891 E104.05
G1 X146.398 Y120.691 E104.122
G1 X144.983 Y120.395 E104.194
G1 X143.593 Y120.001 E104.266
G1 X142.23 Y119.513 E104.338
G1 X140.904 Y118.93 E104.411
G1 X139.624 Y118.26 E104.483
G1 X138.386 Y117.505 E104.555
G1 X120 Y117.5 E105.472
G1 Y82.5 E107.218
; bead-raft
; rapid-leaky
G1 F15000
G0 X144.591 Y96.978
; bead-raft
G1 X144.355 Y97.447 F3600 E107.245
G1 X144.161 Y97.928 E107.271
G1 X144.003 Y98.442 E107.297
G1 X143.893 Y98.954 E107.323
G1 X143.827 Y99.466 E107.349
G1 X143.805 Y100.037 E107.378
G1 X143.826 Y100.524 E107.402
G1 X143.892 Y101.04 E107.428
G1 X143.995 Y101.522 E107.453
G1 X144.162 Y102.073 E107.481
G1 X144.355 Y102.553 E107.507
G1 X144.591 Y103.022 E107.533
G1 X144.867 Y103.47 E107.56
G1 X145.179 Y103.892 E107.586
G1 X145.526 Y104.286 E107.612
G1 X145.907 Y104.651 E107.638
G1 X146.318 Y104.983 E107.665
G1 X146.752 Y105.277 E107.691
G1 X147.209 Y105.532 E107.717
G1 X147.69 Y105.749 E107.743
G1 X148.187 Y105.925 E107.77
G1 X148.697 Y106.058 E107.796
G1 X149.168 Y106.139 E107.82
G1 X149.746 Y106.19 E107.849
G1 X150.265 E107.874
G1 X150.789 Y106.146 E107.901
G1 X151.305 Y106.057 E107.927
G1 X151.813 Y105.925 E107.953
G1 X152.311 Y105.749 E107.979
G1 X152.754 Y105.549 E108.004
G1 X153.256 Y105.271 E108.032
G1 X153.682 Y104.983 E108.058
G1 X154.093 Y104.651 E108.084
G1 X154.474 Y104.286 E108.111
G1 X154.821 Y103.892 E108.137
G1 X155.134 Y103.47 E108.163
G1 X155.405 Y103.029 E108.189
G1 X155.646 Y102.551 E108.216
G1 X155.842 Y102.063 E108.242
G1 X155.997 Y101.56 E108.268
G1 X156.107 Y101.048 E108.294
G1 X156.173 Y100.526 E108.32
G1 X156.196 Y100 E108.347
G1 X156.174 Y99.481 E108.373
G1 X156.106 Y98.95 E108.399
G1 X155.997 Y98.44 E108.425
G1 X155.842 Y97.937 E108.452
G1 X155.645 Y97.447 E108.478
G1 X155.428 Y97.014 E108.502
G1 X155.127 Y96.522 E108.531
G1 X154.821 Y96.108 E108.557
G1 X154.474 Y95.714 E108.583
G1 X154.093 Y95.349 E108.609
G1 X153.682 Y95.017 E108.635
G1 X153.248 Y94.723 E108.662
G1 X152.791 Y94.468 E108.688
G1 X152.31 Y94.251 E108.714
G1 X151.813 Y94.075 E108.74
G1 X151.304 Y93.942 E108.767
G1 X150.832 Y93.861 E108.79
G1 X150.254 Y93.81 E108.819
G1 X149.735 E108.845
G1 X149.211 Y93.854 E108.872
G1 X148.696 Y93.943 E108.898
G1 X148.187 Y94.075 E108.924
G1 X147.69 Y94.251 E108.95
G1 X147.209 Y94.468 E108.976
G1 X146.752 Y94.723 E109.003
G1 X146.318 Y95.017 E109.029
G1 X145.939 Y95.323 E109.053
G1 X145.524 Y95.717 E109.082
G1 X145.177 Y96.11 E109.108
G1 X144.867 Y96.53 E109.134
G1 X144.591 Y96.978 E109.16
; bead-raft
; rapid-leaky
G1 F15000
G0 X144.766 Y97.075
; bead-raft
G1 X144.537 Y97.529 F3600 E109.185
G1 X144.35 Y97.995 E109.21
G1 X144.197 Y98.493 E109.236
G1 X144.09 Y98.988 E109.262
G1 X144.026 Y99.483 E109.287
G1 X144.005 Y100.037 E109.314
G1 X144.026 Y100.507 E109.338
G1 X144.089 Y101.006 E109.363
G1 X144.189 Y101.472 E109.387
G1 X144.35 Y102.006 E109.414
G1 X144.537 Y102.471 E109.439
G1 X144.766 Y102.925 E109.465
G1 X145.032 Y103.358 E109.49
G1 X145.335 Y103.766 E109.515
G1 X145.67 Y104.147 E109.541
G1 X146.039 Y104.5 E109.566
G1 X146.437 Y104.822 E109.592
G1 X146.857 Y105.106 E109.617
G1 X147.299 Y105.353 E109.642
G1 X147.764 Y105.563 E109.668
G1 X148.246 Y105.734 E109.693
G1 X148.739 Y105.862 E109.719
G1 X149.194 Y105.94 E109.742
G1 X149.755 Y105.99 E109.77
G1 X150.256 E109.795
G1 X150.763 Y105.947 E109.82
G1 X151.262 Y105.862 E109.846
G1 X151.754 Y105.734 E109.871
G1 X152.236 Y105.563 E109.896
G1 X152.664 Y105.37 E109.92
G1 X153.152 Y105.1 E109.948
G1 X153.563 Y104.822 E109.972
G1 X153.961 Y104.5 E109.998
G1 X154.33 Y104.147 E110.023
G1 X154.666 Y103.766 E110.049
G1 X154.968 Y103.358 E110.074
G1 X155.23 Y102.931 E110.099
G1 X155.464 Y102.469 E110.125
G1 X155.654 Y101.996 E110.15
G1 X155.803 Y101.51 E110.176
G1 X155.91 Y101.014 E110.201
G1 X155.974 Y100.509 E110.226
G1 X155.996 Y100 E110.252
G1 X155.974 Y99.498 E110.277
G1 X155.909 Y98.984 E110.303
G1 X155.803 Y98.49 E110.328
G1 X155.654 Y98.004 E110.353
G1 X155.463 Y97.529 E110.379
G1 X155.253 Y97.112 E110.402
G1 X154.961 Y96.634 E110.43
G1 X154.666 Y96.234 E110.455
G1 X154.33 Y95.853 E110.48
G1 X153.961 Y95.5 E110.506
G1 X153.563 Y95.178 E110.531
G1 X153.143 Y94.894 E110.557
G1 X152.701 Y94.647 E110.582
G1 X152.236 Y94.437 E110.607
G1 X151.754 Y94.266 E110.633
G1 X151.261 Y94.138 E110.658
G1 X150.806 Y94.06 E110.681
G1 X150.245 Y94.01 E110.709
G1 X149.744 E110.734
G1 X149.237 Y94.053 E110.76
G1 X148.738 Y94.138 E110.785
G1 X148.246 Y94.266 E110.81
G1 X147.764 Y94.437 E110.836
G1 X147.299 Y94.647 E110.861
G1 X146.857 Y94.894 E110.887
G1 X146.437 Y95.178 E110.912
G1 X146.071 Y95.473 E110.935
G1 X145.669 Y95.856 E110.963
G1 X145.333 Y96.236 E110.988
G1 X145.032 Y96.642 E111.014
G1 X144.766 Y97.075 E111.039
; bead-raft
; rapid-leaky
G1 F15000
G0 X120.6 Y106.4
; bead-raft
G1 X148.424 F3600 E112.427
G1 X148.07 Y106.308 E112.445
G1 X147.54 Y106.12 E112.473
G1 X147.274 Y106 E112.488
G1 X120.6 E113.819
G1 Y105.6 E113.839
G1 X146.516 E115.132
G1 X146.08 Y105.305 E115.158
G1 X145.95 Y105.2 E115.166
G1 X120.6 E116.431
G1 Y104.8 E116.451
G1 X145.484 E117.692
G1 X145.237 Y104.563 E117.709
G1 X145.093 Y104.4 E117.72
G1 X120.6 E118.942
G1 Y104 E118.962
G1 X144.761 E120.168
G1 X144.535 Y103.694 E120.187
G1 X144.477 Y103.6 E120.192
G1 X120.6 E121.383
G1 Y103.2 E121.403
G1 X144.233 E122.582
G1 X144.031 Y102.8 E122.605
G1 X120.6 E123.774
G1 Y102.4 E123.794
G1 X143.862 E124.954
G1 X143.784 Y102.205 E124.965
G1 X143.722 Y102 E124.975
G1 X120.6 E126.129
G1 Y101.6 E126.149
G1 X143.603 E127.296
G1 X143.517 Y101.2 E127.317
G1 X120.6 E128.46
G1 Y100.8 E128.48
G1 X143.458 E129.621
G1 X143.427 Y100.558 E129.633
G1 X143.42 Y100.4 E129.641
G1 X120.6 E130.779
G1 Y100 E130.799
G1 X143.406 E131.937
G1 X143.421 Y99.6 E131.957
G1 X120.6 E133.095
G1 Y99.2 E133.115
G1 X143.458 E134.256
G1 X143.498 Y98.887 E134.272
G1 X143.517 Y98.8 E134.276
G1 X120.6 E135.419
G1 Y98.4 E135.439
G1 X143.603 E136.587
G1 X143.616 Y98.341 E136.59
G1 X143.721 Y98 E136.608
G1 X120.6 E137.761
G1 Y97.6 E137.781
G1 X143.862 E138.942
G1 X143.99 Y97.282 E138.959
G1 X144.031 Y97.2 E138.963
G1 X120.6 E140.132
G1 Y96.8 E140.152
G1 X144.233 E141.331
G1 X144.241 Y96.783 E141.332
G1 X144.477 Y96.4 E141.355
G1 X120.6 E142.546
G1 Y96 E142.566
G1 X144.761 E143.771
G1 X144.866 Y95.858 E143.78
G1 X145.094 Y95.6 E143.797
G1 X120.6 E145.019
G1 Y95.2 E145.039
G1 X145.488 E146.281
G1 X145.676 Y95.022 E146.294
G1 X145.95 Y94.8 E146.311
G1 X120.6 E147.576
G1 Y94.4 E147.596
G1 X146.516 E148.889
G1 X146.542 Y94.382 E148.891
G1 X147.029 Y94.111 E148.918
G1 X147.274 Y94 E148.932
G1 X120.6 E150.263
G1 Y93.6 E150.283
G1 X148.424 E151.671
; bead-raft
; rapid-leaky
G1 F15000
G0 X120.6 Y106.8
; bead-raft
G1 X179.4 F3600 E154.604
G1 Y107.2 E154.624
G1 X120.6 E157.558
G1 Y107.6 E157.578
G1 X179.4 E160.511
G1 Y107.627 E160.513
G1 X179.377 Y108 E160.531
G1 X120.6 E163.464
G1 Y108.4 E163.484
G1 X179.353 E166.415
G1 X179.339 Y108.634 E166.427
G1 X179.309 Y108.8 E166.435
G1 X120.6 E169.364
G1 Y109.2 E169.384
G1 X179.235 E172.309
G1 X179.162 Y109.6 E172.329
G1 X120.6 E175.251
G1 Y110 E175.271
G1 X179.057 E178.188
G1 X178.932 Y110.4 E178.208
G1 X120.6 E181.119
G1 Y110.8 E181.139
G1 X178.807 E184.043
G1 X178.797 Y110.834 E184.044
G1 X178.632 Y111.2 E184.064
G1 X120.6 E186.96
G1 Y111.6 E186.98
G1 X178.452 E189.866
G1 X178.331 Y111.87 E189.881
G1 X178.252 Y112 E189.888
G1 X120.6 E192.764
G1 Y112.4 E192.784
G1 X178.011 E195.649
G1 X177.77 Y112.8 E195.672
G1 X120.6 E198.524
G1 Y113.2 E198.544
G1 X177.464 E201.381
G1 X177.149 Y113.6 E201.407
G1 X120.6 E204.228
G1 Y114 E204.248
G1 X176.78 E207.051
G1 X176.38 Y114.4 E207.079
G1 X120.6 E209.862
G1 Y114.8 E209.882
G1 X175.909 E212.641
G1 X175.399 Y115.2 E212.673
G1 X120.6 E215.407
G1 Y115.6 E215.427
G1 X174.753 E218.129
G1 X174.373 Y115.829 E218.151
G1 X173.992 Y116 E218.172
G1 X120.6 E220.836
G1 Y116.4 E220.855
G1 X173.003 E223.47
G1 X172.251 Y116.634 E223.509
G1 X171.347 Y116.8 E223.555
G1 X120.6 E226.087
G1 Y116.9 E226.092
G1 X138.555 Y116.905 E226.988
G1 X139.038 Y117.2 E227.016
G1 X160.962 E228.11
G1 X160.306 Y117.6 E228.148
G1 X139.694 E229.176
G1 X139.919 Y117.738 E229.19
G1 X140.42 Y118 E229.218
G1 X159.58 E230.174
G1 X158.836 Y118.389 E230.215
G1 X158.812 Y118.4 E230.217
G1 X141.188 E231.096
G1 X142.099 Y118.8 E231.146
G1 X157.901 E231.934
G1 X157.548 Y118.955 E231.953
G1 X156.865 Y119.2 E231.99
G1 X143.135 E232.675
G1 X143.776 Y119.429 E232.708
G1 X144.379 Y119.6 E232.74
G1 X155.621 E233.301
G1 X154.873 Y119.812 E233.339
G1 X153.976 Y120 E233.385
G1 X146.024 E233.782
; bead-raft
; rapid-leaky
G1 F15000
G0 X151.576 Y106.4
; bead-raft
G1 X179.4 F3600 E235.17
G1 Y106 E235.19
G1 X152.726 E236.521
G1 X152.933 Y105.907 E236.532
G1 X153.466 Y105.613 E236.562
G1 X153.484 Y105.6 E236.563
G1 X179.4 E237.856
G1 Y105.2 E237.876
G1 X154.05 E239.141
G1 X154.358 Y104.951 E239.161
G1 X154.516 Y104.8 E239.172
G1 X179.4 E240.413
G1 Y104.4 E240.433
G1 X154.907 E241.655
G1 X155.133 Y104.144 E241.672
G1 X155.239 Y104 E241.681
G1 X179.4 E242.887
G1 Y103.6 E242.906
G1 X155.523 E244.098
G1 X155.754 Y103.224 E244.12
G1 X155.767 Y103.2 E244.121
G1 X179.4 E245.3
G1 Y102.8 E245.32
G1 X155.969 E246.489
G1 X156.011 Y102.716 E246.494
G1 X156.138 Y102.4 E246.511
G1 X179.4 E247.671
G1 Y102 E247.691
G1 X156.28 E248.845
G1 X156.384 Y101.661 E248.862
G1 X156.397 Y101.6 E248.866
G1 X179.4 E250.013
G1 Y101.2 E250.033
G1 X156.483 E251.176
G1 X156.501 Y101.116 E251.181
G1 X156.542 Y100.8 E251.197
G1 X179.4 E252.337
G1 Y100.4 E252.357
G1 X156.579 E253.496
G1 X156.596 Y100 E253.516
G1 X179.4 E254.653
G1 Y99.6 E254.673
G1 X156.579 E255.812
G1 X156.573 Y99.447 E255.819
G1 X156.541 Y99.2 E255.832
G1 X179.4 E256.972
G1 Y98.8 E256.992
G1 X156.483 E258.135
G1 X156.397 Y98.4 E258.156
G1 X179.4 E259.303
G1 Y98 E259.323
G1 X156.28 E260.477
G1 X156.22 Y97.803 E260.487
G1 X156.138 Y97.6 E260.498
G1 X179.4 E261.659
G1 Y97.2 E261.679
G1 X155.969 E262.848
G1 X155.778 Y96.82 E262.869
G1 X155.765 Y96.8 E262.87
G1 X179.4 E264.049
G1 Y96.4 E264.069
G1 X155.521 E265.26
G1 X155.459 Y96.298 E265.266
G1 X155.239 Y96 E265.285
G1 X179.4 E266.49
G1 Y95.6 E266.51
G1 X154.907 E267.732
G1 X154.763 Y95.437 E267.743
G1 X154.516 Y95.2 E267.76
G1 X179.4 E269.002
G1 Y94.8 E269.022
G1 X154.05 E270.286
G1 X153.92 Y94.695 E270.295
G1 X153.484 Y94.4 E270.321
G1 X179.4 E271.614
G1 Y94 E271.634
G1 X152.726 E272.965
G1 X152.46 Y93.88 E272.979
G1 X151.93 Y93.692 E273.007
G1 X151.576 Y93.6 E273.025
G1 X179.4 E274.414
G1 Y93.2 E274.434
G1 X120.6 E277.367
G1 Y92.8 E277.387
G1 X179.4 E280.321
G1 Y92.4 E280.34
G1 X120.6 E283.274
G1 Y92 E283.294
G1 X179.377 E286.226
G1 X179.353 Y91.6 E286.246
G1 X120.6 E289.178
G1 Y91.2 E289.198
G1 X179.309 E292.127
G1 X179.235 Y90.8 E292.147
G1 X120.6 E295.072
G1 Y90.4 E295.092
G1 X179.162 E298.014
G1 X179.134 Y90.249 E298.021
G1 X179.057 Y90 E298.034
G1 X120.6 E300.951
G1 Y89.6 E300.971
G1 X178.932 E303.881
G1 X178.807 Y89.2 E303.902
G1 X120.6 E306.806
G1 Y88.8 E306.826
G1 X178.632 E309.721
G1 X178.452 Y88.4 E309.743
G1 X120.6 E312.629
G1 Y88 E312.649
G1 X178.252 E315.526
G1 X178.011 Y87.6 E315.549
G1 X120.6 E318.413
G1 Y87.2 E318.433
G1 X177.77 E321.285
G1 X177.743 Y87.155 E321.288
G1 X177.464 Y86.8 E321.31
G1 X120.6 E324.147
G1 Y86.4 E324.167
G1 X177.15 E326.989
G1 X177.04 Y86.26 E326.997
G1 X176.78 Y86 E327.016
G1 X120.6 E329.819
G1 Y85.6 E329.839
G1 X176.38 E332.621
G1 X176.24 Y85.46 E332.631
G1 X175.909 Y85.2 E332.652
G1 X120.6 E335.412
G1 Y84.8 E335.432
G1 X175.399 E338.166
G1 X175.345 Y84.757 E338.169
G1 X174.753 Y84.4 E338.204
G1 X120.6 E340.905
G1 Y84 E340.925
G1 X173.994 E343.589
G1 X173.336 Y83.704 E343.625
G1 X173.003 Y83.6 E343.642
G1 X120.6 E346.257
G1 Y83.2 E346.277
G1 X171.347 E348.809
G1 X171.134 Y83.161 E348.819
G1 X170.127 Y83.1 E348.87
G1 X161.445 Y83.095 E349.303
G1 X160.962 Y82.8 E349.331
G1 X139.037 E350.425
G1 X139.692 Y82.4 E350.463
G1 X160.308 E351.492
G1 X160.081 Y82.261 E351.505
G1 X159.581 Y82 E351.533
G1 X140.419 E352.489
G1 X141.165 Y81.61 E352.531
G1 X141.188 Y81.6 E352.532
G1 X158.812 E353.412
G1 X157.901 Y81.2 E353.461
G1 X142.099 E354.25
G1 X142.452 Y81.045 E354.269
G1 X143.135 Y80.8 E354.305
G1 X156.865 E354.99
G1 X156.224 Y80.571 E355.024
G1 X155.621 Y80.4 E355.055
G1 X144.379 E355.616
G1 X145.127 Y80.188 E355.655
G1 X146.024 Y80 E355.701
G1 X153.976 E356.097
; bead-raft
G1 F1800 E355.597
; layer, 4 of 37
; rapid-leaky
G1 F15000
G0 X153.567 Y79.506 Z1.1
G1 F1800 E356.097
; bead-raft
G1 X154.969 Y79.8 F3600 E356.169
G1 X156.346 Y80.19 E356.24
G1 X157.696 Y80.673 E356.312
G1 X159.008 Y81.249 E356.383
G1 X160.278 Y81.913 E356.455
G1 X161.557 Y82.695 E356.53
G1 X170.139 Y82.7 E356.958
G1 X171.183 Y82.763 E357.01
G1 X172.347 Y82.976 E357.069
G1 X173.479 Y83.329 E357.128
G1 X174.557 Y83.815 E357.187
G1 X175.573 Y84.428 E357.246
G1 X176.506 Y85.161 E357.305
G1 X177.339 Y85.994 E357.364
G1 X178.072 Y86.927 E357.423
G1 X178.685 Y87.943 E357.483
G1 X179.171 Y89.021 E357.542
G1 X179.524 Y90.153 E357.601
G1 X179.737 Y91.317 E357.66
G1 X179.8 Y92.361 E357.712
G1 Y107.639 E358.474
G1 X179.737 Y108.683 E358.526
G1 X179.524 Y109.847 E358.585
G1 X179.171 Y110.977 E358.645
G1 X178.686 Y112.056 E358.704
G1 X178.072 Y113.074 E358.763
G1 X177.338 Y114.007 E358.822
G1 X176.506 Y114.84 E358.881
G1 X175.573 Y115.572 E358.94
G1 X174.559 Y116.184 E358.999
G1 X173.459 Y116.677 E359.059
G1 X172.347 Y117.024 E359.117
G1 X171.183 Y117.237 E359.176
G1 X170.139 Y117.3 E359.229
G1 X161.559 Y117.305 E359.657
G1 X160.278 Y118.086 E359.731
G1 X159.01 Y118.75 E359.803
G1 X157.696 Y119.327 E359.874
G1 X156.346 Y119.81 E359.946
G1 X154.969 Y120.2 E360.017
G1 X153.568 Y120.494 E360.089
G1 X152.137 Y120.693 E360.161
G1 X150.715 Y120.79 E360.232
G1 X149.285 E360.303
G1 X147.855 Y120.692 E360.375
G1 X146.433 Y120.494 E360.446
G1 X145.031 Y120.2 E360.518
G1 X143.654 Y119.81 E360.589
G1 X142.304 Y119.327 E360.661
G1 X140.99 Y118.75 E360.732
G1 X139.722 Y118.086 E360.804
G1 X138.443 Y117.305 E360.879
G1 X120.2 Y117.3 E361.789
G1 Y82.7 E363.515
G1 X138.441 Y82.695 E364.425
G1 X139.722 Y81.913 E364.5
G1 X140.992 Y81.249 E364.571
G1 X142.304 Y80.673 E364.643
G1 X143.654 Y80.19 E364.714
G1 X145.031 Y79.8 E364.786
G1 X146.432 Y79.506 E364.857
G1 X147.864 Y79.307 E364.929
G1 X149.285 Y79.21 E365
G1 X150.715 E365.072
G1 X152.145 Y79.308 E365.143
G1 X153.567 Y79.506 E365.215
; bead-raft
; rapid-leaky
G1 F15000
G0 X153.602 Y79.309
; bead-raft
G1 X155.017 Y79.605 F3600 E365.287
G1 X156.407 Y79.999 E365.359
G1 X157.77 Y80.487 E365.431
G1 X159.095 Y81.069 E365.504
G1 X160.377 Y81.739 E365.576
G1 X161.614 Y82.495 E365.648
G1 X170.145 Y82.5 E366.074
G1 X171.207 Y82.564 E366.127
G1 X172.395 Y82.782 E366.187
G1 X173.55 Y83.142 E366.247
G1 X174.65 Y83.637 E366.308
G1 X175.687 Y84.263 E366.368
G1 X176.639 Y85.011 E366.428
G1 X177.489 Y85.861 E366.488
G1 X178.237 Y86.813 E366.549
G1 X178.863 Y87.85 E366.609
G1 X179.358 Y88.95 E366.669
G1 X179.718 Y90.105 E366.73
G1 X179.936 Y91.293 E366.79
G1 X180 Y92.355 E366.843
G1 Y107.645 E367.606
G1 X179.936 Y108.707 E367.659
G1 X179.718 Y109.895 E367.719
G1 X179.359 Y111.048 E367.78
G1 X178.863 Y112.149 E367.84
G1 X178.237 Y113.188 E367.9
G1 X177.488 Y114.14 E367.961
G1 X176.639 Y114.989 E368.021
G1 X175.687 Y115.737 E368.081
G1 X174.652 Y116.361 E368.141
G1 X173.53 Y116.864 E368.203
G1 X172.395 Y117.218 E368.262
G1 X171.207 Y117.436 E368.322
G1 X170.145 Y117.5 E368.375
G1 X161.615 Y117.505 E368.801
G1 X160.377 Y118.26 E368.873
G1 X159.096 Y118.93 E368.945
G1 X157.77 Y119.513 E369.018
G1 X156.407 Y120.001 E369.09
G1 X155.017 Y120.395 E369.162
G1 X153.602 Y120.691 E369.234
G1 X152.157 Y120.892 E369.307
G1 X150.722 Y120.99 E369.379
G1 X149.278 E369.451
G1 X147.834 Y120.891 E369.523
G1 X146.398 Y120.691 E369.595
G1 X144.983 Y120.395 E369.667
G1 X143.593 Y120.001 E369.739
G1 X142.23 Y119.513 E369.812
G1 X140.904 Y118.93 E369.884
G1 X139.624 Y118.26 E369.956
G1 X138.386 Y117.505 E370.028
G1 X120 Y117.5 E370.946
G1 Y82.5 E372.692
G1 X138.385 Y82.495 E373.609
G1 X139.623 Y81.739 E373.681
G1 X140.905 Y81.069 E373.754
G1 X142.23 Y80.487 E373.826
G1 X143.593 Y79.999 E373.898
G1 X144.983 Y79.605 E373.97
G1 X146.398 Y79.309 E374.042
G1 X147.843 Y79.108 E374.115
G1 X149.278 Y79.01 E374.187
G1 X150.722 E374.259
G1 X152.166 Y79.109 E374.331
G1 X153.602 Y79.309 E374.403
; bead-raft
; rapid-leaky
G1 F15000
G0 X151.304 Y93.942
; bead-raft
G1 X150.832 Y93.861 F3600 E374.427
G1 X150.254 Y93.81 E374.456
G1 X149.735 E374.482
G1 X149.211 Y93.854 E374.508
G1 X148.696 Y93.943 E374.534
G1 X148.187 Y94.075 E374.56
G1 X147.69 Y94.251 E374.587
G1 X147.209 Y94.468 E374.613
G1 X146.752 Y94.723 E374.639
G1 X146.318 Y95.017 E374.665
G1 X145.939 Y95.323 E374.69
G1 X145.524 Y95.717 E374.718
G1 X145.177 Y96.11 E374.744
G1 X144.867 Y96.53 E374.77
G1 X144.591 Y96.978 E374.797
G1 X144.355 Y97.447 E374.823
G1 X144.161 Y97.928 E374.849
G1 X144.003 Y98.442 E374.876
G1 X143.893 Y98.954 E374.902
G1 X143.827 Y99.466 E374.927
G1 X143.805 Y100.037 E374.956
G1 X143.826 Y100.524 E374.98
G1 X143.892 Y101.04 E375.006
G1 X143.995 Y101.522 E375.031
G1 X144.162 Y102.073 E375.06
G1 X144.355 Y102.553 E375.085
G1 X144.591 Y103.022 E375.112
G1 X144.867 Y103.47 E375.138
G1 X145.179 Y103.892 E375.164
G1 X145.526 Y104.286 E375.19
G1 X145.907 Y104.651 E375.216
G1 X146.318 Y104.983 E375.243
G1 X146.752 Y105.277 E375.269
G1 X147.209 Y105.532 E375.295
G1 X147.69 Y105.749 E375.321
G1 X148.187 Y105.925 E375.348
G1 X148.697 Y106.058 E375.374
G1 X149.168 Y106.139 E375.398
G1 X149.746 Y106.19 E375.427
G1 X150.265 E375.453
G1 X150.789 Y106.146 E375.479
G1 X151.305 Y106.057 E375.505
G1 X151.813 Y105.925 E375.531
G1 X152.311 Y105.749 E375.558
G1 X152.754 Y105.549 E375.582
G1 X153.256 Y105.271 E375.611
G1 X153.682 Y104.983 E375.636
G1 X154.093 Y104.651 E375.663
G1 X154.474 Y104.286 E375.689
G1 X154.821 Y103.892 E375.715
G1 X155.134 Y103.47 E375.741
G1 X155.405 Y103.029 E375.767
G1 X155.646 Y102.551 E375.794
G1 X155.842 Y102.063 E375.82
G1 X155.997 Y101.56 E375.846
G1 X156.107 Y101.048 E375.872
G1 X156.173 Y100.526 E375.899
G1 X156.196 Y100 E375.925
G1 X156.174 Y99.481 E375.951
G1 X156.106 Y98.95 E375.978
G1 X155.997 Y98.44 E376.004
G1 X155.842 Y97.937 E376.03
G1 X155.645 Y97.447 E376.056
G1 X155.428 Y97.014 E376.08
G1 X155.127 Y96.522 E376.109
G1 X154.821 Y96.108 E376.135
G1 X154.474 Y95.714 E376.161
G1 X154.093 Y95.349 E376.187
G1 X153.682 Y95.017 E376.214
G1 X153.248 Y94.723 E376.24
G1 X152.791 Y94.468 E376.266
G1 X152.31 Y94.251 E376.292
G1 X151.813 Y94.075 E376.319
G1 X151.304 Y93.942 E376.345
; bead-raft
; rapid-leaky
G1 F15000
G0 X151.261 Y94.138
; bead-raft
G1 X150.806 Y94.06 F3600 E376.368
G1 X150.245 Y94.01 E376.396
G1 X149.744 E376.421
G1 X149.237 Y94.053 E376.446
G1 X148.738 Y94.138 E376.472
G1 X148.246 Y94.266 E376.497
G1 X147.764 Y94.437 E376.522
G1 X147.299 Y94.647 E376.548
G1 X146.857 Y94.894 E376.573
G1 X146.437 Y95.178 E376.599
G1 X146.071 Y95.473 E376.622
G1 X145.669 Y95.856 E376.65
G1 X145.333 Y96.236 E376.675
G1 X145.032 Y96.642 E376.7
G1 X144.766 Y97.075 E376.726
G1 X144.537 Y97.529 E376.751
G1 X144.35 Y97.995 E376.776
G1 X144.197 Y98.493 E376.802
G1 X144.09 Y98.988 E376.827
G1 X144.026 Y99.483 E376.852
G1 X144.005 Y100.037 E376.88
G1 X144.026 Y100.507 E376.903
G1 X144.089 Y101.006 E376.928
G1 X144.189 Y101.472 E376.952
G1 X144.35 Y102.006 E376.98
G1 X144.537 Y102.471 E377.005
G1 X144.766 Y102.925 E377.03
G1 X145.032 Y103.358 E377.056
G1 X145.335 Y103.766 E377.081
G1 X145.67 Y104.147 E377.106
G1 X146.039 Y104.5 E377.132
G1 X146.437 Y104.822 E377.157
G1 X146.857 Y105.106 E377.183
G1 X147.299 Y105.353 E377.208
G1 X147.764 Y105.563 E377.233
G1 X148.246 Y105.734 E377.259
G1 X148.739 Y105.862 E377.284
G1 X149.194 Y105.94 E377.307
G1 X149.755 Y105.99 E377.335
G1 X150.256 E377.36
G1 X150.763 Y105.947 E377.386
G1 X151.262 Y105.862 E377.411
G1 X151.754 Y105.734 E377.436
G1 X152.236 Y105.563 E377.462
G1 X152.664 Y105.37 E377.485
G1 X153.152 Y105.1 E377.513
G1 X153.563 Y104.822 E377.538
G1 X153.961 Y104.5 E377.563
G1 X154.33 Y104.147 E377.589
G1 X154.666 Y103.766 E377.614
G1 X154.968 Y103.358 E377.64
G1 X155.23 Y102.931 E377.665
G1 X155.464 Y102.469 E377.69
G1 X155.654 Y101.996 E377.716
G1 X155.803 Y101.51 E377.741
G1 X155.91 Y101.014 E377.767
G1 X155.974 Y100.509 E377.792
G1 X155.996 Y100 E377.817
G1 X155.974 Y99.498 E377.842
G1 X155.909 Y98.984 E377.868
G1 X155.803 Y98.49 E377.893
G1 X155.654 Y98.004 E377.919
G1 X155.463 Y97.529 E377.944
G1 X155.253 Y97.112 E377.968
G1 X154.961 Y96.634 E377.996
G1 X154.666 Y96.234 E378.02
G1 X154.33 Y95.853 E378.046
G1 X153.961 Y95.5 E378.071
G1 X153.563 Y95.178 E378.097
G1 X153.143 Y94.894 E378.122
G1 X152.701 Y94.647 E378.147
G1 X152.236 Y94.437 E378.173
G1 X151.754 Y94.266 E378.198
G1 X151.261 Y94.138 E378.224
; bead-raft
; rapid-leaky
G1 F15000
G0 X151.576 Y93.6
; bead-raft
G1 X179.4 F3600 E379.612
G1 Y94 E379.632
G1 X152.726 E380.963
G1 X152.971 Y94.111 E380.976
G1 X153.458 Y94.382 E381.004
G1 X153.484 Y94.4 E381.005
G1 X179.4 E382.298
G1 Y94.8 E382.318
G1 X154.05 E383.583
G1 X154.358 Y95.049 E383.603
G1 X154.516 Y95.2 E383.614
G1 X179.4 E384.855
G1 Y95.6 E384.875
G1 X154.907 E386.097
G1 X155.133 Y95.856 E386.114
G1 X155.239 Y96 E386.123
G1 X179.4 E387.328
G1 Y96.4 E387.348
G1 X155.521 E388.54
G1 X155.765 Y96.8 E388.563
G1 X179.4 E389.742
G1 Y97.2 E389.762
G1 X155.969 E390.931
G1 X156.01 Y97.282 E390.936
G1 X156.138 Y97.6 E390.953
G1 X179.4 E392.113
G1 Y98 E392.133
G1 X156.28 E393.287
G1 X156.384 Y98.339 E393.304
G1 X156.397 Y98.4 E393.308
G1 X179.4 E394.455
G1 Y98.8 E394.475
G1 X156.483 E395.618
G1 X156.501 Y98.883 E395.623
G1 X156.541 Y99.2 E395.639
G1 X179.4 E396.779
G1 Y99.6 E396.799
G1 X156.579 E397.938
G1 X156.596 Y100 E397.958
G1 X179.4 E399.095
G1 Y100.4 E399.115
G1 X156.579 E400.254
G1 X156.572 Y100.56 E400.262
G1 X156.542 Y100.8 E400.274
G1 X179.4 E401.414
G1 Y101.2 E401.434
G1 X156.483 E402.577
G1 X156.397 Y101.6 E402.598
G1 X179.4 E403.746
G1 Y102 E403.765
G1 X156.28 E404.919
G1 X156.22 Y102.197 E404.929
G1 X156.138 Y102.4 E404.94
G1 X179.4 E406.101
G1 Y102.8 E406.121
G1 X155.969 E407.29
G1 X155.767 Y103.2 E407.312
G1 X179.4 E408.491
G1 Y103.6 E408.511
G1 X155.523 E409.702
G1 X155.465 Y103.694 E409.708
G1 X155.239 Y104 E409.727
G1 X179.4 E410.932
G1 Y104.4 E410.952
G1 X154.907 E412.174
G1 X154.763 Y104.563 E412.185
G1 X154.516 Y104.8 E412.202
G1 X179.4 E413.443
G1 Y105.2 E413.463
G1 X154.05 E414.728
G1 X153.92 Y105.305 E414.736
G1 X153.484 Y105.6 E414.763
G1 X179.4 E416.056
G1 Y106 E416.076
G1 X152.726 E417.406
G1 X152.46 Y106.12 E417.421
G1 X151.93 Y106.308 E417.449
G1 X151.576 Y106.4 E417.467
G1 X179.4 E418.855
G1 Y106.8 E418.875
G1 X120.6 E421.809
G1 Y107.2 E421.829
G1 X179.4 E424.762
G1 Y107.6 E424.782
G1 X120.6 E427.716
G1 Y108 E427.736
G1 X179.377 E430.668
G1 X179.353 Y108.4 E430.688
G1 X120.6 E433.62
G1 Y108.8 E433.639
G1 X179.309 E436.568
G1 X179.235 Y109.2 E436.589
G1 X120.6 E439.514
G1 Y109.6 E439.534
G1 X179.162 E442.456
G1 X179.134 Y109.751 E442.463
G1 X179.057 Y110 E442.476
G1 X120.6 E445.393
G1 Y110.4 E445.413
G1 X178.932 E448.323
G1 X178.807 Y110.8 E448.344
G1 X120.6 E451.248
G1 Y111.2 E451.268
G1 X178.632 E454.163
G1 X178.452 Y111.6 E454.185
G1 X120.6 E457.071
G1 Y112 E457.091
G1 X178.252 E459.967
G1 X178.011 Y112.4 E459.991
G1 X120.6 E462.855
G1 Y112.8 E462.875
G1 X177.77 E465.727
G1 X177.742 Y112.846 E465.73
G1 X177.464 Y113.2 E465.752
G1 X120.6 E468.589
G1 Y113.6 E468.609
G1 X177.149 E471.43
G1 X177.038 Y113.741 E471.439
G1 X176.78 Y114 E471.458
G1 X120.6 E474.261
G1 Y114.4 E474.28
G1 X176.38 E477.063
G1 X176.24 Y114.54 E477.073
G1 X175.909 Y114.8 E477.094
G1 X120.6 E479.854
G1 Y115.2 E479.874
G1 X175.399 E482.607
G1 X175.345 Y115.243 E482.611
G1 X174.753 Y115.6 E482.645
G1 X120.6 E485.347
G1 Y116 E485.367
G1 X173.992 E488.031
G1 X173.317 Y116.302 E488.068
G1 X173.003 Y116.4 E488.084
G1 X120.6 E490.698
G1 Y116.8 E490.718
G1 X171.347 E493.25
G1 X171.134 Y116.839 E493.261
G1 X170.127 Y116.9 E493.311
G1 X161.446 Y116.905 E493.744
G1 X160.962 Y117.2 E493.773
G1 X139.038 E494.867
G1 X139.694 Y117.6 E494.905
G1 X160.306 E495.933
G1 X160.081 Y117.737 E495.946
G1 X159.58 Y118 E495.975
G1 X140.42 E496.93
G1 X141.164 Y118.389 E496.972
G1 X141.188 Y118.4 E496.974
G1 X158.812 E497.853
G1 X157.901 Y118.8 E497.902
G1 X142.099 E498.691
G1 X142.452 Y118.955 E498.71
G1 X143.135 Y119.2 E498.746
G1 X156.865 E499.431
G1 X156.224 Y119.429 E499.465
G1 X155.621 Y119.6 E499.497
G1 X144.379 E500.057
G1 X145.127 Y119.812 E500.096
G1 X146.024 Y120 E500.142
G1 X153.976 E500.539
; bead-raft
; rapid-leaky
G1 F15000
G0 X148.424 Y106.4
; bead-raft
G1 X120.6 F3600 E501.927
G1 Y106 E501.947
G1 X147.274 E503.278
G1 X147.029 Y105.889 E503.291
G1 X146.542 Y105.618 E503.319
G1 X146.516 Y105.6 E503.32
G1 X120.6 E504.613
G1 Y105.2 E504.633
G1 X145.95 E505.898
G1 X145.642 Y104.951 E505.918
G1 X145.484 Y104.8 E505.929
G1 X120.6 E507.17
G1 Y104.4 E507.19
G1 X145.093 E508.412
G1 X144.867 Y104.144 E508.429
G1 X144.761 Y104 E508.438
G1 X120.6 E509.643
G1 Y103.6 E509.663
G1 X144.477 E510.855
G1 X144.241 Y103.217 E510.877
G1 X144.233 Y103.2 E510.878
G1 X120.6 E512.057
G1 Y102.8 E512.077
G1 X144.031 E513.246
G1 X143.99 Y102.718 E513.25
G1 X143.862 Y102.4 E513.268
G1 X120.6 E514.428
G1 Y102 E514.448
G1 X143.722 E515.602
G1 X143.608 Y101.621 E515.621
G1 X143.603 Y101.6 E515.622
G1 X120.6 E516.77
G1 Y101.2 E516.79
G1 X143.517 E517.933
G1 X143.497 Y101.107 E517.938
G1 X143.458 Y100.8 E517.954
G1 X120.6 E519.094
G1 Y100.4 E519.114
G1 X143.42 E520.253
G1 X143.405 Y100.038 E520.271
G1 X143.406 Y100 E520.272
G1 X120.6 E521.41
G1 Y99.6 E521.43
G1 X143.421 E522.569
G1 X143.428 Y99.433 E522.577
G1 X143.458 Y99.2 E522.589
G1 X120.6 E523.729
G1 Y98.8 E523.749
G1 X143.517 E524.893
G1 X143.603 Y98.4 E524.913
G1 X120.6 E526.061
G1 Y98 E526.081
G1 X143.721 E527.234
G1 X143.784 Y97.795 E527.245
G1 X143.862 Y97.6 E527.255
G1 X120.6 E528.416
G1 Y97.2 E528.436
G1 X144.031 E529.605
G1 X144.233 Y96.8 E529.627
G1 X120.6 E530.806
G1 Y96.4 E530.826
G1 X144.477 E532.017
G1 X144.535 Y96.306 E532.023
G1 X144.761 Y96 E532.042
G1 X120.6 E533.247
G1 Y95.6 E533.267
G1 X145.094 E534.489
G1 X145.236 Y95.439 E534.5
G1 X145.488 Y95.2 E534.517
G1 X120.6 E535.759
G1 Y94.8 E535.779
G1 X145.95 E537.043
G1 X146.08 Y94.695 E537.052
G1 X146.516 Y94.4 E537.078
G1 X120.6 E538.371
G1 Y94 E538.391
G1 X147.274 E539.722
G1 X147.54 Y93.88 E539.736
G1 X148.07 Y93.692 E539.764
G1 X148.424 Y93.6 E539.783
G1 X120.6 E541.171
G1 Y93.2 E541.191
G1 X179.4 E544.124
G1 Y92.8 E544.144
G1 X120.6 E547.078
G1 Y92.4 E547.098
G1 X179.4 E550.031
G1 Y92.373 E550.033
G1 X179.377 Y92 E550.051
G1 X120.6 E552.984
G1 Y91.6 E553.004
G1 X179.353 E555.935
G1 X179.339 Y91.366 E555.947
G1 X179.309 Y91.2 E555.955
G1 X120.6 E558.884
G1 Y90.8 E558.904
G1 X179.235 E561.829
G1 X179.162 Y90.4 E561.849
G1 X120.6 E564.771
G1 Y90 E564.791
G1 X179.057 E567.708
G1 X178.932 Y89.6 E567.728
G1 X120.6 E570.639
G1 Y89.2 E570.659
G1 X178.807 E573.563
G1 X178.796 Y89.164 E573.564
G1 X178.632 Y88.8 E573.584
G1 X120.6 E576.48
G1 Y88.4 E576.5
G1 X178.452 E579.386
G1 X178.33 Y88.129 E579.401
G1 X178.252 Y88 E579.408
G1 X120.6 E582.284
G1 Y87.6 E582.304
G1 X178.011 E585.169
G1 X177.77 Y87.2 E585.192
G1 X120.6 E588.044
G1 Y86.8 E588.064
G1 X177.464 E590.901
G1 X177.15 Y86.4 E590.927
G1 X120.6 E593.748
G1 Y86 E593.768
G1 X176.78 E596.571
G1 X176.38 Y85.6 E596.599
G1 X120.6 E599.382
G1 Y85.2 E599.402
G1 X175.909 E602.161
G1 X175.399 Y84.8 E602.193
G1 X120.6 E604.927
G1 Y84.4 E604.947
G1 X174.753 E607.649
G1 X174.371 Y84.17 E607.671
G1 X173.994 Y84 E607.692
G1 X120.6 E610.356
G1 Y83.6 E610.375
G1 X173.003 E612.99
G1 X172.251 Y83.366 E613.029
G1 X171.347 Y83.2 E613.075
G1 X120.6 E615.607
G1 Y83.1 E615.612
G1 X138.554 Y83.095 E616.508
G1 X139.037 Y82.8 E616.536
G1 X160.962 E617.63
G1 X160.308 Y82.4 E617.668
G1 X139.692 E618.696
G1 X139.919 Y82.261 E618.71
G1 X140.419 Y82 E618.738
G1 X159.581 E619.694
G1 X158.835 Y81.61 E619.736
G1 X158.812 Y81.6 E619.737
G1 X141.188 E620.616
G1 X142.099 Y81.2 E620.666
G1 X157.901 E621.454
G1 X157.548 Y81.045 E621.474
G1 X156.865 Y80.8 E621.51
G1 X143.135 E622.195
G1 X143.776 Y80.571 E622.229
G1 X144.379 Y80.4 E622.26
G1 X155.621 E622.821
G1 X154.873 Y80.188 E622.86
G1 X153.976 Y80 E622.905
G1 X146.024 E623.302
; bead-raft
G1 F1800 E622.802
; layer, 5 of 37
; rapid-dry
G1 F15000
G0 X147.42 Y111.273 Z1.4
G1 F450
G1 F15000
T0
G0 X147.42 Y111.273 Z1.4
G92 E0
G1 F450
G1 F1800 E0.5
; bead-perimeter_inner
G1 X148.376 Y111.45 F780 E0.549
G1 X149.345 Y111.545 E0.597
G1 X149.683 Y111.559 E0.614
G1 X150.655 Y111.545 E0.662
G1 X151.624 Y111.45 E0.711
G1 X152.58 Y111.273 E0.76
G1 X153.518 Y111.016 E0.808
G1 X154.431 Y110.682 E0.857
G1 X155.313 Y110.273 E0.905
G1 X156.161 Y109.789 E0.954
G1 X156.954 Y109.241 E1.002
G1 X157.711 Y108.62 E1.051
G1 X158.406 Y107.945 E1.099
G1 X159.044 Y107.211 E1.148
G1 X159.618 Y106.425 E1.196
G1 X160.124 Y105.593 E1.245
G1 X160.558 Y104.724 E1.293
G1 X160.917 Y103.821 E1.342
G1 X161.104 Y103.213 E1.373
G1 X161.201 Y102.887 E1.39
G1 X161.404 Y101.937 E1.439
G1 X161.526 Y100.971 E1.487
G1 X161.567 Y100 E1.536
G1 X161.526 Y99.029 E1.584
G1 X161.404 Y98.063 E1.633
G1 X161.201 Y97.113 E1.681
G1 X160.917 Y96.179 E1.73
G1 X160.558 Y95.276 E1.779
G1 X160.124 Y94.407 E1.827
G1 X159.618 Y93.575 E1.876
G1 X159.044 Y92.789 E1.924
G1 X158.406 Y92.055 E1.973
G1 X157.711 Y91.38 E2.021
G1 X157.45 Y91.16 E2.038
G1 X156.954 Y90.759 E2.07
G1 X156.161 Y90.211 E2.118
G1 X155.313 Y89.727 E2.167
G1 X155.007 Y89.578 E2.184
G1 X154.431 Y89.318 E2.215
G1 X153.518 Y88.984 E2.264
G1 X152.58 Y88.727 E2.312
G1 X151.624 Y88.55 E2.361
G1 X151.287 Y88.508 E2.378
G1 X150.655 Y88.455 E2.409
G1 X149.683 Y88.441 E2.458
G1 X149.345 Y88.455 E2.475
G1 X148.376 Y88.55 E2.523
G1 X147.42 Y88.727 E2.572
G1 X146.808 Y88.886 E2.603
G1 X146.482 Y88.984 E2.62
G1 X145.569 Y89.318 E2.669
G1 X144.687 Y89.727 E2.717
G1 X144.133 Y90.036 E2.749
G1 X143.839 Y90.211 E2.766
G1 X143.046 Y90.759 E2.814
G1 X142.289 Y91.38 E2.863
G1 X141.594 Y92.055 E2.911
G1 X140.956 Y92.789 E2.96
G1 X140.382 Y93.575 E3.008
G1 X139.877 Y94.406 E3.057
G1 X139.591 Y94.972 E3.089
G1 X139.441 Y95.278 E3.106
G1 X139.082 Y96.18 E3.154
G1 X138.799 Y97.112 E3.203
G1 X138.597 Y98.063 E3.251
G1 X138.474 Y99.028 E3.3
G1 X138.432 Y100 E3.348
G1 X138.475 Y100.971 E3.397
G1 X138.516 Y101.309 E3.414
G1 X138.597 Y101.937 E3.445
G1 X138.799 Y102.888 E3.494
G1 X139.082 Y103.82 E3.542
G1 X139.442 Y104.724 E3.591
G1 X139.876 Y105.593 E3.639
G1 X140.382 Y106.425 E3.688
G1 X140.954 Y107.208 E3.736
G1 X141.596 Y107.946 E3.785
G1 X142.292 Y108.623 E3.834
G1 X143.044 Y109.24 E3.882
G1 X143.839 Y109.789 E3.93
G1 X144.687 Y110.273 E3.979
G1 X145.569 Y110.682 E4.027
G1 X146.482 Y111.016 E4.076
G1 X147.42 Y111.273 E4.124
; rapid-leaky
G1 F15000
G0 X147.503 Y110.918
; bead-perimeter_outer
G1 X148.43 Y111.089 F540 E4.171
G1 X149.368 Y111.181 E4.218
G1 X149.691 Y111.194 E4.235
G1 X150.632 Y111.181 E4.282
G1 X151.57 Y111.089 E4.329
G1 X152.497 Y110.918 E4.376
G1 X153.405 Y110.669 E4.423
G1 X154.29 Y110.345 E4.47
G1 X155.144 Y109.949 E4.517
G1 X155.963 Y109.481 E4.564
G1 X156.736 Y108.948 E4.61
G1 X157.465 Y108.349 E4.658
G1 X158.14 Y107.694 E4.705
G1 X158.758 Y106.983 E4.752
G1 X159.314 Y106.222 E4.799
G1 X159.804 Y105.417 E4.846
G1 X160.225 Y104.575 E4.893
G1 X160.573 Y103.699 E4.94
G1 X160.754 Y103.108 E4.97
G1 X160.847 Y102.796 E4.987
G1 X161.043 Y101.875 E5.034
G1 X161.161 Y100.941 E5.081
G1 X161.201 Y100 E5.128
G1 X161.161 Y99.059 E5.175
G1 X161.043 Y98.125 E5.222
G1 X160.847 Y97.204 E5.269
G1 X160.573 Y96.301 E5.316
G1 X160.225 Y95.425 E5.363
G1 X159.804 Y94.583 E5.41
G1 X159.314 Y93.778 E5.457
G1 X158.758 Y93.017 E5.504
G1 X158.14 Y92.306 E5.551
G1 X157.465 Y91.651 E5.598
G1 X157.217 Y91.441 E5.614
G1 X156.736 Y91.052 E5.645
G1 X155.963 Y90.519 E5.691
G1 X155.144 Y90.051 E5.739
G1 X154.852 Y89.908 E5.755
G1 X154.29 Y89.655 E5.786
G1 X153.405 Y89.331 E5.833
G1 X152.497 Y89.082 E5.879
G1 X151.57 Y88.911 E5.926
G1 X151.249 Y88.871 E5.943
G1 X150.633 Y88.819 E5.974
G1 X149.691 Y88.806 E6.02
G1 X149.368 Y88.819 E6.037
G1 X148.43 Y88.911 E6.084
G1 X147.503 Y89.082 E6.131
G1 X146.906 Y89.237 E6.161
G1 X146.595 Y89.331 E6.178
G1 X145.71 Y89.655 E6.225
G1 X144.856 Y90.051 E6.272
G1 X144.316 Y90.352 E6.302
G1 X144.037 Y90.519 E6.319
G1 X143.264 Y91.052 E6.366
G1 X142.535 Y91.651 E6.413
G1 X141.86 Y92.306 E6.46
G1 X141.242 Y93.017 E6.507
G1 X140.686 Y93.778 E6.554
G1 X140.196 Y94.583 E6.601
G1 X139.918 Y95.135 E6.631
G1 X139.775 Y95.426 E6.648
G1 X139.427 Y96.301 E6.695
G1 X139.153 Y97.203 E6.742
G1 X138.957 Y98.124 E6.789
G1 X138.838 Y99.059 E6.836
G1 X138.798 Y100 E6.883
G1 X138.839 Y100.941 E6.93
G1 X138.879 Y101.263 E6.946
G1 X138.957 Y101.876 E6.977
G1 X139.153 Y102.797 E7.024
G1 X139.427 Y103.699 E7.071
G1 X139.775 Y104.575 E7.118
G1 X140.196 Y105.417 E7.165
G1 X140.686 Y106.222 E7.212
G1 X141.241 Y106.982 E7.259
G1 X141.86 Y107.694 E7.306
G1 X142.536 Y108.35 E7.353
G1 X143.264 Y108.948 E7.4
G1 X144.037 Y109.481 E7.446
G1 X144.856 Y109.949 E7.494
G1 X145.71 Y110.345 E7.541
G1 X146.595 Y110.669 E7.588
G1 X147.503 Y110.918 E7.635
G1 F1800 E7.135
; rapid-dry
G1 F15000
G0 X146.314 Y114.987
G1 F1800 E7.635
; bead-perimeter_inner
G1 X145.29 Y114.698 F780 E7.688
G1 X144.29 Y114.339 E7.741
G1 X143.317 Y113.912 E7.794
G1 X142.374 Y113.418 E7.847
G1 X141.445 Y112.846 E7.901
G1 X140.905 Y112.535 E7.932
G1 X140.309 Y112.273 E7.965
G1 X139.684 Y112.085 E7.997
G1 X139.042 Y111.971 E8.03
G1 X138.407 Y111.934 E8.062
G1 X125.566 E8.702
G1 Y88.066 E9.893
G1 X138.408 Y88.064 E10.534
G1 X139.041 Y88.029 E10.565
G1 X139.684 Y87.915 E10.598
G1 X140.308 Y87.727 E10.63
G1 X140.906 Y87.467 E10.663
G1 X141.447 Y87.153 E10.694
G1 X142.373 Y86.58 E10.748
G1 X143.316 Y86.089 E10.802
G1 X144.29 Y85.661 E10.855
G1 X145.29 Y85.302 E10.908
G1 X146.314 Y85.013 E10.961
G1 X147.355 Y84.795 E11.014
G1 X148.408 Y84.648 E11.067
G1 X149.468 Y84.576 E11.12
G1 X150.532 E11.173
G1 X151.592 Y84.648 E11.226
G1 X152.645 Y84.795 E11.279
G1 X153.686 Y85.013 E11.332
G1 X154.71 Y85.302 E11.385
G1 X155.71 Y85.661 E11.438
G1 X156.683 Y86.089 E11.491
G1 X157.626 Y86.582 E11.544
G1 X158.555 Y87.153 E11.599
G1 X159.095 Y87.465 E11.63
G1 X159.69 Y87.727 E11.662
G1 X160.316 Y87.915 E11.695
G1 X160.958 Y88.029 E11.727
G1 X161.591 Y88.066 E11.759
G1 X169.983 E12.178
G1 X170.548 Y88.101 E12.206
G1 X171.087 Y88.203 E12.233
G1 X171.61 Y88.37 E12.261
G1 X172.112 Y88.604 E12.288
G1 X172.57 Y88.889 E12.315
G1 X172.997 Y89.235 E12.343
G1 X173.265 Y89.503 E12.361
G1 X173.611 Y89.93 E12.389
G1 X173.896 Y90.387 E12.416
G1 X174.13 Y90.89 E12.443
G1 X174.298 Y91.417 E12.471
G1 X174.399 Y91.95 E12.498
G1 X174.434 Y92.517 E12.526
G1 Y107.483 E13.273
G1 X174.399 Y108.048 E13.301
G1 X174.297 Y108.587 E13.329
G1 X174.13 Y109.11 E13.356
G1 X173.896 Y109.613 E13.384
G1 X173.611 Y110.07 E13.411
G1 X173.265 Y110.497 E13.438
G1 X172.997 Y110.765 E13.457
G1 X172.57 Y111.111 E13.484
G1 X172.112 Y111.396 E13.511
G1 X171.61 Y111.63 E13.539
G1 X171.083 Y111.798 E13.567
G1 X170.921 Y111.831 E13.575
G1 X170.55 Y111.899 E13.594
G1 X169.983 Y111.934 E13.622
G1 X161.592 Y111.936 E14.041
G1 X160.959 Y111.971 E14.072
G1 X160.316 Y112.085 E14.105
G1 X159.692 Y112.273 E14.137
G1 X159.094 Y112.533 E14.17
G1 X157.626 Y113.418 E14.255
G1 X156.683 Y113.912 E14.308
G1 X155.71 Y114.339 E14.361
G1 X154.71 Y114.698 E14.414
G1 X153.686 Y114.987 E14.468
G1 X152.645 Y115.205 E14.521
G1 X151.592 Y115.352 E14.574
G1 X150.532 Y115.424 E14.627
G1 X149.468 E14.68
G1 X148.408 Y115.352 E14.733
G1 X147.355 Y115.205 E14.786
G1 X146.314 Y114.987 E14.839
; rapid-leaky
G1 F15000
G0 X146.227 Y115.342
; bead-perimeter_outer
G1 X145.179 Y115.045 F540 E14.893
G1 X144.155 Y114.678 E14.947
G1 X143.159 Y114.241 E15.002
G1 X142.194 Y113.735 E15.056
G1 X141.258 Y113.16 E15.111
G1 X140.739 Y112.861 E15.141
G1 X140.182 Y112.616 E15.171
G1 X139.599 Y112.441 E15.201
G1 X138.999 Y112.334 E15.232
G1 X138.397 Y112.299 E15.262
G1 X125.201 E15.92
G1 Y87.701 E17.148
G1 X138.398 Y87.699 E17.806
G1 X138.999 Y87.666 E17.836
G1 X139.599 Y87.559 E17.866
G1 X140.182 Y87.384 E17.897
G1 X140.74 Y87.141 E17.927
G1 X141.259 Y86.84 E17.957
G1 X142.193 Y86.262 E18.012
G1 X143.158 Y85.759 E18.066
G1 X144.155 Y85.322 E18.12
G1 X145.179 Y84.955 E18.175
G1 X146.227 Y84.658 E18.229
G1 X147.292 Y84.435 E18.283
G1 X148.371 Y84.285 E18.338
G1 X149.456 Y84.211 E18.392
G1 X150.544 E18.446
G1 X151.629 Y84.285 E18.5
G1 X152.708 Y84.435 E18.555
G1 X153.773 Y84.658 E18.609
G1 X154.821 Y84.955 E18.663
G1 X155.845 Y85.322 E18.718
G1 X156.841 Y85.759 E18.772
G1 X157.806 Y86.264 E18.826
G1 X158.742 Y86.84 E18.881
G1 X159.26 Y87.139 E18.911
G1 X159.817 Y87.384 E18.941
G1 X160.401 Y87.559 E18.972
G1 X161.001 Y87.666 E19.002
G1 X161.601 Y87.701 E19.032
G1 X169.994 E19.451
G1 X170.593 Y87.738 E19.481
G1 X171.177 Y87.848 E19.51
G1 X171.743 Y88.03 E19.54
G1 X172.284 Y88.281 E19.57
G1 X172.784 Y88.593 E19.599
G1 X173.246 Y88.968 E19.629
G1 X173.532 Y89.254 E19.649
G1 X173.907 Y89.716 E19.679
G1 X174.219 Y90.216 E19.708
G1 X174.47 Y90.757 E19.738
G1 X174.652 Y91.324 E19.768
G1 X174.762 Y91.906 E19.797
G1 X174.799 Y92.506 E19.827
G1 Y107.494 E20.575
G1 X174.762 Y108.093 E20.605
G1 X174.652 Y108.677 E20.635
G1 X174.47 Y109.243 E20.664
G1 X174.219 Y109.784 E20.694
G1 X173.907 Y110.284 E20.723
G1 X173.532 Y110.746 E20.753
G1 X173.246 Y111.032 E20.773
G1 X172.784 Y111.407 E20.803
G1 X172.284 Y111.719 E20.832
G1 X171.743 Y111.97 E20.862
G1 X171.176 Y112.152 E20.892
G1 X170.99 Y112.19 E20.901
G1 X170.594 Y112.262 E20.921
G1 X169.994 Y112.299 E20.951
G1 X161.603 Y112.301 E21.37
G1 X161.001 Y112.334 E21.4
G1 X160.401 Y112.441 E21.431
G1 X159.818 Y112.616 E21.461
G1 X159.26 Y112.859 E21.491
G1 X157.806 Y113.735 E21.576
G1 X156.841 Y114.241 E21.63
G1 X155.845 Y114.678 E21.685
G1 X154.821 Y115.045 E21.739
G1 X153.773 Y115.342 E21.793
G1 X152.708 Y115.565 E21.847
G1 X151.629 Y115.715 E21.902
G1 X150.544 Y115.789 E21.956
G1 X149.456 E22.01
G1 X148.371 Y115.715 E22.065
G1 X147.292 Y115.565 E22.119
G1 X146.227 Y115.342 E22.173
G1 F1800 E21.673
; rapid-dry
G1 F15000
G0 X153.03 Y114.797
G1 F1800 E22.173
; bead-solid_infill
G1 X174.114 Y93.714 F1200 E23.661
G1 Y94.279 E23.689
G1 X153.76 Y114.634 E25.125
G1 X154.549 Y114.411 E25.166
G1 X174.114 Y94.845 E26.546
G1 Y95.411 E26.575
G1 X155.423 Y114.102 E27.893
G1 X155.591 Y114.041 E27.902
G1 X155.906 Y113.903 E27.919
G1 X156.408 Y113.683 E27.947
G1 X174.114 Y95.977 E29.196
G1 Y96.542 E29.224
G1 X157.592 Y113.064 E30.39
G1 X157.823 Y112.925 E30.403
G1 X158.947 Y112.248 E30.469
G1 X158.994 Y112.228 E30.472
G1 X174.114 Y97.108 E31.538
G1 Y97.674 E31.567
G1 X159.916 Y111.871 E32.568
G1 X160.241 Y111.774 E32.585
G1 X160.653 Y111.7 E32.606
G1 X174.114 Y98.239 E33.556
G1 Y98.805 E33.584
G1 X161.287 Y111.632 E34.489
G1 X161.584 Y111.616 E34.504
G1 X161.869 E34.518
G1 X174.114 Y99.371 E35.382
G1 Y99.936 E35.41
G1 X162.435 Y111.616 E36.234
G1 X163 E36.263
G1 X174.114 Y100.502 E37.047
G1 Y101.068 E37.075
G1 X163.566 Y111.616 E37.819
G1 X164.132 Y111.615 E37.847
G1 X174.114 Y101.633 E38.552
G1 Y102.199 E38.58
G1 X164.698 Y111.615 E39.244
G1 X165.264 E39.272
G1 X174.114 Y102.765 E39.897
G1 Y103.33 E39.925
G1 X165.829 Y111.615 E40.51
G1 X166.395 E40.538
G1 X174.114 Y103.896 E41.082
G1 Y104.462 E41.111
G1 X166.961 Y111.615 E41.615
G1 X167.527 E41.644
G1 X174.114 Y105.027 E42.108
G1 Y105.593 E42.137
G1 X168.093 Y111.614 E42.561
G1 X168.659 E42.59
G1 X174.114 Y106.159 E42.975
G1 Y106.725 E43.003
G1 X169.224 Y111.614 E43.348
G1 X169.79 E43.376
G1 X174.114 Y107.29 E43.681
G1 Y107.473 E43.69
G1 X174.089 Y107.881 E43.711
G1 X170.381 Y111.589 E43.972
G1 X170.511 Y111.581 E43.979
G1 X170.861 Y111.517 E43.996
G1 X171.003 Y111.488 E44.004
G1 X171.068 Y111.467 E44.007
G1 X173.967 Y108.568 E44.212
G1 X173.831 Y108.993 E44.234
G1 X173.614 Y109.46 E44.26
G1 X173.57 Y109.531 E44.264
G1 X172.032 Y111.07 E44.372
G1 F1800 E43.872
; rapid-dry
G1 F15000
G0 X125.886 Y107.435
G1 F1800 E44.372
; bead-solid_infill
G1 X140.636 Y92.685 F1200 E45.413
G1 X140.115 Y93.397 E45.457
G1 X139.596 Y94.25 E45.507
G1 X139.556 Y94.331 E45.511
G1 X125.886 Y108.001 E46.476
G1 Y108.566 E46.504
G1 X139.045 Y95.407 E47.432
G1 X138.78 Y96.075 E47.468
G1 X138.709 Y96.309 E47.481
G1 X125.886 Y109.132 E48.385
G1 Y109.698 E48.413
G1 X138.472 Y97.111 E49.301
G1 X138.319 Y97.83 E49.338
G1 X125.886 Y110.263 E50.215
G1 Y110.829 E50.244
G1 X138.219 Y98.496 E51.114
G1 X138.154 Y99.001 E51.139
G1 X138.149 Y99.132 E51.146
G1 X125.886 Y111.395 E52.011
G1 Y111.614 E52.022
G1 X126.232 E52.039
G1 X138.124 Y99.723 E52.878
G1 X138.112 Y100 E52.892
G1 X138.125 Y100.288 E52.906
G1 X126.798 Y111.614 E53.705
G1 X127.364 E53.734
G1 X138.148 Y100.83 E54.495
G1 X138.155 Y100.998 E54.503
G1 X138.199 Y101.345 E54.52
G1 X127.929 Y111.614 E55.245
G1 X128.495 E55.273
G1 X138.262 Y101.847 E55.962
G1 X138.281 Y101.99 E55.97
G1 X138.352 Y102.323 E55.986
G1 X129.061 Y111.614 E56.642
G1 X129.627 E56.67
G1 X138.451 Y102.789 E57.293
G1 X138.489 Y102.968 E57.302
G1 X138.571 Y103.236 E57.316
G1 X130.192 Y111.614 E57.907
G1 X130.758 E57.935
G1 X138.702 Y103.67 E58.496
G1 X138.78 Y103.926 E58.509
G1 X138.846 Y104.092 E58.518
G1 X131.324 Y111.614 E59.049
G1 X131.889 E59.077
G1 X139.007 Y104.496 E59.579
G1 X139.15 Y104.855 E59.598
G1 X139.171 Y104.898 E59.601
G1 X132.455 Y111.614 E60.075
G1 X133.021 E60.103
G1 X139.359 Y105.275 E60.55
G1 X139.548 Y105.653 E60.571
G1 X133.586 Y111.614 E60.992
G1 X134.152 E61.02
G1 X139.755 Y106.011 E61.415
G1 X139.969 Y106.363 E61.436
G1 X134.718 Y111.614 E61.806
G1 X135.283 E61.835
G1 X140.191 Y106.706 E62.181
G1 X140.43 Y107.033 E62.201
G1 X135.849 Y111.614 E62.524
G1 X136.415 E62.553
G1 X140.669 Y107.36 E62.853
G1 X140.703 Y107.407 E62.856
G1 X140.928 Y107.666 E62.873
G1 X136.98 Y111.614 E63.151
G1 X137.546 E63.18
G1 X141.191 Y107.969 E63.437
G1 X141.363 Y108.166 E63.45
G1 X141.463 Y108.263 E63.457
G1 X138.112 Y111.614 E63.693
G1 X138.417 E63.708
G1 X138.663 Y111.628 E63.721
G1 X141.75 Y108.542 E63.938
G1 X142.037 Y108.821 E63.958
G1 X139.186 Y111.671 E64.16
G1 X139.666 Y111.757 E64.184
G1 X142.344 Y109.079 E64.373
G1 X142.654 Y109.334 E64.393
G1 X140.11 Y111.879 E64.572
G1 X140.42 Y111.972 E64.589
G1 X140.533 Y112.022 E64.595
G1 X142.974 Y109.58 E64.767
G1 X143.309 Y109.811 E64.787
G1 X140.925 Y112.195 E64.955
G1 X141.049 Y112.249 E64.962
G1 X141.295 Y112.391 E64.976
G1 X143.643 Y110.042 E65.142
G1 X143.669 Y110.06 E65.144
G1 X144.002 Y110.25 E65.163
G1 X141.653 Y112.599 E65.328
G1 X142.003 Y112.814 E65.349
G1 X144.362 Y110.455 E65.515
G1 X144.54 Y110.557 E65.526
G1 X144.735 Y110.648 E65.536
G1 X142.354 Y113.029 E65.704
G1 X142.533 Y113.139 E65.715
G1 X142.714 Y113.234 E65.725
G1 X145.121 Y110.827 E65.895
G1 X145.446 Y110.978 E65.913
G1 X145.512 Y111.002 E65.916
G1 X143.085 Y113.429 E66.087
G1 X143.456 Y113.623 E66.108
G1 X145.926 Y111.154 E66.283
G1 X146.34 Y111.305 E66.305
G1 X143.85 Y113.796 E66.48
G1 X143.932 Y113.832 E66.485
G1 X144.243 Y113.968 E66.502
G1 X146.781 Y111.43 E66.681
G1 X147.225 Y111.552 E66.704
G1 X144.649 Y114.128 E66.886
G1 X144.72 Y114.153 E66.889
G1 X145.066 Y114.277 E66.908
G1 X147.693 Y111.649 E67.093
G1 X148.171 Y111.737 E67.117
G1 X145.487 Y114.421 E67.307
G1 X145.928 Y114.545 E67.329
G1 X148.673 Y111.801 E67.523
G1 X148.8 Y111.813 E67.529
G1 X149.188 Y111.851 E67.549
G1 X146.369 Y114.67 E67.748
G1 X146.39 Y114.676 E67.749
G1 X146.836 Y114.769 E67.772
G1 X149.727 Y111.878 E67.976
G1 X150.175 Y111.872 E67.998
G1 X150.301 Y111.87 E68.004
G1 X147.304 Y114.867 E68.216
G1 X147.41 Y114.89 E68.221
G1 X147.794 Y114.943 E68.24
G1 X150.893 Y111.843 E68.459
G1 X151.521 Y111.782 E68.491
G1 X148.29 Y115.012 E68.718
G1 X148.441 Y115.033 E68.726
G1 X148.81 Y115.058 E68.745
G1 X152.199 Y111.669 E68.984
G1 X152.652 Y111.585 E69.007
G1 X152.922 Y111.511 E69.021
G1 X149.339 Y115.094 E69.273
G1 X149.479 Y115.104 E69.28
G1 X149.895 E69.301
G1 X153.714 Y111.285 E69.571
G1 X154.554 Y110.978 E69.615
G1 X154.616 Y110.949 E69.619
G1 X150.461 Y115.104 E69.912
G1 X150.521 E69.915
G1 X151.064 Y115.067 E69.942
G1 X155.724 Y110.406 E70.271
G1 X156.331 Y110.06 E70.306
G1 X157.147 Y109.497 E70.355
G1 X157.441 Y109.255 E70.374
G1 X151.68 Y115.016 E70.781
G1 X152.337 Y114.925 E70.814
G1 X174.114 Y93.148 E72.35
G1 Y92.582 E72.378
G1 X159.317 Y107.379 E73.422
G1 X159.885 Y106.603 E73.47
G1 X160.404 Y105.748 E73.52
G1 X160.426 Y105.705 E73.523
G1 X174.084 Y92.046 E74.486
G1 X174.081 Y91.99 E74.489
G1 X174.001 Y91.564 E74.511
G1 X160.943 Y104.622 E75.432
G1 X161.22 Y103.927 E75.469
G1 X161.285 Y103.715 E75.48
G1 X173.87 Y91.129 E76.368
G1 X173.831 Y91.007 E76.375
G1 X173.703 Y90.731 E76.39
G1 X161.523 Y102.911 E77.249
G1 X161.676 Y102.192 E77.286
G1 X173.504 Y90.364 E78.121
G1 X173.35 Y90.116 E78.135
G1 X173.277 Y90.026 E78.141
G1 X161.778 Y101.524 E78.952
G1 X161.845 Y100.998 E78.979
G1 X161.849 Y100.887 E78.984
G1 X173.023 Y89.714 E79.773
G1 X172.897 Y89.588 E79.781
G1 X172.782 Y89.473 E79.79
G1 X172.736 Y89.435 E79.793
G1 X161.874 Y100.297 E80.559
G1 X161.887 Y100 E80.574
G1 X161.875 Y99.73 E80.587
G1 X172.423 Y89.182 E81.331
G1 X172.384 Y89.15 E81.334
G1 X172.079 Y88.96 E81.352
G1 X161.852 Y99.187 E82.073
G1 X161.845 Y99.002 E82.083
G1 X161.803 Y98.671 E82.099
G1 X171.706 Y88.768 E82.798
G1 X171.493 Y88.669 E82.81
G1 X171.301 Y88.607 E82.82
G1 X161.739 Y98.169 E83.494
G1 X161.719 Y98.01 E83.502
G1 X161.651 Y97.691 E83.519
G1 X170.858 Y88.485 E84.168
G1 X170.508 Y88.419 E84.186
G1 X170.367 Y88.41 E84.193
G1 X161.552 Y97.225 E84.815
G1 X161.511 Y97.033 E84.825
G1 X161.433 Y96.778 E84.838
G1 X169.825 Y88.386 E85.43
G1 X169.259 E85.458
G1 X161.302 Y96.344 E86.02
G1 X161.22 Y96.074 E86.034
G1 X161.159 Y95.921 E86.042
G1 X168.694 Y88.386 E86.574
G1 X168.128 E86.602
G1 X160.998 Y95.516 E87.105
G1 X160.851 Y95.145 E87.125
G1 X160.835 Y95.114 E87.127
G1 X167.562 Y88.386 E87.601
G1 X166.997 E87.63
G1 X160.646 Y94.736 E88.078
G1 X160.458 Y94.359 E88.099
G1 X166.431 Y88.386 E88.52
G1 X165.865 E88.548
G1 X160.251 Y94 E88.944
G1 X160.19 Y93.899 E88.95
G1 X160.037 Y93.648 E88.965
G1 X165.3 Y88.386 E89.336
G1 X164.734 E89.364
G1 X159.816 Y93.304 E89.711
G1 X159.577 Y92.977 E89.732
G1 X164.168 Y88.386 E90.056
G1 X163.603 E90.084
G1 X159.339 Y92.65 E90.385
G1 X159.294 Y92.59 E90.388
G1 X159.08 Y92.343 E90.405
G1 X163.037 Y88.386 E90.684
G1 X162.471 E90.712
G1 X158.817 Y92.04 E90.97
G1 X158.638 Y91.835 E90.983
G1 X158.546 Y91.745 E90.99
G1 X161.906 Y88.386 E91.227
G1 X161.581 E91.243
G1 X161.353 Y88.373 E91.254
G1 X158.259 Y91.467 E91.473
G1 X157.972 Y91.188 E91.493
G1 X160.829 Y88.331 E91.694
G1 X160.349 Y88.246 E91.719
G1 X157.669 Y90.926 E91.908
G1 X157.654 Y90.913 E91.909
G1 X157.356 Y90.672 E91.928
G1 X159.904 Y88.125 E92.108
G1 X159.579 Y88.028 E92.124
G1 X159.479 Y87.984 E92.13
G1 X157.036 Y90.427 E92.302
G1 X156.702 Y90.196 E92.323
G1 X159.087 Y87.811 E92.491
G1 X158.95 Y87.751 E92.498
G1 X158.716 Y87.616 E92.512
G1 X156.367 Y89.965 E92.677
G1 X156.331 Y89.94 E92.68
G1 X156.009 Y89.757 E92.698
G1 X158.358 Y87.408 E92.864
G1 X158.076 Y87.234 E92.88
G1 X158.008 Y87.193 E92.884
G1 X155.649 Y89.551 E93.051
G1 X155.463 Y89.444 E93.061
G1 X155.28 Y89.355 E93.072
G1 X157.658 Y86.977 E93.239
G1 X157.467 Y86.86 E93.251
G1 X157.298 Y86.771 E93.26
G1 X154.894 Y89.175 E93.43
G1 X154.745 Y89.108 E93.438
G1 X154.552 Y89.021 E93.448
G1 X154.501 Y89.003 E93.451
G1 X156.926 Y86.577 E93.622
G1 X156.555 Y86.383 E93.643
G1 X154.087 Y88.851 E93.817
G1 X153.673 Y88.699 E93.839
G1 X156.163 Y86.209 E94.015
G1 X155.769 Y86.037 E94.036
G1 X153.233 Y88.574 E94.215
G1 X152.845 Y88.468 E94.235
G1 X152.788 Y88.452 E94.238
G1 X155.364 Y85.877 E94.42
G1 X154.947 Y85.728 E94.442
G1 X152.321 Y88.354 E94.627
G1 X152.161 Y88.324 E94.636
G1 X151.844 Y88.265 E94.652
G1 X154.526 Y85.583 E94.841
G1 X154.085 Y85.458 E94.864
G1 X151.35 Y88.193 E95.057
G1 X151.32 Y88.19 E95.058
G1 X150.829 Y88.148 E95.083
G1 X153.644 Y85.334 E95.281
G1 X153.61 Y85.324 E95.283
G1 X153.178 Y85.234 E95.305
G1 X150.283 Y88.13 E95.509
G1 X149.725 Y88.122 E95.537
G1 X152.711 Y85.136 E95.748
G1 X152.59 Y85.11 E95.754
G1 X152.222 Y85.059 E95.773
G1 X149.126 Y88.155 E95.991
G1 X148.88 Y88.179 E96.003
G1 X148.499 Y88.216 E96.023
G1 X151.725 Y84.99 E96.25
G1 X151.559 Y84.967 E96.259
G1 X151.207 Y84.943 E96.276
G1 X147.822 Y88.327 E96.515
G1 X147.351 Y88.414 E96.539
G1 X147.106 Y88.478 E96.551
G1 X150.677 Y84.907 E96.803
G1 X150.521 Y84.896 E96.811
G1 X150.122 E96.831
G1 X146.313 Y88.705 E97.1
G1 X145.446 Y89.022 E97.146
G1 X145.416 Y89.036 E97.148
G1 X149.556 Y84.896 E97.44
G1 X149.479 E97.444
G1 X148.955 Y84.932 E97.47
G1 X144.323 Y89.564 E97.797
G1 X143.973 Y89.758 E97.817
G1 X143.746 Y89.895 E97.83
G1 X143.666 Y89.942 E97.834
G1 X142.853 Y90.503 E97.884
G1 X142.656 Y90.665 E97.896
G1 X148.34 Y84.981 E98.297
G1 X147.683 Y85.072 E98.331
G1 X125.886 Y106.869 E99.868
G1 Y106.304 E99.897
G1 X146.992 Y85.198 E101.386
G1 X146.39 Y85.324 E101.416
G1 X146.264 Y85.36 E101.423
G1 X125.886 Y105.738 E102.861
G1 Y105.172 E102.889
G1 X145.476 Y85.583 E104.271
G1 X145.388 Y85.607 E104.276
G1 X145.011 Y85.743 E104.296
G1 X144.604 Y85.889 E104.317
G1 X125.886 Y104.607 E105.638
G1 Y104.041 E105.666
G1 X143.623 Y86.303 E106.918
G1 X143.455 Y86.378 E106.927
G1 X142.993 Y86.618 E106.953
G1 X142.532 Y86.858 E106.979
G1 X142.457 Y86.904 E106.983
G1 X125.886 Y103.475 E108.152
G1 Y102.909 E108.18
G1 X141.037 Y87.759 E109.249
G1 X140.418 Y88.028 E109.283
G1 X140.108 Y88.121 E109.299
G1 X125.886 Y102.344 E110.303
G1 Y101.778 E110.331
G1 X139.368 Y88.296 E111.282
G1 X139.078 Y88.348 E111.297
G1 X138.732 Y88.367 E111.314
G1 X125.886 Y101.212 E112.22
G1 Y100.647 E112.249
G1 X138.149 Y88.384 E113.114
G1 X137.583 E113.142
G1 X125.886 Y100.081 E113.967
G1 Y99.515 E113.996
G1 X137.017 Y88.384 E114.781
G1 X136.451 E114.809
G1 X125.886 Y98.95 E115.555
G1 Y98.384 E115.583
G1 X135.886 Y88.384 E116.288
G1 X135.32 E116.317
G1 X125.886 Y97.818 E116.982
G1 Y97.253 E117.01
G1 X134.754 Y88.385 E117.636
G1 X134.188 E117.664
G1 X125.886 Y96.687 E118.25
G1 Y96.121 E118.278
G1 X133.623 Y88.385 E118.824
G1 X133.057 E118.852
G1 X125.886 Y95.556 E119.358
G1 Y94.99 E119.387
G1 X132.491 Y88.385 E119.853
G1 X131.925 E119.881
G1 X125.886 Y94.424 E120.307
G1 Y93.858 E120.335
G1 X131.359 Y88.385 E120.721
G1 X130.794 E120.75
G1 X125.886 Y93.293 E121.096
G1 Y92.727 E121.124
G1 X130.228 Y88.385 E121.43
G1 X129.662 E121.459
G1 X125.886 Y92.161 E121.725
G1 Y91.596 E121.753
G1 X129.096 Y88.385 E121.98
G1 X128.531 E122.008
G1 X125.886 Y91.03 E122.195
G1 Y90.464 E122.223
G1 X127.965 Y88.386 E122.369
G1 X127.399 E122.398
G1 X125.886 Y89.899 E122.504
G1 Y89.333 E122.533
G1 X126.833 Y88.386 E122.6
G1 X126.268 E122.628
G1 X125.886 Y88.767 E122.655
G1 F1800 E122.155
; layer, 6 of 37
; rapid-dry
G1 F15000
G0 X148.542 Y111.272 Z1.7
G1 F1800 E122.655
; bead-perimeter_inner
G1 X149.518 Y111.355 F1560 E122.704
G1 X150.482 E122.752
G1 X151.444 Y111.274 E122.8
G1 X152.394 Y111.111 E122.848
G1 X153.328 Y110.868 E122.896
G1 X154.238 Y110.546 E122.944
G1 X155.103 Y110.155 E122.992
G1 X155.959 Y109.679 E123.04
G1 X156.759 Y109.137 E123.089
G1 X157.509 Y108.532 E123.137
G1 X158.205 Y107.864 E123.185
G1 X158.843 Y107.14 E123.233
G1 X159.416 Y106.365 E123.281
G1 X159.916 Y105.555 E123.329
G1 X160.356 Y104.682 E123.377
G1 X160.716 Y103.787 E123.425
G1 X160.999 Y102.864 E123.474
G1 X161.202 Y101.92 E123.522
G1 X161.324 Y100.964 E123.57
G1 X161.366 Y100 E123.618
G1 X161.326 Y99.051 E123.665
G1 X161.202 Y98.08 E123.714
G1 X160.999 Y97.136 E123.762
G1 X160.716 Y96.213 E123.811
G1 X160.356 Y95.318 E123.859
G1 X159.923 Y94.457 E123.907
G1 X159.417 Y93.635 E123.955
G1 X158.843 Y92.86 E124.003
G1 X158.205 Y92.136 E124.051
G1 X157.509 Y91.468 E124.099
G1 X156.759 Y90.863 E124.147
G1 X155.96 Y90.322 E124.196
G1 X155.116 Y89.851 E124.244
G1 X154.238 Y89.454 E124.292
G1 X153.328 Y89.132 E124.34
G1 X152.394 Y88.889 E124.388
G1 X151.458 Y88.728 E124.435
G1 X150.482 Y88.645 E124.484
G1 X149.518 E124.532
G1 X148.556 Y88.726 E124.581
G1 X147.606 Y88.889 E124.629
G1 X146.672 Y89.132 E124.677
G1 X145.762 Y89.454 E124.725
G1 X144.884 Y89.851 E124.773
G1 X144.04 Y90.322 E124.821
G1 X143.241 Y90.863 E124.869
G1 X142.491 Y91.468 E124.918
G1 X141.805 Y92.125 E124.965
G1 X141.157 Y92.859 E125.014
G1 X140.583 Y93.635 E125.062
G1 X140.077 Y94.457 E125.11
G1 X139.644 Y95.318 E125.158
G1 X139.289 Y96.2 E125.206
G1 X139.001 Y97.136 E125.254
G1 X138.798 Y98.079 E125.303
G1 X138.675 Y99.036 E125.351
G1 X138.633 Y100 E125.399
G1 X138.676 Y100.964 E125.447
G1 X138.796 Y101.906 E125.494
G1 X138.998 Y102.85 E125.543
G1 X139.284 Y103.786 E125.591
G1 X139.644 Y104.682 E125.64
G1 X140.077 Y105.543 E125.688
G1 X140.583 Y106.365 E125.736
G1 X141.157 Y107.14 E125.784
G1 X141.795 Y107.864 E125.832
G1 X142.491 Y108.532 E125.88
G1 X143.241 Y109.137 E125.928
G1 X144.04 Y109.679 E125.976
G1 X144.884 Y110.149 E126.025
G1 X145.762 Y110.546 E126.073
G1 X146.672 Y110.868 E126.121
G1 X147.606 Y111.111 E126.169
G1 X148.542 Y111.272 E126.216
; rapid-leaky
G1 F15000
G0 X148.589 Y110.91
; bead-perimeter_outer
G1 X149.534 Y110.99 F1080 E126.264
G1 X150.466 E126.31
G1 X151.397 Y110.912 E126.357
G1 X152.317 Y110.754 E126.403
G1 X153.221 Y110.518 E126.45
G1 X154.102 Y110.207 E126.497
G1 X154.939 Y109.829 E126.542
G1 X155.768 Y109.368 E126.59
G1 X156.541 Y108.844 E126.636
G1 X157.267 Y108.257 E126.683
G1 X157.941 Y107.612 E126.729
G1 X158.559 Y106.911 E126.776
G1 X159.114 Y106.16 E126.823
G1 X159.597 Y105.377 E126.869
G1 X160.023 Y104.532 E126.916
G1 X160.372 Y103.665 E126.962
G1 X160.646 Y102.771 E127.009
G1 X160.842 Y101.859 E127.056
G1 X160.96 Y100.933 E127.102
G1 X161 Y100 E127.149
G1 X160.961 Y99.081 E127.195
G1 X160.842 Y98.141 E127.242
G1 X160.646 Y97.229 E127.288
G1 X160.372 Y96.335 E127.335
G1 X160.023 Y95.469 E127.382
G1 X159.604 Y94.635 E127.428
G1 X159.114 Y93.84 E127.475
G1 X158.559 Y93.089 E127.521
G1 X157.941 Y92.388 E127.568
G1 X157.267 Y91.743 E127.615
G1 X156.541 Y91.156 E127.661
G1 X155.768 Y90.633 E127.708
G1 X154.952 Y90.177 E127.754
G1 X154.102 Y89.793 E127.801
G1 X153.221 Y89.482 E127.848
G1 X152.317 Y89.246 E127.894
G1 X151.411 Y89.09 E127.94
G1 X150.467 Y89.01 E127.987
G1 X149.534 E128.034
G1 X148.603 Y89.088 E128.08
G1 X147.683 Y89.246 E128.127
G1 X146.779 Y89.482 E128.174
G1 X145.898 Y89.793 E128.22
G1 X145.048 Y90.177 E128.267
G1 X144.232 Y90.633 E128.313
G1 X143.459 Y91.156 E128.36
G1 X142.733 Y91.743 E128.407
G1 X142.069 Y92.378 E128.452
G1 X141.441 Y93.089 E128.5
G1 X140.886 Y93.84 E128.546
G1 X140.396 Y94.635 E128.593
G1 X139.977 Y95.469 E128.639
G1 X139.633 Y96.322 E128.685
G1 X139.354 Y97.228 E128.733
G1 X139.158 Y98.141 E128.779
G1 X139.039 Y99.067 E128.826
G1 X138.999 Y100 E128.872
G1 X139.04 Y100.933 E128.919
G1 X139.156 Y101.845 E128.965
G1 X139.351 Y102.758 E129.011
G1 X139.628 Y103.665 E129.059
G1 X139.977 Y104.531 E129.105
G1 X140.396 Y105.365 E129.152
G1 X140.886 Y106.16 E129.198
G1 X141.441 Y106.911 E129.245
G1 X142.059 Y107.612 E129.292
G1 X142.733 Y108.257 E129.338
G1 X143.459 Y108.844 E129.385
G1 X144.232 Y109.367 E129.431
G1 X145.048 Y109.823 E129.478
G1 X145.898 Y110.207 E129.525
G1 X146.779 Y110.518 E129.571
G1 X147.683 Y110.754 E129.618
G1 X148.589 Y110.91 E129.664
G1 F1800 E129.164
; rapid-dry
G1 F15000
G0 X148.387 Y115.552
G1 F1800 E129.664
; bead-perimeter_inner
G1 X147.32 Y115.403 F1560 E129.717
G1 X146.266 Y115.182 E129.771
G1 X145.229 Y114.889 E129.825
G1 X144.216 Y114.526 E129.879
G1 X143.23 Y114.093 E129.932
G1 X142.275 Y113.592 E129.986
G1 X140.815 Y112.712 E130.071
G1 X140.238 Y112.462 E130.102
G1 X139.637 Y112.28 E130.134
G1 X139.019 Y112.171 E130.165
G1 X138.408 Y112.135 E130.196
G1 X125.365 E130.846
G1 Y87.865 E132.057
G1 X138.409 E132.708
G1 X139.02 Y87.829 E132.738
G1 X139.65 Y87.716 E132.77
G1 X140.239 Y87.538 E132.801
G1 X140.803 Y87.293 E132.832
G1 X141.335 Y86.985 E132.862
G1 X142.275 Y86.407 E132.918
G1 X143.23 Y85.908 E132.971
G1 X144.216 Y85.474 E133.025
G1 X145.229 Y85.111 E133.079
G1 X146.266 Y84.818 E133.132
G1 X147.32 Y84.597 E133.186
G1 X148.364 Y84.451 E133.239
G1 X149.462 Y84.375 E133.294
G1 X150.539 E133.347
G1 X151.613 Y84.448 E133.401
G1 X152.68 Y84.597 E133.455
G1 X153.734 Y84.818 E133.509
G1 X154.771 Y85.111 E133.562
G1 X155.784 Y85.474 E133.616
G1 X156.77 Y85.908 E133.67
G1 X157.725 Y86.407 E133.724
G1 X159.185 Y87.288 E133.809
G1 X159.76 Y87.538 E133.84
G1 X160.363 Y87.72 E133.871
G1 X160.981 Y87.829 E133.903
G1 X161.59 Y87.865 E133.933
G1 X169.983 E134.352
G1 X170.559 Y87.9 E134.381
G1 X171.109 Y88.001 E134.408
G1 X171.643 Y88.167 E134.436
G1 X172.154 Y88.397 E134.464
G1 X172.632 Y88.686 E134.492
G1 X173.072 Y89.031 E134.52
G1 X173.469 Y89.428 E134.548
G1 X173.814 Y89.868 E134.576
G1 X174.103 Y90.346 E134.604
G1 X174.333 Y90.857 E134.632
G1 X174.499 Y91.391 E134.66
G1 X174.6 Y91.941 E134.688
G1 X174.635 Y92.517 E134.716
G1 Y107.483 E135.463
G1 X174.6 Y108.059 E135.492
G1 X174.499 Y108.609 E135.52
G1 X174.333 Y109.143 E135.548
G1 X174.109 Y109.642 E135.575
G1 X173.806 Y110.143 E135.604
G1 X173.469 Y110.572 E135.631
G1 X173.072 Y110.969 E135.659
G1 X172.632 Y111.314 E135.687
G1 X172.154 Y111.603 E135.715
G1 X171.643 Y111.833 E135.743
G1 X171.109 Y111.999 E135.771
G1 X170.559 Y112.1 E135.799
G1 X169.983 Y112.135 E135.828
G1 X161.592 E136.246
G1 X160.993 Y112.17 E136.276
G1 X160.35 Y112.283 E136.309
G1 X159.761 Y112.462 E136.34
G1 X159.197 Y112.707 E136.37
G1 X158.665 Y113.015 E136.401
G1 X157.725 Y113.592 E136.456
G1 X156.77 Y114.093 E136.51
G1 X155.784 Y114.526 E136.563
G1 X154.771 Y114.889 E136.617
G1 X153.734 Y115.182 E136.671
G1 X152.68 Y115.403 E136.725
G1 X151.636 Y115.549 E136.777
G1 X150.538 Y115.625 E136.832
G1 X149.461 E136.886
G1 X148.387 Y115.552 E136.94
; rapid-leaky
G1 F15000
G0 X148.35 Y115.915
; bead-perimeter_outer
G1 X147.257 Y115.763 F1080 E136.995
G1 X146.179 Y115.537 E137.05
G1 X145.118 Y115.236 E137.105
G1 X144.081 Y114.865 E137.16
G1 X143.072 Y114.422 E137.215
G1 X142.095 Y113.91 E137.27
G1 X140.649 Y113.038 E137.354
G1 X140.112 Y112.805 E137.383
G1 X139.553 Y112.636 E137.412
G1 X138.976 Y112.534 E137.441
G1 X138.397 Y112.5 E137.47
G1 X125 E138.139
G1 Y87.5 E139.386
G1 X138.398 E140.054
G1 X138.977 Y87.466 E140.083
G1 X139.565 Y87.361 E140.113
G1 X140.113 Y87.195 E140.142
G1 X140.638 Y86.967 E140.17
G1 X141.148 Y86.672 E140.2
G1 X142.095 Y86.089 E140.255
G1 X143.072 Y85.578 E140.31
G1 X144.081 Y85.135 E140.365
G1 X145.118 Y84.764 E140.42
G1 X146.179 Y84.463 E140.475
G1 X147.257 Y84.237 E140.53
G1 X148.326 Y84.088 E140.584
G1 X149.449 Y84.01 E140.64
G1 X150.551 E140.695
G1 X151.65 Y84.085 E140.75
G1 X152.743 Y84.237 E140.805
G1 X153.821 Y84.463 E140.86
G1 X154.882 Y84.764 E140.915
G1 X155.919 Y85.135 E140.97
G1 X156.928 Y85.578 E141.025
G1 X157.905 Y86.089 E141.08
G1 X159.35 Y86.962 E141.164
G1 X159.886 Y87.195 E141.193
G1 X160.448 Y87.364 E141.223
G1 X161.024 Y87.466 E141.252
G1 X161.601 Y87.5 E141.281
G1 X169.994 E141.699
G1 X170.603 Y87.537 E141.73
G1 X171.196 Y87.646 E141.76
G1 X171.773 Y87.825 E141.79
G1 X172.324 Y88.073 E141.82
G1 X172.84 Y88.385 E141.85
G1 X173.315 Y88.758 E141.88
G1 X173.742 Y89.185 E141.91
G1 X174.115 Y89.66 E141.941
G1 X174.427 Y90.176 E141.971
G1 X174.675 Y90.727 E142.001
G1 X174.854 Y91.304 E142.031
G1 X174.963 Y91.897 E142.061
G1 X175 Y92.506 E142.091
G1 Y107.494 E142.839
G1 X174.963 Y108.103 E142.87
G1 X174.854 Y108.696 E142.9
G1 X174.675 Y109.273 E142.93
G1 X174.433 Y109.812 E142.959
G1 X174.107 Y110.351 E142.991
G1 X173.742 Y110.815 E143.02
G1 X173.315 Y111.242 E143.05
G1 X172.84 Y111.615 E143.081
G1 X172.324 Y111.927 E143.111
G1 X171.773 Y112.175 E143.141
G1 X171.196 Y112.354 E143.171
G1 X170.603 Y112.463 E143.201
G1 X169.994 Y112.5 E143.231
G1 X161.602 E143.65
G1 X161.036 Y112.533 E143.678
G1 X160.434 Y112.639 E143.709
G1 X159.887 Y112.805 E143.737
G1 X159.362 Y113.033 E143.766
G1 X157.905 Y113.91 E143.851
G1 X156.928 Y114.422 E143.906
G1 X155.919 Y114.865 E143.961
G1 X154.882 Y115.236 E144.016
G1 X153.821 Y115.537 E144.071
G1 X152.743 Y115.763 E144.126
G1 X151.674 Y115.912 E144.18
G1 X150.551 Y115.99 E144.236
G1 X149.449 E144.291
G1 X148.35 Y115.915 E144.346
G1 F1800 E143.846
; rapid-dry
G1 F15000
G0 X125.685 Y111.597
G1 F1800 E144.346
; bead-solid_infill
G1 X125.903 Y111.815 F2400 E144.361
G1 X126.468 E144.389
G1 X125.685 Y111.032 E144.445
G1 Y110.466 E144.473
G1 X127.034 Y111.815 E144.568
G1 X127.6 E144.596
G1 X125.685 Y109.9 E144.731
G1 Y109.335 E144.759
G1 X128.165 Y111.815 E144.934
G1 X128.731 E144.963
G1 X125.685 Y108.769 E145.178
G1 Y108.203 E145.206
G1 X129.297 Y111.815 E145.461
G1 X129.862 E145.489
G1 X125.685 Y107.638 E145.784
G1 Y107.072 E145.812
G1 X130.428 Y111.815 E146.146
G1 X130.994 E146.175
G1 X125.685 Y106.506 E146.549
G1 Y105.94 E146.577
G1 X131.56 Y111.815 E146.992
G1 X132.125 E147.02
G1 X125.685 Y105.375 E147.475
G1 Y104.809 E147.503
G1 X132.691 Y111.815 E147.997
G1 X133.257 E148.025
G1 X125.685 Y104.243 E148.56
G1 Y103.678 E148.588
G1 X133.822 Y111.815 E149.162
G1 X134.388 E149.19
G1 X125.685 Y103.112 E149.804
G1 Y102.546 E149.832
G1 X134.954 Y111.815 E150.486
G1 X135.519 E150.515
G1 X125.685 Y101.981 E151.208
G1 Y101.415 E151.237
G1 X136.085 Y111.815 E151.97
G1 X136.651 E151.999
G1 X125.685 Y100.849 E152.772
G1 Y100.284 E152.801
G1 X137.216 Y111.815 E153.614
G1 X137.782 E153.642
G1 X125.685 Y99.718 E154.496
G1 Y99.152 E154.524
G1 X138.348 Y111.815 E155.418
G1 X138.417 E155.421
G1 X138.944 Y111.846 E155.447
G1 X125.685 Y98.587 E156.383
G1 Y98.021 E156.411
G1 X139.616 Y111.952 E157.394
G1 X139.712 Y111.969 E157.399
G1 X140.348 Y112.161 E157.432
G1 X140.423 Y112.193 E157.436
G1 X125.685 Y97.455 E158.476
G1 Y96.89 E158.504
G1 X141.618 Y112.823 E159.628
G1 X142.432 Y113.313 E159.676
G1 X142.941 Y113.58 E159.704
G1 X125.685 Y96.324 E160.922
G1 Y95.758 E160.95
G1 X144.014 Y114.088 E162.243
G1 X144.335 Y114.228 E162.261
G1 X144.875 Y114.422 E162.289
G1 X144.936 Y114.444 E162.293
G1 X125.685 Y95.192 E163.651
G1 Y94.627 E163.679
G1 X145.766 Y114.708 E165.096
G1 X146.343 Y114.871 E165.126
G1 X146.535 Y114.912 E165.136
G1 X125.685 Y94.061 E166.607
G1 Y93.495 E166.635
G1 X147.251 Y115.062 E168.157
G1 X147.375 Y115.088 E168.163
G1 X147.919 Y115.163 E168.19
G1 X125.685 Y92.93 E169.759
G1 Y92.364 E169.787
G1 X148.564 Y115.243 E171.402
G1 X149.171 Y115.284 E171.432
G1 X143.765 Y109.879 E171.813
G1 X143.872 Y109.951 E171.82
G1 X144.74 Y110.435 E171.869
G1 X145.009 Y110.557 E171.884
G1 X149.757 Y115.305 E172.219
G1 X150.323 E172.247
G1 X145.98 Y110.962 E172.554
G1 X146.578 Y111.174 E172.585
G1 X146.821 Y111.237 E172.598
G1 X150.865 Y115.282 E172.883
G1 X151.261 Y115.254 E172.903
G1 X151.394 Y115.245 E172.91
G1 X147.581 Y111.431 E173.179
G1 X148.264 Y111.549 E173.213
G1 X151.903 Y115.188 E173.47
G1 X152.4 Y115.119 E173.495
G1 X148.905 Y111.624 E173.742
G1 X149.432 Y111.669 E173.768
G1 X149.504 Y111.675 E173.772
G1 X149.521 E173.773
G1 X152.88 Y115.034 E174.01
G1 X153.348 Y114.936 E174.033
G1 X150.087 Y111.675 E174.263
G1 X150.495 E174.284
G1 X150.641 Y111.663 E174.291
G1 X153.807 Y114.829 E174.515
G1 X154.248 Y114.704 E174.537
G1 X151.162 Y111.619 E174.755
G1 X151.484 Y111.592 E174.771
G1 X151.669 Y111.56 E174.781
G1 X154.688 Y114.578 E174.993
G1 X155.104 Y114.429 E175.016
G1 X152.152 Y111.477 E175.224
G1 X152.462 Y111.424 E175.24
G1 X152.623 Y111.382 E175.248
G1 X155.521 Y114.28 E175.452
G1 X155.665 Y114.228 E175.46
G1 X155.922 Y114.116 E175.474
G1 X153.071 Y111.265 E175.675
G1 X153.422 Y111.174 E175.693
G1 X153.513 Y111.141 E175.698
G1 X156.315 Y113.943 E175.896
G1 X156.631 Y113.804 E175.913
G1 X156.704 Y113.766 E175.917
G1 X153.931 Y110.994 E176.113
G1 X154.159 Y110.913 E176.125
G1 X154.349 Y110.846 E176.135
G1 X157.075 Y113.572 E176.327
G1 X157.446 Y113.377 E176.348
G1 X154.739 Y110.67 E176.539
G1 X154.802 Y110.642 E176.542
G1 X155.129 Y110.495 E176.56
G1 X157.803 Y113.169 E176.749
G1 X158.154 Y112.953 E176.769
G1 X155.501 Y110.3 E176.957
G1 X155.592 Y110.25 E176.962
G1 X155.864 Y110.098 E176.977
G1 X158.504 Y112.738 E177.164
G1 X158.862 Y112.531 E177.184
G1 X156.22 Y109.889 E177.371
G1 X156.557 Y109.66 E177.391
G1 X159.238 Y112.34 E177.58
G1 X159.632 Y112.169 E177.602
G1 X156.895 Y109.432 E177.795
G1 X156.949 Y109.395 E177.798
G1 X157.212 Y109.183 E177.815
G1 X160.064 Y112.036 E178.016
G1 X160.275 Y111.972 E178.027
G1 X160.304 Y111.967 E178.029
G1 X160.522 Y111.928 E178.04
G1 X157.525 Y108.93 E178.251
G1 X157.72 Y108.772 E178.264
G1 X157.828 Y108.668 E178.271
G1 X161.009 Y111.848 E178.496
G1 X161.543 Y111.817 E178.522
G1 X158.117 Y108.392 E178.764
G1 X158.406 Y108.115 E178.784
G1 X162.106 Y111.815 E179.045
G1 X162.672 E179.073
G1 X158.674 Y107.817 E179.355
G1 X158.939 Y107.516 E179.375
G1 X163.238 Y111.815 E179.679
G1 X163.804 E179.707
G1 X159.193 Y107.205 E180.032
G1 X159.434 Y106.88 E180.052
G1 X164.369 Y111.815 E180.401
G1 X164.935 E180.429
G1 X159.674 Y106.554 E180.8
G1 X159.682 Y106.544 E180.801
G1 X159.891 Y106.205 E180.82
G1 X165.501 Y111.815 E181.216
G1 X166.066 E181.244
G1 X160.106 Y105.855 E181.665
G1 X160.195 Y105.711 E181.673
G1 X160.307 Y105.49 E181.686
G1 X166.632 Y111.815 E182.132
G1 X167.198 E182.16
G1 X160.497 Y105.114 E182.633
G1 X160.648 Y104.814 E182.65
G1 X160.681 Y104.732 E182.654
G1 X167.763 Y111.815 E183.154
G1 X168.329 E183.182
G1 X160.843 Y104.329 E183.71
G1 X161.005 Y103.925 E183.732
G1 X168.895 Y111.815 E184.289
G1 X169.46 E184.317
G1 X161.14 Y103.495 E184.904
G1 X161.273 Y103.062 E184.927
G1 X170.023 Y111.812 E185.544
G1 X170.52 Y111.782 E185.569
G1 X170.553 Y111.776 E185.57
G1 X161.382 Y102.605 E186.217
G1 X161.482 Y102.14 E186.241
G1 X171.031 Y111.688 E186.915
G1 X171.032
G1 X171.462 Y111.554 E186.937
G1 X161.559 Y101.651 E187.636
G1 X161.623 Y101.15 E187.661
G1 X171.859 Y111.385 E188.383
G1 X172.005 Y111.319 E188.391
G1 X172.225 Y111.186 E188.404
G1 X161.659 Y100.62 E189.15
G1 X161.683 Y100.077 E189.177
G1 X172.565 Y110.96 E189.945
G1 X172.86 Y110.729 E189.963
G1 X172.88 Y110.709 E189.965
G1 X161.664 Y99.494 E190.756
G1 X161.645 Y99.024 E190.78
G1 X161.628 Y98.891 E190.786
G1 X173.163 Y110.426 E191.6
G1 X173.229 Y110.359 E191.605
G1 X173.42 Y110.117 E191.62
G1 X161.546 Y98.243 E192.458
G1 X161.518 Y98.026 E192.469
G1 X161.486 Y97.877 E192.476
G1 X161.415 Y97.547 E192.493
G1 X173.65 Y109.782 E193.357
G1 X173.825 Y109.493 E193.373
G1 X173.856 Y109.423 E193.377
G1 X161.229 Y96.796 E194.268
G1 X161.018 Y96.107 E194.304
G1 X160.959 Y95.96 E194.312
G1 X174.032 Y109.032 E195.234
G1 X174.033 Y109.03
G1 X174.102 Y108.808 E195.246
G1 X174.166 Y108.601 E195.257
G1 X160.544 Y94.979 E196.218
G1 X160.498 Y94.887 E196.223
G1 X160.202 Y94.301 E196.256
G1 X159.835 Y93.704 E196.291
G1 X174.262 Y108.131 E197.309
G1 X174.282 Y108.02 E197.314
G1 X174.307 Y107.61 E197.335
G1 X151.455 Y84.758 E198.947
G1 X150.848 Y84.717 E198.978
G1 X156.288 Y90.158 E199.361
G1 X156.128 Y90.049 E199.371
G1 X155.26 Y89.565 E199.421
G1 X155.022 Y89.457 E199.434
G1 X150.26 Y84.695 E199.77
G1 X149.694 E199.798
G1 X154.047 Y89.047 E200.105
G1 X153.422 Y88.826 E200.138
G1 X153.203 Y88.769 E200.149
G1 X149.151 Y84.717 E200.435
G1 X148.935 Y84.732 E200.446
G1 X148.622 Y84.754 E200.462
G1 X152.44 Y88.572 E200.731
G1 X152.3 Y88.548 E200.738
G1 X151.757 Y88.455 E200.766
G1 X148.112 Y84.81 E201.023
G1 X147.615 Y84.879 E201.048
G1 X151.114 Y88.378 E201.295
G1 X150.496 Y88.325 E201.326
G1 X147.134 Y84.963 E201.563
G1 X146.666 Y85.061 E201.587
G1 X149.93 Y88.325 E201.817
G1 X149.505 E201.838
G1 X149.375 Y88.336 E201.845
G1 X146.207 Y85.167 E202.068
G1 X145.766 Y85.292 E202.091
G1 X148.854 Y88.38 E202.309
G1 X148.516 Y88.408 E202.326
G1 X148.346 Y88.438 E202.335
G1 X145.325 Y85.417 E202.548
G1 X144.909 Y85.566 E202.57
G1 X147.863 Y88.52 E202.778
G1 X147.538 Y88.576 E202.795
G1 X147.391 Y88.614 E202.802
G1 X144.492 Y85.715 E203.007
G1 X144.335 Y85.772 E203.015
G1 X144.09 Y85.879 E203.028
G1 X146.942 Y88.731 E203.23
G1 X146.578 Y88.826 E203.248
G1 X146.499 Y88.854 E203.253
G1 X143.697 Y86.052 E203.45
G1 X143.368 Y86.196 E203.468
G1 X143.308 Y86.228 E203.472
G1 X146.082 Y89.002 E203.667
G1 X145.664 Y89.15 E203.689
G1 X142.936 Y86.422 E203.882
G1 X142.838 Y86.473 E203.887
G1 X142.565 Y86.616 E203.903
G1 X145.273 Y89.324 E204.094
G1 X145.038 Y89.43 E204.107
G1 X144.883 Y89.5 E204.115
G1 X142.207 Y86.824 E204.304
G1 X142.038 Y86.928 E204.314
G1 X141.857 Y87.04 E204.325
G1 X144.51 Y89.693 E204.512
G1 X144.147 Y89.896 E204.532
G1 X141.507 Y87.255 E204.719
G1 X141.499 Y87.26
G1 X141.149 Y87.463 E204.739
G1 X143.79 Y90.105 E204.926
G1 X143.453 Y90.333 E204.946
G1 X140.774 Y87.655 E205.135
G1 X140.38 Y87.826 E205.157
G1 X143.116 Y90.561 E205.35
G1 X143.051 Y90.605 E205.353
G1 X142.798 Y90.809 E205.37
G1 X139.949 Y87.96 E205.571
G1 X139.725 Y88.028 E205.582
G1 X139.492 Y88.07 E205.594
G1 X142.485 Y91.062 E205.805
G1 X142.28 Y91.228 E205.818
G1 X142.18 Y91.323 E205.825
G1 X139.008 Y88.15 E206.049
G1 X138.716 Y88.167 E206.064
G1 X138.473 Y88.182 E206.076
G1 X141.891 Y91.6 E206.317
G1 X141.602 Y91.876 E206.337
G1 X137.911 Y88.185 E206.597
G1 X137.345 E206.626
G1 X141.335 Y92.175 E206.907
G1 X141.07 Y92.475 E206.927
G1 X136.779 Y88.185 E207.23
G1 X136.214 E207.258
G1 X140.814 Y92.785 E207.583
G1 X140.574 Y93.11 E207.603
G1 X135.648 Y88.185 E207.95
G1 X135.082 E207.979
G1 X140.333 Y93.436 E208.349
G1 X140.318 Y93.456 E208.35
G1 X140.116 Y93.784 E208.37
G1 X134.517 Y88.185 E208.765
G1 X133.951 E208.793
G1 X139.9 Y94.134 E209.213
G1 X139.798 Y94.301 E209.222
G1 X139.698 Y94.498 E209.233
G1 X133.385 Y88.185 E209.679
G1 X132.82 E209.707
G1 X139.509 Y94.874 E210.179
G1 X139.352 Y95.186 E210.196
G1 X139.324 Y95.255 E210.2
G1 X132.254 Y88.185 E210.699
G1 X131.688 E210.727
G1 X139.162 Y95.659 E211.254
G1 X139 Y96.062 E211.276
G1 X131.123 Y88.185 E211.832
G1 X130.557 E211.86
G1 X138.864 Y96.492 E212.446
G1 X138.731 Y96.925 E212.469
G1 X129.991 Y88.185 E213.085
G1 X129.426 E213.114
G1 X138.621 Y97.38 E213.762
G1 X138.521 Y97.846 E213.786
G1 X128.86 Y88.185 E214.468
G1 X128.294 E214.496
G1 X138.442 Y98.333 E215.212
G1 X138.378 Y98.834 E215.237
G1 X127.729 Y88.185 E215.989
G1 X127.163 E216.017
G1 X138.34 Y99.363 E216.806
G1 X138.335 Y99.486 E216.812
G1 X138.317 Y99.905 E216.833
G1 X126.597 Y88.185 E217.66
G1 X126.031 E217.688
G1 X138.334 Y100.488 E218.556
G1 X138.356 Y100.991 E218.581
G1 X138.369 Y101.088 E218.586
G1 X125.685 Y88.404 E219.481
G1 Y88.97 E219.509
G1 X138.451 Y101.736 E220.41
G1 X138.48 Y101.96 E220.421
G1 X138.581 Y102.431 E220.445
G1 X125.685 Y89.536 E221.355
G1 Y90.101 E221.383
G1 X138.764 Y103.18 E222.306
G1 X138.982 Y103.893 E222.343
G1 X139.029 Y104.011 E222.349
G1 X125.685 Y90.667 E223.291
G1 Y91.233 E223.319
G1 X139.439 Y104.987 E224.29
G1 X139.647 Y105.4 E224.313
G1 X139.798 Y105.699 E224.329
G1 X140.138 Y106.251 E224.362
G1 X125.685 Y91.798 E225.381
G1 F1800 E224.881
; rapid-dry
G1 F15000
G0 X152.102 Y84.84
G1 F1800 E225.381
; bead-solid_infill
G1 X174.315 Y107.053 F2400 E226.949
G1 Y106.487 E226.977
G1 X152.771 Y84.943 E228.497
G1 X153.486 Y85.093 E228.533
G1 X174.315 Y105.922 E230.003
G1 Y105.356 E230.031
G1 X154.258 Y85.299 E231.446
G1 X154.673 Y85.416 E231.468
G1 X155.091 Y85.566 E231.49
G1 X174.315 Y104.79 E232.846
G1 Y104.225 E232.875
G1 X156.016 Y85.926 E234.166
G1 X156.299 Y86.05 E234.181
G1 X156.632 Y86.196 E234.199
G1 X157.094 Y86.438 E234.225
G1 X174.315 Y103.659 E235.44
G1 Y103.093 E235.468
G1 X158.424 Y87.203 E236.59
G1 X159.038 Y87.573 E236.625
G1 X159.609 Y87.822 E236.656
G1 X174.315 Y102.527 E237.694
G1 Y101.962 E237.722
G1 X160.405 Y88.052 E238.704
G1 X160.943 Y88.147 E238.731
G1 X161.074 Y88.155 E238.737
G1 X174.315 Y101.396 E239.672
G1 Y100.83 E239.7
G1 X161.67 Y88.185 E240.592
G1 X162.235 E240.62
G1 X174.315 Y100.265 E241.473
G1 Y99.699 E241.501
G1 X162.801 Y88.185 E242.313
G1 X163.367 E242.341
G1 X174.315 Y99.133 E243.114
G1 Y98.568 E243.142
G1 X163.932 Y88.185 E243.875
G1 X164.498 E243.903
G1 X174.315 Y98.002 E244.596
G1 Y97.436 E244.624
G1 X165.064 Y88.185 E245.277
G1 X165.629 E245.305
G1 X174.315 Y96.871 E245.918
G1 Y96.305 E245.946
G1 X166.195 Y88.185 E246.519
G1 X166.761 E246.547
G1 X174.315 Y95.739 E247.08
G1 Y95.174 E247.108
G1 X167.326 Y88.185 E247.601
G1 X167.892 E247.629
G1 X174.315 Y94.608 E248.083
G1 Y94.042 E248.111
G1 X168.458 Y88.185 E248.524
G1 X169.024 E248.552
G1 X174.315 Y93.476 E248.926
G1 Y92.911 E248.954
G1 X169.589 Y88.185 E249.287
G1 X169.973 E249.306
G1 X169.998 Y88.186 E249.308
G1 X170.167 Y88.197 E249.316
G1 X174.303 Y92.333 E249.608
G1 X174.282 Y91.98 E249.626
G1 X174.229 Y91.694 E249.64
G1 X170.806 Y88.271 E249.882
G1 X171.032 Y88.312 E249.893
G1 X171.53 Y88.467 E249.919
G1 X171.6 Y88.499 E249.923
G1 X174.001 Y90.9 E250.092
G1 F1800 E249.592
; layer, 7 of 37
; rapid-dry
G1 F15000
G0 X138.409 Y87.865 Z2
G1 F1800 E250.092
; bead-perimeter_inner
G1 X139.019 Y87.829 F1560 E250.123
G1 X139.574 Y87.731 E250.151
G1 X140.239 Y87.538 E250.186
G1 X140.815 Y87.288 E250.217
G1 X142.275 Y86.407 E250.302
G1 X143.23 Y85.908 E250.356
G1 X144.216 Y85.474 E250.409
G1 X145.229 Y85.111 E250.463
G1 X146.266 Y84.818 E250.517
G1 X147.32 Y84.597 E250.571
G1 X148.386 Y84.448 E250.624
G1 X149.461 Y84.375 E250.678
G1 X150.539 E250.732
G1 X151.613 Y84.448 E250.786
G1 X152.68 Y84.597 E250.839
G1 X153.734 Y84.818 E250.893
G1 X154.771 Y85.111 E250.947
G1 X155.784 Y85.474 E251.001
G1 X156.77 Y85.908 E251.054
G1 X157.725 Y86.407 E251.108
G1 X159.185 Y87.288 E251.193
G1 X159.76 Y87.538 E251.224
G1 X160.363 Y87.72 E251.256
G1 X160.981 Y87.829 E251.287
G1 X161.59 Y87.865 E251.318
G1 X169.983 E251.736
G1 X170.559 Y87.9 E251.765
G1 X171.109 Y88.001 E251.793
G1 X171.643 Y88.167 E251.821
G1 X172.154 Y88.397 E251.849
G1 X172.632 Y88.686 E251.877
G1 X173.072 Y89.031 E251.905
G1 X173.469 Y89.428 E251.933
G1 X173.814 Y89.868 E251.96
G1 X174.103 Y90.346 E251.988
G1 X174.333 Y90.857 E252.016
G1 X174.499 Y91.391 E252.044
G1 X174.6 Y91.941 E252.072
G1 X174.635 Y92.517 E252.101
G1 Y107.483 E252.848
G1 X174.6 Y108.059 E252.876
G1 X174.499 Y108.609 E252.904
G1 X174.333 Y109.143 E252.932
G1 X174.103 Y109.654 E252.96
G1 X173.814 Y110.132 E252.988
G1 X173.469 Y110.572 E253.016
G1 X173.072 Y110.969 E253.044
G1 X172.632 Y111.314 E253.072
G1 X172.154 Y111.603 E253.1
G1 X171.646 Y111.832 E253.127
G1 X171.109 Y111.999 E253.156
G1 X170.559 Y112.1 E253.183
G1 X169.983 Y112.135 E253.212
G1 X161.591 E253.631
G1 X160.98 Y112.171 E253.661
G1 X160.362 Y112.28 E253.693
G1 X159.761 Y112.462 E253.724
G1 X159.185 Y112.712 E253.755
G1 X157.725 Y113.592 E253.84
G1 X156.77 Y114.093 E253.894
G1 X155.784 Y114.526 E253.948
G1 X154.771 Y114.889 E254.002
G1 X153.734 Y115.182 E254.055
G1 X152.68 Y115.403 E254.109
G1 X151.614 Y115.552 E254.163
G1 X150.539 Y115.625 E254.217
G1 X149.461 E254.27
G1 X148.387 Y115.552 E254.324
G1 X147.32 Y115.403 E254.378
G1 X146.266 Y115.182 E254.432
G1 X145.229 Y114.889 E254.485
G1 X144.216 Y114.526 E254.539
G1 X143.23 Y114.093 E254.593
G1 X142.275 Y113.592 E254.646
G1 X140.815 Y112.712 E254.732
G1 X140.238 Y112.462 E254.763
G1 X139.637 Y112.28 E254.794
G1 X139.019 Y112.171 E254.826
G1 X138.408 Y112.135 E254.856
G1 X125.365 E255.507
G1 Y87.865 E256.718
G1 X138.409 E257.368
; rapid-leaky
G1 F15000
G0 X138.398 Y87.5
; bead-perimeter_outer
G1 X138.976 Y87.466 F1080 E257.397
G1 X139.499 Y87.374 E257.424
G1 X140.113 Y87.195 E257.456
G1 X140.65 Y86.962 E257.485
G1 X142.095 Y86.089 E257.569
G1 X143.072 Y85.578 E257.624
G1 X144.081 Y85.135 E257.679
G1 X145.118 Y84.764 E257.734
G1 X146.179 Y84.463 E257.789
G1 X147.257 Y84.237 E257.844
G1 X148.349 Y84.085 E257.899
G1 X149.449 Y84.01 E257.954
G1 X150.551 E258.009
G1 X151.65 Y84.085 E258.064
G1 X152.743 Y84.237 E258.119
G1 X153.821 Y84.463 E258.174
G1 X154.882 Y84.764 E258.229
G1 X155.919 Y85.135 E258.284
G1 X156.928 Y85.578 E258.339
G1 X157.905 Y86.089 E258.394
G1 X159.35 Y86.962 E258.478
G1 X159.886 Y87.195 E258.507
G1 X160.448 Y87.364 E258.537
G1 X161.024 Y87.466 E258.566
G1 X161.601 Y87.5 E258.595
G1 X169.994 E259.013
G1 X170.603 Y87.537 E259.044
G1 X171.196 Y87.646 E259.074
G1 X171.773 Y87.825 E259.104
G1 X172.324 Y88.073 E259.134
G1 X172.84 Y88.385 E259.164
G1 X173.315 Y88.758 E259.194
G1 X173.742 Y89.185 E259.224
G1 X174.115 Y89.66 E259.255
G1 X174.427 Y90.176 E259.285
G1 X174.675 Y90.727 E259.315
G1 X174.854 Y91.304 E259.345
G1 X174.963 Y91.897 E259.375
G1 X175 Y92.506 E259.406
G1 Y107.494 E260.153
G1 X174.963 Y108.103 E260.184
G1 X174.854 Y108.696 E260.214
G1 X174.675 Y109.273 E260.244
G1 X174.427 Y109.824 E260.274
G1 X174.115 Y110.34 E260.304
G1 X173.742 Y110.815 E260.334
G1 X173.315 Y111.242 E260.364
G1 X172.84 Y111.615 E260.395
G1 X172.324 Y111.927 E260.425
G1 X171.774 Y112.174 E260.455
G1 X171.196 Y112.354 E260.485
G1 X170.603 Y112.463 E260.515
G1 X169.994 Y112.5 E260.545
G1 X161.602 E260.964
G1 X161.023 Y112.534 E260.993
G1 X160.447 Y112.636 E261.022
G1 X159.887 Y112.805 E261.051
G1 X159.35 Y113.038 E261.081
G1 X157.905 Y113.91 E261.165
G1 X156.928 Y114.422 E261.22
G1 X155.919 Y114.865 E261.275
G1 X154.882 Y115.236 E261.33
G1 X153.821 Y115.537 E261.385
G1 X152.743 Y115.763 E261.44
G1 X151.651 Y115.915 E261.495
G1 X150.551 Y115.99 E261.55
G1 X149.449 E261.605
G1 X148.35 Y115.915 E261.66
G1 X147.257 Y115.763 E261.715
G1 X146.179 Y115.537 E261.77
G1 X145.118 Y115.236 E261.825
G1 X144.081 Y114.865 E261.88
G1 X143.072 Y114.422 E261.935
G1 X142.095 Y113.91 E261.99
G1 X140.649 Y113.038 E262.074
G1 X140.112 Y112.805 E262.103
G1 X139.553 Y112.636 E262.132
G1 X138.976 Y112.534 E262.161
G1 X138.397 Y112.5 E262.19
G1 X125 E262.859
G1 Y87.5 E264.106
G1 X138.398 E264.774
G1 F1800 E264.274
; rapid-dry
G1 F15000
G0 X138.798 Y98.079
G1 F1800 E264.774
; bead-perimeter_inner
G1 X138.674 Y99.037 F1560 E264.823
G1 X138.636 Y100.057 E264.874
G1 X138.676 Y100.964 E264.919
G1 X138.798 Y101.92 E264.967
G1 X138.988 Y102.808 E265.012
G1 X139.283 Y103.785 E265.063
G1 X139.644 Y104.682 E265.111
G1 X140.077 Y105.543 E265.16
G1 X140.583 Y106.365 E265.208
G1 X141.157 Y107.14 E265.256
G1 X141.795 Y107.864 E265.304
G1 X142.491 Y108.532 E265.352
G1 X143.241 Y109.137 E265.4
G1 X144.04 Y109.679 E265.448
G1 X144.884 Y110.149 E265.496
G1 X145.762 Y110.546 E265.545
G1 X146.672 Y110.868 E265.593
G1 X147.606 Y111.111 E265.641
G1 X148.5 Y111.265 E265.686
G1 X149.517 Y111.355 E265.737
G1 X150.482 E265.785
G1 X151.444 Y111.274 E265.833
G1 X152.394 Y111.111 E265.881
G1 X153.328 Y110.868 E265.93
G1 X154.238 Y110.546 E265.978
G1 X155.065 Y110.173 E266.023
G1 X155.959 Y109.679 E266.074
G1 X156.759 Y109.137 E266.122
G1 X157.509 Y108.532 E266.17
G1 X158.205 Y107.864 E266.218
G1 X158.843 Y107.14 E266.267
G1 X159.417 Y106.365 E266.315
G1 X159.923 Y105.543 E266.363
G1 X160.356 Y104.682 E266.411
G1 X160.716 Y103.787 E266.459
G1 X160.999 Y102.864 E266.507
G1 X161.202 Y101.92 E266.555
G1 X161.324 Y100.964 E266.603
G1 X161.366 Y100 E266.652
G1 X161.324 Y99.036 E266.7
G1 X161.202 Y98.08 E266.748
G1 X160.999 Y97.136 E266.796
G1 X160.716 Y96.213 E266.844
G1 X160.356 Y95.318 E266.892
G1 X159.948 Y94.508 E266.938
G1 X159.417 Y93.636 E266.988
G1 X158.843 Y92.86 E267.037
G1 X158.205 Y92.136 E267.085
G1 X157.509 Y91.468 E267.133
G1 X156.759 Y90.863 E267.181
G1 X155.96 Y90.322 E267.229
G1 X155.116 Y89.851 E267.277
G1 X154.238 Y89.454 E267.325
G1 X153.328 Y89.132 E267.374
G1 X152.394 Y88.889 E267.422
G1 X151.5 Y88.735 E267.467
G1 X150.483 Y88.645 E267.518
G1 X149.518 E267.566
G1 X148.556 Y88.726 E267.614
G1 X147.606 Y88.889 E267.662
G1 X146.672 Y89.132 E267.71
G1 X145.762 Y89.454 E267.759
G1 X144.884 Y89.851 E267.807
G1 X144.04 Y90.322 E267.855
G1 X143.242 Y90.862 E267.903
G1 X142.535 Y91.433 E267.948
G1 X141.796 Y92.135 E267.999
G1 X141.157 Y92.86 E268.047
G1 X140.583 Y93.635 E268.095
G1 X140.077 Y94.457 E268.144
G1 X139.644 Y95.318 E268.192
G1 X139.284 Y96.213 E268.24
G1 X139.001 Y97.136 E268.288
G1 X138.798 Y98.079 E268.336
; rapid-leaky
G1 F15000
G0 X139.158 Y98.141
; bead-perimeter_outer
G1 X139.038 Y99.067 F1080 E268.383
G1 X139.001 Y100.056 E268.432
G1 X139.04 Y100.933 E268.476
G1 X139.158 Y101.859 E268.522
G1 X139.342 Y102.717 E268.566
G1 X139.628 Y103.664 E268.616
G1 X139.977 Y104.531 E268.662
G1 X140.396 Y105.365 E268.709
G1 X140.886 Y106.16 E268.755
G1 X141.441 Y106.911 E268.802
G1 X142.059 Y107.612 E268.849
G1 X142.733 Y108.257 E268.895
G1 X143.459 Y108.844 E268.942
G1 X144.232 Y109.367 E268.988
G1 X145.048 Y109.823 E269.035
G1 X145.898 Y110.207 E269.081
G1 X146.779 Y110.518 E269.128
G1 X147.683 Y110.754 E269.175
G1 X148.547 Y110.902 E269.218
G1 X149.533 Y110.99 E269.268
G1 X150.466 E269.314
G1 X151.397 Y110.912 E269.361
G1 X152.317 Y110.754 E269.408
G1 X153.221 Y110.518 E269.454
G1 X154.102 Y110.207 E269.501
G1 X154.902 Y109.846 E269.545
G1 X155.768 Y109.368 E269.594
G1 X156.541 Y108.844 E269.64
G1 X157.267 Y108.257 E269.687
G1 X157.941 Y107.612 E269.734
G1 X158.559 Y106.911 E269.78
G1 X159.114 Y106.16 E269.827
G1 X159.604 Y105.365 E269.873
G1 X160.023 Y104.531 E269.92
G1 X160.372 Y103.665 E269.967
G1 X160.646 Y102.771 E270.013
G1 X160.842 Y101.859 E270.06
G1 X160.96 Y100.933 E270.106
G1 X161 Y100 E270.153
G1 X160.96 Y99.067 E270.199
G1 X160.842 Y98.141 E270.246
G1 X160.646 Y97.229 E270.293
G1 X160.372 Y96.335 E270.339
G1 X160.023 Y95.469 E270.386
G1 X159.629 Y94.685 E270.43
G1 X159.114 Y93.84 E270.479
G1 X158.559 Y93.089 E270.526
G1 X157.941 Y92.388 E270.572
G1 X157.267 Y91.743 E270.619
G1 X156.541 Y91.156 E270.665
G1 X155.768 Y90.633 E270.712
G1 X154.952 Y90.177 E270.759
G1 X154.102 Y89.793 E270.805
G1 X153.221 Y89.482 E270.852
G1 X152.317 Y89.246 E270.898
G1 X151.453 Y89.098 E270.942
G1 X150.467 Y89.01 E270.991
G1 X149.534 E271.038
G1 X148.603 Y89.088 E271.085
G1 X147.683 Y89.246 E271.131
G1 X146.779 Y89.482 E271.178
G1 X145.898 Y89.793 E271.224
G1 X145.048 Y90.177 E271.271
G1 X144.232 Y90.633 E271.318
G1 X143.459 Y91.156 E271.364
G1 X142.776 Y91.707 E271.408
G1 X142.059 Y92.388 E271.457
G1 X141.441 Y93.089 E271.504
G1 X140.886 Y93.84 E271.55
G1 X140.396 Y94.635 E271.597
G1 X139.977 Y95.469 E271.644
G1 X139.628 Y96.335 E271.69
G1 X139.354 Y97.229 E271.737
G1 X139.158 Y98.141 E271.783
G1 F1800 E271.283
; rapid-dry
G1 F15000
G0 X125.685 Y88.403
G1 F1800 E271.783
; bead-solid_infill
G1 X125.903 Y88.185 F2400 E271.799
G1 X126.468 E271.827
G1 X125.685 Y88.968 E271.882
G1 Y89.534 E271.91
G1 X127.034 Y88.185 E272.006
G1 X127.6 E272.034
G1 X125.685 Y90.1 E272.169
G1 Y90.665 E272.197
G1 X128.165 Y88.185 E272.372
G1 X128.731 E272.4
G1 X125.685 Y91.231 E272.615
G1 Y91.797 E272.643
G1 X129.297 Y88.185 E272.898
G1 X129.862 E272.927
G1 X125.685 Y92.362 E273.221
G1 Y92.928 E273.25
G1 X130.428 Y88.185 E273.584
G1 X130.994 E273.612
G1 X125.685 Y93.494 E273.987
G1 Y94.06 E274.015
G1 X131.56 Y88.185 E274.43
G1 X132.125 E274.458
G1 X125.685 Y94.625 E274.912
G1 Y95.191 E274.94
G1 X132.691 Y88.185 E275.435
G1 X133.257 E275.463
G1 X125.685 Y95.757 E275.997
G1 Y96.322 E276.025
G1 X133.822 Y88.185 E276.6
G1 X134.388 E276.628
G1 X125.685 Y96.888 E277.242
G1 Y97.454 E277.27
G1 X134.954 Y88.185 E277.924
G1 X135.519 E277.952
G1 X125.685 Y98.019 E278.646
G1 Y98.585 E278.674
G1 X136.085 Y88.185 E279.408
G1 X136.651 E279.436
G1 X125.685 Y99.151 E280.21
G1 Y99.716 E280.238
G1 X137.216 Y88.185 E281.052
G1 X137.782 E281.08
G1 X125.685 Y100.282 E281.934
G1 Y100.848 E281.962
G1 X138.348 Y88.185 E282.855
G1 X138.418 E282.859
G1 X138.734 Y88.166 E282.875
G1 X138.944 Y88.154 E282.885
G1 X125.685 Y101.413 E283.821
G1 Y101.979 E283.849
G1 X139.615 Y88.049 E284.832
G1 X139.646 Y88.043 E284.833
G1 X140.348 Y87.84 E284.87
G1 X140.422 Y87.808 E284.874
G1 X125.685 Y102.545 E285.913
G1 Y103.11 E285.942
G1 X141.619 Y87.176 E287.066
G1 X142.432 Y86.686 E287.113
G1 X142.942 Y86.419 E287.142
G1 X125.685 Y103.676 E288.36
G1 Y104.242 E288.388
G1 X144.014 Y85.912 E289.681
G1 X144.335 Y85.772 E289.698
G1 X144.936 Y85.556 E289.73
G1 X125.685 Y104.808 E291.089
G1 Y105.373 E291.117
G1 X145.766 Y85.292 E292.534
G1 X146.343 Y85.129 E292.564
G1 X146.535 Y85.088 E292.573
G1 X125.685 Y105.939 E294.045
G1 Y106.505 E294.073
G1 X147.251 Y84.938 E295.594
G1 X147.375 Y84.912 E295.601
G1 X147.919 Y84.837 E295.628
G1 X125.685 Y107.07 E297.197
G1 Y107.636 E297.225
G1 X148.564 Y84.757 E298.839
G1 X149.171 Y84.716 E298.87
G1 X143.765 Y90.121 E299.251
G1 X143.872 Y90.049 E299.257
G1 X144.74 Y89.565 E299.307
G1 X145.009 Y89.443 E299.322
G1 X149.757 Y84.695 E299.657
G1 X150.323 E299.685
G1 X145.98 Y89.038 E299.991
G1 X146.578 Y88.826 E300.023
G1 X146.821 Y88.763 E300.036
G1 X150.866 Y84.718 E300.321
G1 X151.395 Y84.754 E300.347
G1 X147.581 Y88.569 E300.617
G1 X148.263 Y88.452 E300.651
G1 X151.903 Y84.812 E300.908
G1 X152.4 Y84.881 E300.933
G1 X148.905 Y88.376 E301.179
G1 X149.505 Y88.325 E301.21
G1 X149.521
G1 X152.88 Y84.966 E301.447
G1 X153.348 Y85.064 E301.471
G1 X150.087 Y88.325 E301.701
G1 X150.497 E301.722
G1 X150.64 Y88.338 E301.729
G1 X153.807 Y85.171 E301.952
G1 X154.248 Y85.296 E301.975
G1 X151.16 Y88.384 E302.193
G1 X151.541 Y88.418 E302.212
G1 X151.669 Y88.44 E302.219
G1 X154.688 Y85.422 E302.432
G1 X155.104 Y85.571 E302.454
G1 X152.152 Y88.523 E302.662
G1 X152.462 Y88.576 E302.678
G1 X152.623 Y88.618 E302.686
G1 X155.521 Y85.72 E302.89
G1 X155.665 Y85.772 E302.898
G1 X155.922 Y85.884 E302.912
G1 X153.071 Y88.735 E303.113
G1 X153.422 Y88.826 E303.131
G1 X153.513 Y88.859 E303.136
G1 X156.315 Y86.057 E303.334
G1 X156.632 Y86.196 E303.351
G1 X156.704 Y86.234 E303.355
G1 X153.931 Y89.006 E303.551
G1 X154.349 Y89.154 E303.573
G1 X157.075 Y86.428 E303.765
G1 X157.447 Y86.622 E303.786
G1 X154.739 Y89.33 E303.977
G1 X155.129 Y89.506 E303.998
G1 X157.806 Y86.829 E304.187
G1 X157.918 Y86.897 E304.194
G1 X158.158 Y87.042 E304.208
G1 X155.501 Y89.699 E304.395
G1 X155.864 Y89.902 E304.416
G1 X158.511 Y87.255 E304.603
G1 X158.864 Y87.468 E304.623
G1 X156.22 Y90.112 E304.81
G1 X156.558 Y90.34 E304.83
G1 X159.238 Y87.66 E305.019
G1 X159.632 Y87.831 E305.041
G1 X156.895 Y90.568 E305.234
G1 X156.949 Y90.605 E305.237
G1 X157.212 Y90.817 E305.254
G1 X160.065 Y87.964 E305.455
G1 X160.289 Y88.031 E305.467
G1 X160.522 Y88.073 E305.479
G1 X157.525 Y91.07 E305.69
G1 X157.72 Y91.228 E305.703
G1 X157.828 Y91.332 E305.71
G1 X161.009 Y88.151 E305.935
G1 X161.543 Y88.183 E305.961
G1 X158.117 Y91.608 E306.203
G1 X158.406 Y91.885 E306.223
G1 X162.107 Y88.185 E306.484
G1 X162.672 E306.512
G1 X158.674 Y92.183 E306.794
G1 X158.939 Y92.484 E306.814
G1 X163.238 Y88.185 E307.118
G1 X163.804 E307.146
G1 X159.193 Y92.795 E307.471
G1 X159.434 Y93.12 E307.491
G1 X164.369 Y88.185 E307.84
G1 X164.935 E307.868
G1 X159.674 Y93.446 E308.239
G1 X159.683 Y93.458 E308.24
G1 X159.889 Y93.796 E308.259
G1 X165.501 Y88.185 E308.655
G1 X166.066 E308.684
G1 X160.104 Y94.148 E309.104
G1 X160.228 Y94.352 E309.116
G1 X160.308 Y94.509 E309.125
G1 X166.632 Y88.185 E309.571
G1 X167.198 E309.599
G1 X160.497 Y94.886 E310.072
G1 X160.648 Y95.186 E310.089
G1 X160.681 Y95.268 E310.093
G1 X167.763 Y88.185 E310.593
G1 X168.329 E310.621
G1 X160.843 Y95.671 E311.15
G1 X161.005 Y96.075 E311.171
G1 X168.895 Y88.185 E311.728
G1 X169.46 E311.756
G1 X161.14 Y96.505 E312.343
G1 X161.273 Y96.938 E312.366
G1 X170.023 Y88.188 E312.983
G1 X170.52 Y88.218 E313.008
G1 X170.553 Y88.224 E313.01
G1 X161.382 Y97.395 E313.657
G1 X161.482 Y97.86 E313.68
G1 X171.031 Y88.312 E314.354
G1 X171.032
G1 X171.462 Y88.446 E314.377
G1 X161.559 Y98.349 E315.075
G1 X161.623 Y98.851 E315.1
G1 X171.859 Y88.615 E315.823
G1 X172.005 Y88.681 E315.831
G1 X172.226 Y88.814 E315.844
G1 X161.659 Y99.38 E316.589
G1 X161.683 Y99.923 E316.616
G1 X172.565 Y89.04 E317.384
G1 X172.86 Y89.271 E317.403
G1 X172.88 Y89.291 E317.404
G1 X161.664 Y100.507 E318.195
G1 X161.644 Y100.991 E318.22
G1 X161.629 Y101.108 E318.225
G1 X173.163 Y89.574 E319.039
G1 X173.229 Y89.64 E319.044
G1 X173.419 Y89.883 E319.059
G1 X161.546 Y101.756 E319.897
G1 X161.518 Y101.974 E319.908
G1 X161.415 Y102.453 E319.932
G1 X173.651 Y90.217 E320.796
G1 X173.819 Y90.495 E320.812
G1 X173.856 Y90.578 E320.816
G1 X161.229 Y103.204 E321.707
G1 X161.018 Y103.893 E321.743
G1 X160.959 Y104.04 E321.751
G1 X174.032 Y90.968 E322.673
G1 X174.033 Y90.971 E322.674
G1 X174.115 Y91.235 E322.687
G1 X174.166 Y91.399 E322.696
G1 X160.544 Y105.021 E323.657
G1 X160.202 Y105.699 E323.695
G1 X159.835 Y106.296 E323.73
G1 X174.262 Y91.869 E324.748
G1 X174.282 Y91.98 E324.754
G1 X174.307 Y92.39 E324.774
G1 X151.455 Y115.242 E326.386
G1 X150.848 Y115.283 E326.417
G1 X156.288 Y109.842 E326.801
G1 X156.126 Y109.952 E326.81
G1 X155.74 Y110.165 E326.832
G1 X155.208 Y110.459 E326.863
G1 X155.022 Y110.543 E326.873
G1 X150.26 Y115.305 E327.209
G1 X149.694 E327.237
G1 X154.046 Y110.953 E327.544
G1 X153.422 Y111.174 E327.577
G1 X153.203 Y111.231 E327.589
G1 X149.151 Y115.283 E327.874
G1 X148.621 Y115.247 E327.901
G1 X152.44 Y111.428 E328.17
G1 X151.758 Y111.545 E328.205
G1 X148.112 Y115.19 E328.462
G1 X147.615 Y115.121 E328.487
G1 X151.114 Y111.623 E328.734
G1 X150.496 Y111.675 E328.765
G1 X147.134 Y115.037 E329.002
G1 X146.666 Y114.939 E329.026
G1 X149.93 Y111.675 E329.256
G1 X149.503 E329.278
G1 X149.376 Y111.664 E329.284
G1 X146.207 Y114.833 E329.508
G1 X145.766 Y114.708 E329.53
G1 X148.856 Y111.618 E329.748
G1 X148.459 Y111.582 E329.768
G1 X148.345 Y111.563 E329.774
G1 X145.325 Y114.583 E329.987
G1 X144.909 Y114.434 E330.009
G1 X147.863 Y111.48 E330.218
G1 X147.538 Y111.424 E330.234
G1 X147.391 Y111.386 E330.242
G1 X144.492 Y114.285 E330.446
G1 X144.335 Y114.228 E330.455
G1 X144.09 Y114.121 E330.468
G1 X146.942 Y111.269 E330.669
G1 X146.578 Y111.174 E330.688
G1 X146.499 Y111.146 E330.692
G1 X143.697 Y113.948 E330.89
G1 X143.369 Y113.804 E330.908
G1 X143.308 Y113.772 E330.911
G1 X146.082 Y110.998 E331.107
G1 X145.664 Y110.85 E331.129
G1 X142.936 Y113.578 E331.321
