; G-Code generated by Simplify3D(R) Version 4.1.2
; Jan 8, 2020 at 5:16:20 PM
; Settings Summary
;   processName,T0
;   applyToModels,Box
;   profileName,Default (modified)
;   profileVersion,2019-07-26 10:50:59
;   baseProfile,Generic Dual Extrusion Profile (modified)
;   printMaterial,PLA
;   printQuality,Medium
;   printExtruders,Both Extruders
;   extruderName,T0,Skrillex Jr,T2
;   extruderToolheadNumber,0,3,2
;   extruderDiameter,0.6,3.16,0.6
;   extruderAutoWidth,0,0,0
;   extruderWidth,0.9,2.66,0.9
;   extrusionMultiplier,1,1,1
;   extruderUseRetract,1,1,1
;   extruderRetractionDistance,5.5,1,5.5
;   extruderExtraRestartDistance,0.1,0,0.1
;   extruderRetractionZLift,0.5,5,1
;   extruderRetractionSpeed,6000,60,6000
;   extruderUseCoasting,1,0,1
;   extruderCoastingDistance,0.3,0.2,0.3
;   extruderUseWipe,1,0,1
;   extruderWipeDistance,4,5,4
;   primaryExtruder,0
;   layerHeight,0.4
;   topSolidLayers,5
;   bottomSolidLayers,0
;   perimeterOutlines,3
;   printPerimetersInsideOut,1
;   startPointOption,3
;   startPointOriginX,170
;   startPointOriginY,120
;   sequentialIslands,1
;   spiralVaseMode,0
;   firstLayerHeightPercentage,100
;   firstLayerWidthPercentage,100
;   firstLayerUnderspeed,0.5
;   useRaft,1
;   raftExtruder,0
;   raftTopLayers,2
;   raftBaseLayers,1
;   raftOffset,0
;   raftSeparationDistance,0
;   raftTopInfill,100
;   aboveRaftSpeedMultiplier,1
;   useSkirt,1
;   skirtExtruder,0
;   skirtLayers,1
;   skirtOutlines,1
;   skirtOffset,3
;   usePrimePillar,0
;   primePillarExtruder,999
;   primePillarWidth,10
;   primePillarLocation,6
;   primePillarSpeedMultiplier,1
;   useOozeShield,0
;   oozeShieldExtruder,1
;   oozeShieldOffset,0
;   oozeShieldOutlines,1
;   oozeShieldSidewallShape,2
;   oozeShieldSidewallAngle,45
;   oozeShieldSpeedMultiplier,0.15
;   infillExtruder,0
;   internalInfillPattern,Grid
;   externalInfillPattern,Rectilinear
;   infillPercentage,15
;   outlineOverlapPercentage,0
;   infillExtrusionWidthPercentage,100
;   minInfillLength,5
;   infillLayerInterval,1
;   internalInfillAngles,45,-45
;   overlapInternalInfillAngles,1
;   externalInfillAngles,45,-45
;   generateSupport,0
;   supportExtruder,0
;   supportInfillPercentage,20
;   supportExtraInflation,0.5
;   supportBaseLayers,1
;   denseSupportExtruder,0
;   denseSupportLayers,0
;   denseSupportInfillPercentage,90
;   supportLayerInterval,1
;   supportHorizontalPartOffset,0.75
;   supportUpperSeparationLayers,1
;   supportLowerSeparationLayers,1
;   supportType,0
;   supportGridSpacing,100
;   maxOverhangAngle,89
;   supportAngles,45
;   temperatureName
;   temperatureNumber
;   temperatureSetpointCount
;   temperatureSetpointLayers
;   temperatureSetpointTemperatures
;   temperatureStabilizeAtStartup
;   temperatureHeatedBed
;   fanLayers,1
;   fanSpeeds,0
;   blipFanToFullPower,0
;   adjustSpeedForCooling,1
;   minSpeedLayerTime,5
;   minCoolingSpeedSlowdown,10
;   increaseFanForCooling,0
;   minFanLayerTime,5
;   maxCoolingFanSpeed,75
;   increaseFanForBridging,0
;   bridgingFanSpeed,75
;   use5D,1
;   relativeEdistances,1
;   allowEaxisZeroing,1
;   independentExtruderAxes,0
;   includeM10123,0
;   stickySupport,1
;   applyToolheadOffsets,0
;   gcodeXoffset,0
;   gcodeYoffset,0
;   gcodeZoffset,0
;   overrideMachineDefinition,1
;   machineTypeOverride,0
;   strokeXoverride,300
;   strokeYoverride,200
;   strokeZoverride,300
;   originOffsetXoverride,0
;   originOffsetYoverride,0
;   originOffsetZoverride,0
;   homeXdirOverride,-1
;   homeYdirOverride,-1
;   homeZdirOverride,-1
;   flipXoverride,1
;   flipYoverride,-1
;   flipZoverride,1
;   toolheadOffsets,0,0|0,0|0,0|0,0|0,0|0,0
;   overrideFirmwareConfiguration,0
;   firmwareTypeOverride,RepRap (Marlin/Repetier/Sprinter)
;   GPXconfigOverride,r2
;   baudRateOverride,115200
;   overridePrinterModels,1
;   printerModelsOverride
;   startingGcode,G29 S1
;   layerChangeGcode,;Clean the nozzle must use a hardened nozzle!,;M98 Pbrush.g
;   retractionGcode,
;   toolChangeGcode,
;   endingGcode,;Drop Bed,G91,G1 Z2 F1000,G90,,; Drop off the tool,T-1,,; Disable Mesh Compensation.,G29 S2,,; Park,G1 X-30 Y200 F50000,,M0	;turn off all heaters
;   exportFileFormat,gcode
;   celebration,0
;   celebrationSong,Star Wars
;   postProcessing,
;   defaultSpeed,2400
;   outlineUnderspeed,1
;   solidInfillUnderspeed,1
;   supportUnderspeed,1
;   rapidXYspeed,21000
;   rapidZspeed,1500
;   minBridgingArea,50
;   bridgingExtraInflation,1
;   bridgingExtrusionMultiplier,1
;   bridgingSpeedMultiplier,1
;   useFixedBridgingAngle,0
;   fixedBridgingAngle,0
;   applyBridgingToPerimeters,1
;   filamentDiameters,1.75|1.75|1.75|1.75|1.75|1.75
;   filamentPricesPerKg,46|46|46|46|46|46
;   filamentDensities,1.25|1.25|1.25|1.25|1.25|1.25
;   useMinPrintHeight,0
;   minPrintHeight,12
;   useMaxPrintHeight,0
;   maxPrintHeight,1
;   useDiaphragm,0
;   diaphragmLayerInterval,20
;   robustSlicing,1
;   mergeAllIntoSolid,0
;   onlyRetractWhenCrossingOutline,0
;   retractBetweenLayers,0
;   useRetractionMinTravel,1
;   retractionMinTravel,3
;   retractWhileWiping,1
;   onlyWipeOutlines,1
;   avoidCrossingOutline,0
;   maxMovementDetourFactor,3
;   toolChangeRetractionDistance,5
;   toolChangeExtraRestartDistance,0
;   toolChangeRetractionSpeed,3000
;   externalThinWallType,0
;   internalThinWallType,0
;   thinWallAllowedOverlapPercentage,5
;   singleExtrusionMinLength,0.5
;   singleExtrusionMinPrintingWidthPercentage,50
;   singleExtrusionMaxPrintingWidthPercentage,150
;   singleExtrusionEndpointExtension,0.2
;   horizontalSizeCompensation,0.3
G90
M83
M106 S0
G29 S1
; process T0
; layer 1, Z = 0.750
T0
G1 E-5.5000 F6000
;Clean the nozzle must use a hardened nozzle!
;M98 Pbrush.g
; feature skirt
; tool H0.750 W0.900
G1 Z0.750 F1500
G1 X163.750 Y111.729 F21000
G1 E5.6000 F6000
G1 X161.729 Y113.750 E0.8021 F1200
G1 X138.271 Y113.750 E6.5831
G1 X136.250 Y111.729 E0.8021
G1 X136.250 Y88.271 E6.5831
G1 X138.271 Y86.250 E0.8021
G1 X161.729 Y86.250 E6.5831
G1 X163.750 Y88.271 E0.8021
G1 X163.750 Y111.729 E6.5831
G1 E-5.5000 F6000
; feature raft
; tool H0.750 W1.200
G1 Z1.250 F1500
G1 X159.700 Y109.700 F21000
G1 Z0.750 F1500
G1 E5.6000 F6000
G1 X140.300 Y109.700 E7.2590 F300
G1 X140.300 Y90.300 E7.2590
G1 X159.700 Y90.300 E7.2590
G1 X159.700 Y109.400 E7.1468
G1 X159.700 Y109.700 F300
G1 E-5.5000 F6000
G1 Z1.250 F1500
G1 X158.500 Y106.857 F21000
G1 Z0.750 F1500
G1 E5.6000 F6000
G1 X141.500 Y106.857 E6.3610 F300
G1 X141.500 Y103.429 E1.2829
G1 X158.500 Y103.429 E6.3610
G1 X158.500 Y100.000 E1.2829
G1 X141.500 Y100.000 E6.3610
G1 X141.500 Y96.571 E1.2829
G1 X158.500 Y96.571 E6.3610
G1 X158.500 Y93.143 E1.2829
G1 X141.800 Y93.143 E6.2487
G1 X141.500 Y93.143 F300
G1 E-5.5000 F6000
; layer 2, Z = 1.083
;Clean the nozzle must use a hardened nozzle!
;M98 Pbrush.g
; tool H0.333 W0.600
G1 Z1.250 F1500
G1 X160.000 Y109.516 F21000
G1 Z1.083 F1500
G1 E5.6000 F6000
G1 X159.516 Y110.000 E0.0569 F1800
G1 X158.668 Y110.000 E0.0706
G1 X160.000 Y108.668 E0.1567
G1 X160.000 Y107.819 E0.0706
G1 X157.819 Y110.000 E0.2565
G1 X156.971 Y110.000 E0.0706
G1 X160.000 Y106.971 E0.3562
G1 X160.000 Y106.122 E0.0706
G1 X156.122 Y110.000 E0.4560
G1 X155.274 Y110.000 E0.0706
G1 X160.000 Y105.274 E0.5558
G1 X160.000 Y104.425 E0.0706
G1 X154.425 Y110.000 E0.6556
G1 X153.576 Y110.000 E0.0706
G1 X160.000 Y103.576 E0.7554
G1 X160.000 Y102.728 E0.0706
G1 X152.728 Y110.000 E0.8551
G1 X151.879 Y110.000 E0.0706
G1 X160.000 Y101.879 E0.9549
G1 X160.000 Y101.031 E0.0706
G1 X151.031 Y110.000 E1.0547
G1 X150.182 Y110.000 E0.0706
G1 X160.000 Y100.182 E1.1545
G1 X160.000 Y99.334 E0.0706
G1 X149.334 Y110.000 E1.2543
G1 X148.485 Y110.000 E0.0706
G1 X160.000 Y98.485 E1.3540
G1 X160.000 Y97.637 E0.0706
G1 X147.637 Y110.000 E1.4538
G1 X146.788 Y110.000 E0.0706
G1 X160.000 Y96.788 E1.5536
G1 X160.000 Y95.940 E0.0706
G1 X145.940 Y110.000 E1.6534
G1 X145.091 Y110.000 E0.0706
G1 X160.000 Y95.091 E1.7532
G1 X160.000 Y94.243 E0.0706
G1 X144.243 Y110.000 E1.8529
G1 X143.394 Y110.000 E0.0706
G1 X160.000 Y93.394 E1.9527
G1 X160.000 Y92.546 E0.0706
G1 X142.546 Y110.000 E2.0525
G1 X141.697 Y110.000 E0.0706
G1 X160.000 Y91.697 E2.1523
G1 X160.000 Y90.849 E0.0706
G1 X140.849 Y110.000 E2.2521
G1 X140.000 Y110.000 E0.0706
G1 X160.000 Y90.000 E2.3518
G1 X159.152 Y90.000 E0.0706
G1 X140.000 Y109.152 E2.2521
G1 X140.000 Y108.303 E0.0706
G1 X158.303 Y90.000 E2.1523
G1 X157.454 Y90.000 E0.0706
G1 X140.000 Y107.454 E2.0525
G1 X140.000 Y106.606 E0.0706
G1 X156.606 Y90.000 E1.9527
G1 X155.757 Y90.000 E0.0706
G1 X140.000 Y105.757 E1.8529
G1 X140.000 Y104.909 E0.0706
G1 X154.909 Y90.000 E1.7532
G1 X154.060 Y90.000 E0.0706
G1 X140.000 Y104.060 E1.6534
G1 X140.000 Y103.212 E0.0706
G1 X153.212 Y90.000 E1.5536
G1 X152.363 Y90.000 E0.0706
G1 X140.000 Y102.363 E1.4538
G1 X140.000 Y101.515 E0.0706
G1 X151.515 Y90.000 E1.3540
G1 X150.666 Y90.000 E0.0706
G1 X140.000 Y100.666 E1.2543
G1 X140.000 Y99.818 E0.0706
G1 X149.818 Y90.000 E1.1545
G1 X148.969 Y90.000 E0.0706
G1 X140.000 Y98.969 E1.0547
G1 X140.000 Y98.121 E0.0706
G1 X148.121 Y90.000 E0.9549
G1 X147.272 Y90.000 E0.0706
G1 X140.000 Y97.272 E0.8551
G1 X140.000 Y96.424 E0.0706
G1 X146.424 Y90.000 E0.7554
G1 X145.575 Y90.000 E0.0706
G1 X140.000 Y95.575 E0.6556
G1 X140.000 Y94.727 E0.0706
G1 X144.727 Y90.000 E0.5558
G1 X143.878 Y90.000 E0.0706
G1 X140.000 Y93.878 E0.4560
G1 X140.000 Y93.029 E0.0706
G1 X143.029 Y90.000 E0.3562
G1 X142.181 Y90.000 E0.0706
G1 X140.000 Y92.181 E0.2565
G1 X140.000 Y91.332 E0.0706
G1 X141.332 Y90.000 E0.1567
G1 X140.484 Y90.000 E0.0706
G1 X140.212 Y90.272 E0.0320
G1 X140.000 Y90.484 F1800
G1 E-5.5000 F6000
; layer 3, Z = 1.417
;Clean the nozzle must use a hardened nozzle!
;M98 Pbrush.g
G1 Z1.583 F1500
G1 X140.484 Y110.000 F21000
G1 Z1.417 F1500
G1 E5.6000 F6000
G1 X140.000 Y109.516 E0.0569 F1800
G1 X140.000 Y108.668 E0.0706
G1 X141.332 Y110.000 E0.1567
G1 X142.181 Y110.000 E0.0706
G1 X140.000 Y107.819 E0.2565
G1 X140.000 Y106.971 E0.0706
G1 X143.029 Y110.000 E0.3562
G1 X143.878 Y110.000 E0.0706
G1 X140.000 Y106.122 E0.4560
G1 X140.000 Y105.273 E0.0706
G1 X144.727 Y110.000 E0.5558
G1 X145.575 Y110.000 E0.0706
G1 X140.000 Y104.425 E0.6556
G1 X140.000 Y103.576 E0.0706
G1 X146.424 Y110.000 E0.7554
G1 X147.272 Y110.000 E0.0706
G1 X140.000 Y102.728 E0.8551
G1 X140.000 Y101.879 E0.0706
G1 X148.121 Y110.000 E0.9549
G1 X148.969 Y110.000 E0.0706
G1 X140.000 Y101.031 E1.0547
G1 X140.000 Y100.182 E0.0706
G1 X149.818 Y110.000 E1.1545
G1 X150.666 Y110.000 E0.0706
G1 X140.000 Y99.334 E1.2543
G1 X140.000 Y98.485 E0.0706
G1 X151.515 Y110.000 E1.3540
G1 X152.363 Y110.000 E0.0706
G1 X140.000 Y97.637 E1.4538
G1 X140.000 Y96.788 E0.0706
G1 X153.212 Y110.000 E1.5536
G1 X154.060 Y110.000 E0.0706
G1 X140.000 Y95.940 E1.6534
G1 X140.000 Y95.091 E0.0706
G1 X154.909 Y110.000 E1.7532
G1 X155.757 Y110.000 E0.0706
G1 X140.000 Y94.243 E1.8529
G1 X140.000 Y93.394 E0.0706
G1 X156.606 Y110.000 E1.9527
G1 X157.454 Y110.000 E0.0706
G1 X140.000 Y92.546 E2.0525
G1 X140.000 Y91.697 E0.0706
G1 X158.303 Y110.000 E2.1523
G1 X159.151 Y110.000 E0.0706
G1 X140.000 Y90.849 E2.2521
G1 X140.000 Y90.000 E0.0706
G1 X160.000 Y110.000 E2.3518
G1 X160.000 Y109.151 E0.0706
G1 X140.849 Y90.000 E2.2521
G1 X141.697 Y90.000 E0.0706
G1 X160.000 Y108.303 E2.1523
G1 X160.000 Y107.454 E0.0706
G1 X142.546 Y90.000 E2.0525
G1 X143.394 Y90.000 E0.0706
G1 X160.000 Y106.606 E1.9527
G1 X160.000 Y105.757 E0.0706
G1 X144.243 Y90.000 E1.8529
G1 X145.091 Y90.000 E0.0706
G1 X160.000 Y104.909 E1.7532
G1 X160.000 Y104.060 E0.0706
G1 X145.940 Y90.000 E1.6534
G1 X146.788 Y90.000 E0.0706
G1 X160.000 Y103.212 E1.5536
G1 X160.000 Y102.363 E0.0706
G1 X147.637 Y90.000 E1.4538
G1 X148.485 Y90.000 E0.0706
G1 X160.000 Y101.515 E1.3540
G1 X160.000 Y100.666 E0.0706
G1 X149.334 Y90.000 E1.2543
G1 X150.182 Y90.000 E0.0706
G1 X160.000 Y99.818 E1.1545
G1 X160.000 Y98.969 E0.0706
G1 X151.031 Y90.000 E1.0547
G1 X151.879 Y90.000 E0.0706
G1 X160.000 Y98.121 E0.9549
G1 X160.000 Y97.272 E0.0706
G1 X152.728 Y90.000 E0.8551
G1 X153.576 Y90.000 E0.0706
G1 X160.000 Y96.424 E0.7554
G1 X160.000 Y95.575 E0.0706
G1 X154.425 Y90.000 E0.6556
G1 X155.274 Y90.000 E0.0706
G1 X160.000 Y94.726 E0.5558
G1 X160.000 Y93.878 E0.0706
G1 X156.122 Y90.000 E0.4560
G1 X156.971 Y90.000 E0.0706
G1 X160.000 Y93.029 E0.3562
G1 X160.000 Y92.181 E0.0706
G1 X157.819 Y90.000 E0.2565
G1 X158.668 Y90.000 E0.0706
G1 X160.000 Y91.332 E0.1567
G1 X160.000 Y90.484 E0.0706
G1 X159.728 Y90.212 E0.0320
G1 X159.516 Y90.000 F1800
G1 E-5.5000 F6000
; layer 4, Z = 1.817
;Clean the nozzle must use a hardened nozzle!
;M98 Pbrush.g
; feature inner perimeter
; tool H0.400 W0.900
G1 Z1.917 F1500
G1 X158.050 Y108.050 F21000
G1 Z1.817 F1500
G1 E5.6000 F6000
G1 X141.950 Y108.050 E2.4097 F2400
G1 X141.950 Y91.950 E2.4097
G1 X158.050 Y91.950 E2.4097
G1 X158.050 Y107.750 E2.3648
G1 X158.050 Y108.050 F2400
G1 X158.950 Y108.950 F21000
G1 X141.050 Y108.950 E2.6791 F2400
G1 X141.050 Y91.050 E2.6791
G1 X158.950 Y91.050 E2.6791
G1 X158.950 Y108.650 E2.6342
G1 X158.950 Y108.950 F2400
; feature outer perimeter
G1 X159.850 Y109.850 F21000
G1 X140.150 Y109.850 E2.9485 F2400
G1 X140.150 Y90.150 E2.9485
G1 X159.850 Y90.150 E2.9485
G1 X159.850 Y109.550 E2.9036
G1 X159.850 Y109.850 F2400
G1 X155.850 Y109.850 F2400
; feature infill
G1 X157.150 Y107.150 F21000
G1 X143.062 Y93.062 E2.9819 F2400
G1 X142.850 Y92.850 F2400
G1 E-5.5000 F6000
G1 Z2.317 F1500
G1 X157.150 Y92.850 F21000
G1 Z1.817 F1500
G1 E5.6000 F6000
G1 X143.062 Y106.938 E2.9819 F2400
G1 X142.850 Y107.150 F2400
G1 E-5.5000 F6000
; layer 5, Z = 2.217
;Clean the nozzle must use a hardened nozzle!
;M98 Pbrush.g
; feature inner perimeter
G1 Z2.317 F1500
G1 X158.050 Y108.050 F21000
G1 Z2.217 F1500
G1 E5.6000 F6000
G1 X141.950 Y108.050 E2.4097 F2400
G1 X141.950 Y91.950 E2.4097
G1 X158.050 Y91.950 E2.4097
G1 X158.050 Y107.750 E2.3648
G1 X158.050 Y108.050 F2400
G1 X158.950 Y108.950 F21000
G1 X141.050 Y108.950 E2.6791 F2400
G1 X141.050 Y91.050 E2.6791
G1 X158.950 Y91.050 E2.6791
G1 X158.950 Y108.650 E2.6342
G1 X158.950 Y108.950 F2400
; feature outer perimeter
G1 X159.850 Y109.850 F21000
G1 X140.150 Y109.850 E2.9485 F2400
G1 X140.150 Y90.150 E2.9485
G1 X159.850 Y90.150 E2.9485
G1 X159.850 Y109.550 E2.9036
G1 X159.850 Y109.850 F2400
G1 X155.850 Y109.850 F2400
; feature infill
G1 X157.150 Y107.150 F21000
G1 X143.062 Y93.062 E2.9819 F2400
G1 X142.850 Y92.850 F2400
G1 E-5.5000 F6000
G1 Z2.717 F1500
G1 X157.150 Y92.850 F21000
G1 Z2.217 F1500
G1 E5.6000 F6000
G1 X143.062 Y106.938 E2.9819 F2400
G1 X142.850 Y107.150 F2400
G1 E-5.5000 F6000
; layer 6, Z = 2.617
;Clean the nozzle must use a hardened nozzle!
;M98 Pbrush.g
; feature inner perimeter
G1 Z2.717 F1500
G1 X158.050 Y108.050 F21000
G1 Z2.617 F1500
G1 E5.6000 F6000
G1 X141.950 Y108.050 E2.4097 F2400
G1 X141.950 Y91.950 E2.4097
G1 X158.050 Y91.950 E2.4097
G1 X158.050 Y107.750 E2.3648
G1 X158.050 Y108.050 F2400
G1 X158.950 Y108.950 F21000
G1 X141.050 Y108.950 E2.6791 F2400
G1 X141.050 Y91.050 E2.6791
G1 X158.950 Y91.050 E2.6791
G1 X158.950 Y108.650 E2.6342
G1 X158.950 Y108.950 F2400
; feature outer perimeter
G1 X159.850 Y109.850 F21000
G1 X140.150 Y109.850 E2.9485 F2400
G1 X140.150 Y90.150 E2.9485
G1 X159.850 Y90.150 E2.9485
G1 X159.850 Y109.550 E2.9036
G1 X159.850 Y109.850 F2400
G1 X155.850 Y109.850 F2400
; feature infill
G1 X157.150 Y107.150 F21000
G1 X143.062 Y93.062 E2.9819 F2400
G1 X142.850 Y92.850 F2400
G1 E-5.5000 F6000
G1 Z3.117 F1500
G1 X157.150 Y92.850 F21000
G1 Z2.617 F1500
G1 E5.6000 F6000
G1 X143.062 Y106.938 E2.9819 F2400
G1 X142.850 Y107.150 F2400
G1 E-5.5000 F6000
; layer 7, Z = 3.017
;Clean the nozzle must use a hardened nozzle!
;M98 Pbrush.g
; feature inner perimeter
G1 Z3.117 F1500
G1 X158.050 Y108.050 F21000
G1 Z3.017 F1500
G1 E5.6000 F6000
G1 X141.950 Y108.050 E2.4097 F2400
G1 X141.950 Y91.950 E2.4097
G1 X158.050 Y91.950 E2.4097
G1 X158.050 Y107.750 E2.3648
G1 X158.050 Y108.050 F2400
G1 X158.950 Y108.950 F21000
G1 X141.050 Y108.950 E2.6791 F2400
G1 X141.050 Y91.050 E2.6791
G1 X158.950 Y91.050 E2.6791
G1 X158.950 Y108.650 E2.6342
