; G-Code generated by Simplify3D(R) Version 4.1.2
; Mar 6, 2020 at 10:41:41 AM
; Settings Summary
;   processName,T0
;   applyToModels,demo_body
;   profileName,Default (modified)
;   profileVersion,2019-07-26 10:50:01
;   baseProfile,Generic Dual Extrusion Profile (modified)
;   printMaterial,PLA
;   printQuality,Medium
;   printExtruders,Both Extruders
;   extruderName,T0,T1,T2
;   extruderToolheadNumber,0,1,2
;   extruderDiameter,0.4,0.4,0.8
;   extruderAutoWidth,1,1,1
;   extruderWidth,0.48,0.48,0.96
;   extrusionMultiplier,1,1,1
;   extruderUseRetract,1,1,1
;   extruderRetractionDistance,1.5,1.5,4.5
;   extruderExtraRestartDistance,0,0,0.1
;   extruderRetractionZLift,0.5,0.5,1
;   extruderRetractionSpeed,6000,6000,6000
;   extruderUseCoasting,1,1,1
;   extruderCoastingDistance,0.3,0.3,0.2
;   extruderUseWipe,1,1,1
;   extruderWipeDistance,4,4,5
;   primaryExtruder,0
;   layerHeight,0.4
;   topSolidLayers,4
;   bottomSolidLayers,4
;   perimeterOutlines,2
;   printPerimetersInsideOut,1
;   startPointOption,1
;   startPointOriginX,0
;   startPointOriginY,100
;   sequentialIslands,1
;   spiralVaseMode,0
;   firstLayerHeightPercentage,100
;   firstLayerWidthPercentage,100
;   firstLayerUnderspeed,0.5
;   useRaft,1
;   raftExtruder,2
;   raftTopLayers,3
;   raftBaseLayers,1
;   raftOffset,2
;   raftSeparationDistance,0
;   raftTopInfill,100
;   aboveRaftSpeedMultiplier,0.3
;   useSkirt,0
;   skirtExtruder,0
;   skirtLayers,1
;   skirtOutlines,1
;   skirtOffset,3
;   usePrimePillar,0
;   primePillarExtruder,999
;   primePillarWidth,10
;   primePillarLocation,6
;   primePillarSpeedMultiplier,1
;   useOozeShield,0
;   oozeShieldExtruder,0
;   oozeShieldOffset,2
;   oozeShieldOutlines,1
;   oozeShieldSidewallShape,2
;   oozeShieldSidewallAngle,30
;   oozeShieldSpeedMultiplier,1
;   infillExtruder,0
;   internalInfillPattern,Grid
;   externalInfillPattern,Rectilinear
;   infillPercentage,12
;   outlineOverlapPercentage,0
;   infillExtrusionWidthPercentage,100
;   minInfillLength,5
;   infillLayerInterval,1
;   internalInfillAngles,45,-45
;   overlapInternalInfillAngles,1
;   externalInfillAngles,45,-45
;   generateSupport,1
;   supportExtruder,2
;   supportInfillPercentage,20
;   supportExtraInflation,0.5
;   supportBaseLayers,1
;   denseSupportExtruder,2
;   denseSupportLayers,3
;   denseSupportInfillPercentage,90
;   supportLayerInterval,1
;   supportHorizontalPartOffset,0.75
;   supportUpperSeparationLayers,0
;   supportLowerSeparationLayers,0
;   supportType,0
;   supportGridSpacing,100
;   maxOverhangAngle,89
;   supportAngles,45,-45
;   temperatureName,Primary Extruder
;   temperatureNumber,0
;   temperatureSetpointCount,1
;   temperatureSetpointLayers,1
;   temperatureSetpointTemperatures,190
;   temperatureStabilizeAtStartup,1
;   temperatureHeatedBed,0
;   fanLayers,1
;   fanSpeeds,0
;   blipFanToFullPower,0
;   adjustSpeedForCooling,1
;   minSpeedLayerTime,5
;   minCoolingSpeedSlowdown,10
;   increaseFanForCooling,0
;   minFanLayerTime,5
;   maxCoolingFanSpeed,75
;   increaseFanForBridging,0
;   bridgingFanSpeed,75
;   use5D,1
;   relativeEdistances,1
;   allowEaxisZeroing,1
;   independentExtruderAxes,0
;   includeM10123,0
;   stickySupport,1
;   applyToolheadOffsets,0
;   gcodeXoffset,0
;   gcodeYoffset,0
;   gcodeZoffset,0
;   overrideMachineDefinition,1
;   machineTypeOverride,0
;   strokeXoverride,300
;   strokeYoverride,200
;   strokeZoverride,300
;   originOffsetXoverride,0
;   originOffsetYoverride,0
;   originOffsetZoverride,0
;   homeXdirOverride,-1
;   homeYdirOverride,-1
;   homeZdirOverride,-1
;   flipXoverride,1
;   flipYoverride,-1
;   flipZoverride,1
;   toolheadOffsets,0,0|0,0|0,0|0,0|0,0|0,0
;   overrideFirmwareConfiguration,0
;   firmwareTypeOverride,RepRap (Marlin/Repetier/Sprinter)
;   GPXconfigOverride,r2
;   baudRateOverride,115200
;   overridePrinterModels,1
;   printerModelsOverride
;   startingGcode,G29 S1,,T0
;   layerChangeGcode,
;   retractionGcode,
;   toolChangeGcode,
;   endingGcode,;Drop Bed,G91,G1 Z2 F1000,G90,,; Drop off the tool,T-1,,; Disable Mesh Compensation.,G29 S2,,; Park,G1 X-20 Y200 F50000,,M0	;turn off all heaters
;   exportFileFormat,gcode
;   celebration,0
;   celebrationSong,Star Wars
;   postProcessing,
;   defaultSpeed,3000
;   outlineUnderspeed,1
;   solidInfillUnderspeed,1
;   supportUnderspeed,1
;   rapidXYspeed,21000
;   rapidZspeed,1500
;   minBridgingArea,50
;   bridgingExtraInflation,1
;   bridgingExtrusionMultiplier,1
;   bridgingSpeedMultiplier,1
;   useFixedBridgingAngle,0
;   fixedBridgingAngle,0
;   applyBridgingToPerimeters,1
;   filamentDiameters,1.75|1.75|1.75|1.75|1.75|1.75
;   filamentPricesPerKg,46|46|46|46|46|46
;   filamentDensities,1.25|1.25|1.25|1.25|1.25|1.25
;   useMinPrintHeight,0
;   minPrintHeight,12
;   useMaxPrintHeight,0
;   maxPrintHeight,1
;   useDiaphragm,0
;   diaphragmLayerInterval,20
;   robustSlicing,1
;   mergeAllIntoSolid,0
;   onlyRetractWhenCrossingOutline,0
;   retractBetweenLayers,0
;   useRetractionMinTravel,1
;   retractionMinTravel,1
;   retractWhileWiping,1
;   onlyWipeOutlines,1
;   avoidCrossingOutline,0
;   maxMovementDetourFactor,3
;   toolChangeRetractionDistance,0
;   toolChangeExtraRestartDistance,0
;   toolChangeRetractionSpeed,3000
;   externalThinWallType,0
;   internalThinWallType,0
;   thinWallAllowedOverlapPercentage,5
;   singleExtrusionMinLength,0.5
;   singleExtrusionMinPrintingWidthPercentage,50
;   singleExtrusionMaxPrintingWidthPercentage,150
;   singleExtrusionEndpointExtension,0.2
;   horizontalSizeCompensation,0.25
G90
M83
M106 S0
M104 S190 T0
M109 S190 T0
G29 S1
T0
; process T0
; layer 1, Z = 1.000
T2
G1 E-4.5000 F6000
; feature raft
; tool H1.000 W1.600
G1 Z1.000 F1500
G1 X169.679 Y65.329 F21000
G1 E4.6000 F6000
G1 X170.055 Y65.395 E0.2545 F375
G1 X170.205 Y65.443 E0.1046
G1 X170.497 Y65.579 E0.2142
G1 X170.630 Y65.663 E0.1045
G1 X170.980 Y65.957 E0.3042
G1 X171.115 Y66.118 E0.1396
G1 X171.362 Y66.546 E0.3292
G1 X171.434 Y66.744 E0.1397
G1 X171.507 Y67.157 E0.2794
G1 X171.516 Y67.262 E0.0697
G1 X171.516 Y95.356 E18.6884
G1 X171.526 Y95.531 E0.1167
G1 X171.610 Y95.893 E0.2469
G1 X171.793 Y96.267 E0.2769
G1 X172.156 Y96.622 E0.3378
G1 X172.564 Y96.811 E0.2995
G1 X174.247 Y97.257 E1.1579
G1 X174.292 Y97.271 E0.0313
G1 X175.043 Y97.535 E0.5299
G1 X175.073 Y97.547 E0.0212
G1 X175.802 Y97.847 E0.5247
G1 X175.832 Y97.860 E0.0214
G1 X176.544 Y98.198 E0.5247
G1 X176.572 Y98.213 E0.0211
G1 X177.266 Y98.589 E0.5249
G1 X177.294 Y98.605 E0.0213
G1 X177.967 Y99.016 E0.5247
G1 X177.993 Y99.034 E0.0210
G1 X178.644 Y99.481 E0.5251
G1 X178.669 Y99.499 E0.0209
G1 X179.295 Y99.980 E0.5248
G1 X179.320 Y100.000 E0.0212
G1 X179.919 Y100.513 E0.5250
G1 X179.943 Y100.534 E0.0210
G1 X180.514 Y101.078 E0.5248
G1 X180.536 Y101.101 E0.0211
G1 X181.078 Y101.675 E0.5251
G1 X181.099 Y101.698 E0.0210
G1 X181.610 Y102.299 E0.5248
G1 X181.630 Y102.324 E0.0210
G1 X182.108 Y102.952 E0.5248
G1 X182.127 Y102.978 E0.0214
G1 X182.571 Y103.629 E0.5246
G1 X182.589 Y103.656 E0.0213
G1 X182.998 Y104.330 E0.5246
G1 X183.014 Y104.358 E0.0215
G1 X183.387 Y105.053 E0.5247
G1 X183.401 Y105.082 E0.0211
G1 X183.737 Y105.796 E0.5249
G1 X183.749 Y105.825 E0.0210
G1 X184.047 Y106.556 E0.5249
G1 X184.058 Y106.585 E0.0211
G1 X184.317 Y107.331 E0.5248
G1 X184.326 Y107.361 E0.0210
G1 X184.545 Y108.119 E0.5250
G1 X184.553 Y108.150 E0.0213
G1 X184.731 Y108.918 E0.5245
G1 X184.738 Y108.950 E0.0214
G1 X184.875 Y109.727 E0.5248
G1 X184.880 Y109.758 E0.0209
G1 X184.976 Y110.541 E0.5250
G1 X184.979 Y110.573 E0.0212
G1 X185.033 Y111.360 E0.5249
G1 X185.035 Y111.392 E0.0210
G1 X185.048 Y112.188 E0.5299
G1 X185.047 Y112.235 E0.0312
G1 X184.939 Y113.975 E1.1600
G1 X184.993 Y114.434 E0.3071
G1 X185.186 Y114.817 E0.2855
G1 X185.404 Y115.077 E0.2256
G1 X185.744 Y115.331 E0.2822
G1 X186.842 Y115.988 E0.8510
G1 X186.906 Y116.033 E0.0524
G1 X187.292 Y116.339 E0.3275
G1 X187.336 Y116.378 E0.0393
G1 X187.683 Y116.713 E0.3210
G1 X187.723 Y116.756 E0.0391
G1 X188.036 Y117.124 E0.3212
G1 X188.071 Y117.171 E0.0390
G1 X188.346 Y117.568 E0.3210
G1 X188.377 Y117.618 E0.0392
G1 X188.612 Y118.040 E0.3210
G1 X188.638 Y118.092 E0.0393
G1 X188.830 Y118.535 E0.3208
G1 X188.850 Y118.590 E0.0393
G1 X188.998 Y119.050 E0.3209
G1 X189.013 Y119.107 E0.0394
G1 X189.115 Y119.578 E0.3208
G1 X189.125 Y119.636 E0.0391
G1 X189.180 Y120.116 E0.3212
G1 X189.184 Y120.174 E0.0391
G1 X189.192 Y120.657 E0.3209
G1 X189.190 Y120.716 E0.0393
G1 X189.150 Y121.197 E0.3208
G1 X189.143 Y121.255 E0.0393
G1 X189.056 Y121.730 E0.3209
G1 X189.043 Y121.787 E0.0393
G1 X188.910 Y122.251 E0.3210
G1 X188.891 Y122.307 E0.0392
G1 X188.709 Y122.769 E0.3303
G1 X188.671 Y122.848 E0.0582
G1 X183.445 Y131.941 E6.9767
G1 X183.429 Y131.967 E0.0204
G1 X183.178 Y132.355 E0.3074
G1 X183.144 Y132.403 E0.0392
G1 X182.844 Y132.781 E0.3211
G1 X182.805 Y132.826 E0.0392
G1 X182.470 Y133.172 E0.3209
G1 X182.427 Y133.213 E0.0392
G1 X182.059 Y133.525 E0.3210
G1 X182.012 Y133.561 E0.0392
G1 X181.615 Y133.835 E0.3210
G1 X181.565 Y133.866 E0.0391
G1 X181.143 Y134.101 E0.3211
G1 X181.090 Y134.127 E0.0391
G1 X180.634 Y134.325 E0.3307
G1 X180.551 Y134.354 E0.0589
G1 X179.648 Y134.596 E0.6214
G1 X179.562 Y134.612 E0.0587
G1 X179.067 Y134.669 E0.3313
G1 X179.008 Y134.673 E0.0391
G1 X178.526 Y134.681 E0.3209
G1 X178.467 Y134.679 E0.0393
G1 X177.986 Y134.639 E0.3209
G1 X177.928 Y134.632 E0.0392
G1 X177.453 Y134.545 E0.3210
G1 X177.395 Y134.532 E0.0393
G1 X176.932 Y134.400 E0.3208
G1 X176.876 Y134.381 E0.0393
G1 X176.418 Y134.200 E0.3276
G1 X176.347 Y134.166 E0.0523
G1 X174.236 Y132.992 E1.6065
G1 X173.512 Y132.634 E0.5374
G1 X172.757 Y132.302 E0.5485
G1 X171.265 Y131.759 E1.0561
G1 X169.662 Y131.329 E1.1038
G1 X168.900 Y131.178 E0.5170
G1 X167.333 Y130.972 E1.0513
G1 X165.659 Y130.897 E1.1144
G1 X134.328 Y130.897 E20.8415
G1 X133.482 Y130.916 E0.5632
G1 X131.908 Y131.055 E1.0511
G1 X130.325 Y131.333 E1.0690
G1 X128.722 Y131.763 E1.1037
G1 X128.002 Y132.007 E0.5061
G1 X126.498 Y132.630 E1.0827
G1 X125.764 Y132.992 E0.5448
G1 X123.653 Y134.166 E1.6063
G1 X123.582 Y134.200 E0.0524
G1 X123.124 Y134.381 E0.3276
G1 X123.069 Y134.399 E0.0391
G1 X122.604 Y134.532 E0.3211
G1 X122.547 Y134.545 E0.0392
G1 X122.072 Y134.632 E0.3210
G1 X122.014 Y134.639 E0.0393
G1 X121.533 Y134.679 E0.3208
G1 X121.474 Y134.681 E0.0393
G1 X120.992 Y134.673 E0.3209
G1 X120.933 Y134.669 E0.0392
G1 X120.453 Y134.614 E0.3211
G1 X120.395 Y134.604 E0.0391
G1 X119.924 Y134.502 E0.3209
G1 X119.867 Y134.487 E0.0391
G1 X119.407 Y134.340 E0.3212
G1 X119.352 Y134.319 E0.0390
G1 X118.925 Y134.134 E0.3096
G1 X118.874 Y134.109 E0.0378
G1 X118.438 Y133.868 E0.3313
G1 X118.386 Y133.836 E0.0406
G1 X117.988 Y133.561 E0.3222
G1 X117.941 Y133.525 E0.0392
G1 X117.574 Y133.213 E0.3208
G1 X117.530 Y133.172 E0.0394
G1 X117.195 Y132.826 E0.3209
G1 X117.156 Y132.781 E0.0391
G1 X116.856 Y132.403 E0.3211
G1 X116.822 Y132.356 E0.0391
G1 X116.571 Y131.967 E0.3073
G1 X116.556 Y131.942 E0.0193
G1 X111.535 Y123.246 E6.6798
G1 X111.521 Y123.220 E0.0197
G1 X111.310 Y122.809 E0.3071
G1 X111.286 Y122.756 E0.0391
G1 X111.109 Y122.307 E0.3210
G1 X111.090 Y122.251 E0.0393
G1 X110.957 Y121.787 E0.3209
G1 X110.944 Y121.730 E0.0392
G1 X110.857 Y121.255 E0.3210
G1 X110.850 Y121.197 E0.0392
G1 X110.809 Y120.701 E0.3307
G1 X110.808 Y120.613 E0.0588
G1 X110.869 Y119.681 E0.6214
G1 X110.882 Y119.593 E0.0588
G1 X110.987 Y119.106 E0.3312
G1 X111.002 Y119.050 E0.0392
G1 X111.150 Y118.590 E0.3209
G1 X111.170 Y118.535 E0.0393
G1 X111.362 Y118.092 E0.3208
G1 X111.388 Y118.040 E0.0393
G1 X111.623 Y117.618 E0.3210
G1 X111.654 Y117.568 E0.0393
G1 X111.929 Y117.171 E0.3209
G1 X111.964 Y117.124 E0.0391
G1 X112.277 Y116.756 E0.3211
G1 X112.317 Y116.713 E0.0391
G1 X112.663 Y116.378 E0.3209
G1 X112.708 Y116.339 E0.0392
G1 X113.093 Y116.033 E0.3269
G1 X113.151 Y115.992 E0.0477
G1 X113.799 Y115.594 E0.5056
G1 X113.813 Y115.585 E0.0110
G1 X119.217 Y112.466 E4.1507
G1 X120.621 Y111.571 E1.1076
G1 X121.256 Y111.104 E0.5241
G1 X122.473 Y110.083 E1.0568
G1 X123.615 Y108.943 E1.0736
G1 X124.680 Y107.672 E1.1031
G1 X125.589 Y106.374 E1.0536
G1 X125.994 Y105.707 E0.5198
G1 X126.753 Y104.252 E1.0915
G1 X127.068 Y103.537 E0.5195
G1 X127.625 Y102.008 E1.0826
G1 X128.047 Y100.436 E1.0826
G1 X128.202 Y99.658 E0.5276
G1 X128.328 Y98.829 E0.5577
G1 X128.465 Y97.251 E1.0540
G1 X128.484 Y67.256 E19.9525
G1 X128.494 Y67.146 E0.0740
G1 X128.574 Y66.722 E0.2864
G1 X128.645 Y66.530 E0.1368
G1 X128.869 Y66.147 E0.2949
G1 X128.963 Y66.024 E0.1029
G1 X129.190 Y65.798 E0.2129
G1 X129.314 Y65.702 E0.1046
G1 X129.710 Y65.474 E0.3043
G1 X129.908 Y65.402 E0.1397
G1 X130.321 Y65.329 E0.2794
G1 X130.426 Y65.320 E0.0697
G1 X169.479 Y65.320 E25.9783
G1 X169.574 Y65.320 F375
G1 X169.679 Y65.329
G1 E-4.5000 F6000
G1 Z2.000 F1500
G1 X150.387 Y105.859 F21000
G1 Z1.000 F1500
G1 E4.6000 F6000
G1 X150.000 Y105.786 E0.2619 F375
G1 X149.547 Y105.872 E0.3071
G1 X149.191 Y106.167 E0.3073
G1 X149.033 Y106.453 E0.2176
G1 X148.935 Y106.836 E0.2629
G1 X149.033 Y107.219 E0.2629
G1 X149.223 Y107.565 E0.2630
G1 X149.613 Y107.813 E0.3071
G1 X150.000 Y107.886 E0.2618
G1 X150.387 Y107.813 E0.2619
G1 X150.663 Y107.637 E0.2176
G1 X150.887 Y107.399 E0.2176
G1 X151.007 Y107.095 E0.2177
G1 X151.048 Y106.770 E0.2176
G1 X150.967 Y106.453 E0.2176
G1 X150.777 Y106.107 E0.2629
G1 X150.556 Y105.967 E0.1741
G1 X150.387 Y105.859 F375
G1 E-4.5000 F6000
G1 Z2.000 F1500
G1 X151.343 Y104.571 F21000
G1 Z1.000 F1500
G1 E4.6000 F6000
G1 X181.272 Y104.571 E19.9090 F375
G1 X181.616 Y105.138 E0.4410
G1 X181.964 Y105.786 E0.4893
G1 X182.277 Y106.453 E0.4898
G1 X182.555 Y107.135 E0.4896
G1 X182.796 Y107.830 E0.4895
G1 X183.000 Y108.537 E0.4900
G1 X183.141 Y109.143 E0.4134
G1 X151.477 Y109.143 E21.0630
G1 X151.277 Y109.143 F375
G1 E-4.5000 F6000
G1 Z2.000 F1500
G1 X181.378 Y132.000 F21000
G1 Z1.000 F1500
G1 E4.6000 F6000
G1 X175.744 Y132.000 E3.7475 F375
G1 X174.980 Y131.575 E0.5817
G1 X174.189 Y131.184 E0.5871
G1 X173.353 Y130.817 E0.6070
G1 X171.747 Y130.232 E1.1372
G1 X170.025 Y129.770 E1.1855
G1 X169.160 Y129.599 E0.5866
G1 X167.474 Y129.376 E1.1317
G1 X165.695 Y129.297 E1.1843
G1 X134.310 Y129.297 E20.8778
G1 X133.393 Y129.318 E0.6099
G1 X131.699 Y129.467 E1.1312
G1 X129.979 Y129.769 E1.1618
G1 X128.257 Y130.231 E1.1855
G1 X127.438 Y130.509 E0.5756
G1 X125.838 Y131.172 E1.1524
G1 X125.020 Y131.575 E0.6061
G1 X124.256 Y132.000 E0.5819
G1 X118.622 Y132.000 E3.7475
G1 X118.379 Y131.748 E0.2330
G1 X118.140 Y131.447 E0.2558
G1 X117.929 Y131.121 E0.2582
G1 X115.798 Y127.429 E2.8361
G1 X184.193 Y127.429 E45.4965
G1 X186.820 Y122.857 E3.5074
G1 X113.158 Y122.857 E48.9999
G1 X112.933 Y122.467 E0.2996
G1 X112.756 Y122.122 E0.2579
G1 X112.615 Y121.765 E0.2557
G1 X112.509 Y121.395 E0.2556
G1 X112.440 Y121.017 E0.2557
G1 X112.410 Y120.644 E0.2491
G1 X112.461 Y119.859 E0.5232
G1 X112.540 Y119.492 E0.2496
G1 X112.658 Y119.126 E0.2555
G1 X112.811 Y118.774 E0.2556
G1 X112.998 Y118.438 E0.2558
G1 X113.103 Y118.286 E0.1230
G1 X186.897 Y118.286 E49.0882
G1 X186.784 Y118.122 E0.1324
G1 X186.535 Y117.829 E0.2559
G1 X186.259 Y117.562 E0.2554
G1 X185.963 Y117.327 E0.2514
G1 X184.852 Y116.662 E0.8613
G1 X184.298 Y116.248 E0.4601
G1 X183.841 Y115.704 E0.4727
G1 X183.436 Y114.901 E0.5977
G1 X183.333 Y114.019 E0.5909
G1 X183.352 Y113.714 E0.2032
G1 X120.234 Y113.714 E41.9862
G1 X121.525 Y112.891 E1.0184
G1 X122.245 Y112.363 E0.5936
G1 X123.554 Y111.264 E1.1371
G1 X124.795 Y110.025 E1.1667
G1 X125.535 Y109.143 E0.7659
G1 X148.723 Y109.143 E15.4249
G1 X148.019 Y108.696 E0.5547
G1 X147.534 Y107.812 E0.6707
G1 X147.283 Y106.836 E0.6706
G1 X147.534 Y105.859 E0.6707
G1 X147.936 Y105.128 E0.5552
G1 X148.609 Y104.571 E0.5811
G1 X128.360 Y104.571 E13.4693
G1 X128.553 Y104.134 E0.3178
G1 X129.152 Y102.490 E1.1640
G1 X129.606 Y100.800 E1.1640
G1 X129.765 Y100.000 E0.5427
G1 X176.509 Y100.000 E31.0944
G1 X176.481 Y99.983 E0.0216
G1 X175.834 Y99.632 E0.4901
G1 X175.169 Y99.316 E0.4894
G1 X174.488 Y99.036 E0.4897
G1 X173.799 Y98.794 E0.4862
G1 X172.019 Y98.322 E1.2246
G1 X171.234 Y97.959 E0.5756
G1 X170.476 Y97.217 E0.7054
