; G-Code generated by Simplify3D(R) Version 4.1.2
; Dec 27, 2019 at 10:08:54 AM
; Settings Summary
;   processName,T0
;   applyToModels,cube
;   profileName,Default (modified)
;   profileVersion,2019-07-26 10:50:59
;   baseProfile,Generic Dual Extrusion Profile (modified)
;   printMaterial,PLA
;   printQuality,Medium
;   printExtruders,Both Extruders
;   extruderName,T0,Skrillex Jr
;   extruderToolheadNumber,0,3
;   extruderDiameter,0.6,3.16
;   extruderAutoWidth,0,0
;   extruderWidth,0.9,2.66
;   extrusionMultiplier,1,1
;   extruderUseRetract,1,1
;   extruderRetractionDistance,5.5,1
;   extruderExtraRestartDistance,0.1,0
;   extruderRetractionZLift,0.5,5
;   extruderRetractionSpeed,6000,60
;   extruderUseCoasting,1,0
;   extruderCoastingDistance,0.3,0.2
;   extruderUseWipe,1,0
;   extruderWipeDistance,4,5
;   primaryExtruder,0
;   layerHeight,0.4
;   topSolidLayers,5
;   bottomSolidLayers,0
;   perimeterOutlines,3
;   printPerimetersInsideOut,1
;   startPointOption,3
;   startPointOriginX,170
;   startPointOriginY,120
;   sequentialIslands,1
;   spiralVaseMode,0
;   firstLayerHeightPercentage,100
;   firstLayerWidthPercentage,100
;   firstLayerUnderspeed,0.5
;   useRaft,1
;   raftExtruder,0
;   raftTopLayers,2
;   raftBaseLayers,1
;   raftOffset,0
;   raftSeparationDistance,0
;   raftTopInfill,100
;   aboveRaftSpeedMultiplier,1
;   useSkirt,1
;   skirtExtruder,0
;   skirtLayers,1
;   skirtOutlines,1
;   skirtOffset,3
;   usePrimePillar,0
;   primePillarExtruder,999
;   primePillarWidth,10
;   primePillarLocation,6
;   primePillarSpeedMultiplier,1
;   useOozeShield,1
;   oozeShieldExtruder,1
;   oozeShieldOffset,0
;   oozeShieldOutlines,1
;   oozeShieldSidewallShape,2
;   oozeShieldSidewallAngle,45
;   oozeShieldSpeedMultiplier,0.15
;   infillExtruder,0
;   internalInfillPattern,Grid
;   externalInfillPattern,Rectilinear
;   infillPercentage,15
;   outlineOverlapPercentage,0
;   infillExtrusionWidthPercentage,100
;   minInfillLength,5
;   infillLayerInterval,1
;   internalInfillAngles,45,-45
;   overlapInternalInfillAngles,1
;   externalInfillAngles,45,-45
;   generateSupport,0
;   supportExtruder,0
;   supportInfillPercentage,20
;   supportExtraInflation,0.5
;   supportBaseLayers,1
;   denseSupportExtruder,0
;   denseSupportLayers,0
;   denseSupportInfillPercentage,90
;   supportLayerInterval,1
;   supportHorizontalPartOffset,0.75
;   supportUpperSeparationLayers,1
;   supportLowerSeparationLayers,1
;   supportType,0
;   supportGridSpacing,100
;   maxOverhangAngle,89
;   supportAngles,45
;   temperatureName
;   temperatureNumber
;   temperatureSetpointCount
;   temperatureSetpointLayers
;   temperatureSetpointTemperatures
;   temperatureStabilizeAtStartup
;   temperatureHeatedBed
;   fanLayers,1
;   fanSpeeds,0
;   blipFanToFullPower,0
;   adjustSpeedForCooling,1
;   minSpeedLayerTime,5
;   minCoolingSpeedSlowdown,10
;   increaseFanForCooling,0
;   minFanLayerTime,5
;   maxCoolingFanSpeed,75
;   increaseFanForBridging,0
;   bridgingFanSpeed,75
;   use5D,1
;   relativeEdistances,1
;   allowEaxisZeroing,1
;   independentExtruderAxes,0
;   includeM10123,0
;   stickySupport,1
;   applyToolheadOffsets,0
;   gcodeXoffset,0
;   gcodeYoffset,0
;   gcodeZoffset,0
;   overrideMachineDefinition,1
;   machineTypeOverride,0
;   strokeXoverride,300
;   strokeYoverride,200
;   strokeZoverride,300
;   originOffsetXoverride,0
;   originOffsetYoverride,0
;   originOffsetZoverride,0
;   homeXdirOverride,-1
;   homeYdirOverride,-1
;   homeZdirOverride,-1
;   flipXoverride,1
;   flipYoverride,-1
;   flipZoverride,1
;   toolheadOffsets,0,0|0,0|0,0|0,0|0,0|0,0
;   overrideFirmwareConfiguration,0
;   firmwareTypeOverride,RepRap (Marlin/Repetier/Sprinter)
;   GPXconfigOverride,r2
;   baudRateOverride,115200
;   overridePrinterModels,1
;   printerModelsOverride
;   startingGcode,G29 S1
;   layerChangeGcode,;Clean the nozzle must use a hardened nozzle!,;M98 Pbrush.g
;   retractionGcode,
;   toolChangeGcode,
;   endingGcode,;Drop Bed,G91,G1 Z2 F1000,G90,,; Drop off the tool,T-1,,; Disable Mesh Compensation.,G29 S2,,; Park,G1 X-30 Y200 F50000,,M0	;turn off all heaters
;   exportFileFormat,gcode
;   celebration,0
;   celebrationSong,Star Wars
;   postProcessing,
;   defaultSpeed,2400
;   outlineUnderspeed,1
;   solidInfillUnderspeed,1
;   supportUnderspeed,1
;   rapidXYspeed,21000
;   rapidZspeed,1500
;   minBridgingArea,50
;   bridgingExtraInflation,1
;   bridgingExtrusionMultiplier,1
;   bridgingSpeedMultiplier,1
;   useFixedBridgingAngle,0
;   fixedBridgingAngle,0
;   applyBridgingToPerimeters,1
;   filamentDiameters,1.75|1.75|1.75|1.75|1.75|1.75
;   filamentPricesPerKg,46|46|46|46|46|46
;   filamentDensities,1.25|1.25|1.25|1.25|1.25|1.25
;   useMinPrintHeight,0
;   minPrintHeight,12
;   useMaxPrintHeight,0
;   maxPrintHeight,1
;   useDiaphragm,0
;   diaphragmLayerInterval,20
;   robustSlicing,1
;   mergeAllIntoSolid,0
;   onlyRetractWhenCrossingOutline,0
;   retractBetweenLayers,0
;   useRetractionMinTravel,1
;   retractionMinTravel,1
;   retractWhileWiping,1
;   onlyWipeOutlines,1
;   avoidCrossingOutline,0
;   maxMovementDetourFactor,3
;   toolChangeRetractionDistance,5
;   toolChangeExtraRestartDistance,0
;   toolChangeRetractionSpeed,3000
;   externalThinWallType,0
;   internalThinWallType,0
;   thinWallAllowedOverlapPercentage,5
;   singleExtrusionMinLength,0.5
;   singleExtrusionMinPrintingWidthPercentage,50
;   singleExtrusionMaxPrintingWidthPercentage,150
;   singleExtrusionEndpointExtension,0.2
;   horizontalSizeCompensation,0
G90
M83
M106 S0
G29 S1
; process T0
; layer 1, Z = 0.750
T0
G1 E-5.5000 F6000
;Clean the nozzle must use a hardened nozzle!
;M98 Pbrush.g
; feature skirt
; tool H0.750 W0.900
G1 Z0.750 F1500
G1 X163.056 Y115.585 F21000
G1 E5.6000 F6000
G1 X161.788 Y116.110 E0.3852 F1200
G1 X138.212 Y116.110 E6.6162
G1 X136.944 Y115.585 E0.3852
G1 X134.415 Y113.056 E1.0036
G1 X133.890 Y111.788 E0.3852
G1 X133.890 Y88.212 E6.6162
G1 X134.415 Y86.944 E0.3852
G1 X136.944 Y84.415 E1.0036
G1 X138.212 Y83.890 E0.3852
G1 X161.788 Y83.890 E6.6162
G1 X163.056 Y84.415 E0.3852
G1 X165.585 Y86.944 E1.0036
G1 X166.110 Y88.212 E0.3852
G1 X166.110 Y111.788 E6.6162
G1 X165.585 Y113.056 E0.3852
G1 X163.056 Y115.585 E1.0036
G1 E-5.5000 F6000
; feature raft
; tool H0.750 W1.200
G1 Z1.250 F1500
G1 X162.060 Y110.853 F21000
G1 Z0.750 F1500
G1 E5.6000 F6000
G1 X160.853 Y112.060 E0.6385 F300
G1 X139.147 Y112.060 E8.1221
G1 X137.940 Y110.853 E0.6385
G1 X137.940 Y89.147 E8.1221
G1 X139.147 Y87.940 E0.6385
G1 X160.853 Y87.940 E8.1221
G1 X162.060 Y89.147 E0.6385
G1 X162.060 Y110.553 E8.0098
G1 X162.060 Y110.853 F300
G1 E-5.5000 F6000
G1 Z1.250 F1500
G1 X160.860 Y110.286 F21000
G1 Z0.750 F1500
G1 E5.6000 F6000
G1 X139.140 Y110.286 E8.1271 F300
G1 X139.140 Y106.857 E1.2829
G1 X160.860 Y106.857 E8.1271
G1 X160.860 Y103.429 E1.2829
G1 X139.140 Y103.429 E8.1271
G1 X139.140 Y100.000 E1.2829
G1 X160.860 Y100.000 E8.1271
G1 X160.860 Y96.571 E1.2829
G1 X139.140 Y96.571 E8.1271
G1 X139.140 Y93.143 E1.2829
G1 X160.860 Y93.143 E8.1271
G1 X160.860 Y89.714 E1.2829
G1 X139.440 Y89.714 E8.0149
G1 X139.140 Y89.714 F300
G1 E-5.5000 F6000
; layer 2, Z = 1.083
;Clean the nozzle must use a hardened nozzle!
;M98 Pbrush.g
; tool H0.333 W0.600
G1 Z1.250 F1500
G1 X162.360 Y110.550 F21000
G1 Z1.083 F1500
G1 E5.6000 F6000
G1 X160.550 Y112.360 E0.2128 F1800
G1 X159.702 Y112.360 E0.0706
G1 X162.360 Y109.702 E0.3126
G1 X162.360 Y108.853 E0.0706
G1 X158.853 Y112.360 E0.4124
G1 X158.005 Y112.360 E0.0706
G1 X162.360 Y108.005 E0.5121
G1 X162.360 Y107.156 E0.0706
G1 X157.156 Y112.360 E0.6119
G1 X156.308 Y112.360 E0.0706
G1 X162.360 Y106.308 E0.7117
G1 X162.360 Y105.459 E0.0706
G1 X155.459 Y112.360 E0.8115
G1 X154.611 Y112.360 E0.0706
G1 X162.360 Y104.611 E0.9113
G1 X162.360 Y103.762 E0.0706
G1 X153.762 Y112.360 E1.0111
G1 X152.914 Y112.360 E0.0706
G1 X162.360 Y102.914 E1.1108
G1 X162.360 Y102.065 E0.0706
G1 X152.065 Y112.360 E1.2106
G1 X151.216 Y112.360 E0.0706
G1 X162.360 Y101.216 E1.3104
G1 X162.360 Y100.368 E0.0706
G1 X150.368 Y112.360 E1.4102
G1 X149.519 Y112.360 E0.0706
G1 X162.360 Y99.519 E1.5100
G1 X162.360 Y98.671 E0.0706
G1 X148.671 Y112.360 E1.6097
G1 X147.822 Y112.360 E0.0706
G1 X162.360 Y97.822 E1.7095
G1 X162.360 Y96.974 E0.0706
G1 X146.974 Y112.360 E1.8093
G1 X146.125 Y112.360 E0.0706
G1 X162.360 Y96.125 E1.9091
G1 X162.360 Y95.277 E0.0706
G1 X145.277 Y112.360 E2.0089
G1 X144.428 Y112.360 E0.0706
G1 X162.360 Y94.428 E2.1086
G1 X162.360 Y93.580 E0.0706
G1 X143.580 Y112.360 E2.2084
G1 X142.731 Y112.360 E0.0706
G1 X162.360 Y92.731 E2.3082
G1 X162.360 Y91.883 E0.0706
G1 X141.883 Y112.360 E2.4080
G1 X141.034 Y112.360 E0.0706
G1 X162.360 Y91.034 E2.5078
G1 X162.360 Y90.186 E0.0706
G1 X140.186 Y112.360 E2.6075
G1 X139.337 Y112.360 E0.0706
G1 X162.360 Y89.337 E2.7073
G1 X162.360 Y89.022 E0.0262
G1 X162.093 Y88.756 E0.0314
G1 X138.756 Y112.093 E2.7443
G1 X138.331 Y111.669 E0.0499
G1 X161.669 Y88.331 E2.7443
G1 X161.245 Y87.907 E0.0499
G1 X137.907 Y111.245 E2.7443
G1 X137.640 Y110.978 E0.0314
G1 X137.640 Y110.663 E0.0262
G1 X160.663 Y87.640 E2.7073
G1 X159.814 Y87.640 E0.0706
G1 X137.640 Y109.814 E2.6075
G1 X137.640 Y108.966 E0.0706
G1 X158.966 Y87.640 E2.5078
G1 X158.117 Y87.640 E0.0706
G1 X137.640 Y108.117 E2.4080
G1 X137.640 Y107.269 E0.0706
G1 X157.269 Y87.640 E2.3082
G1 X156.420 Y87.640 E0.0706
G1 X137.640 Y106.420 E2.2084
G1 X137.640 Y105.572 E0.0706
G1 X155.572 Y87.640 E2.1086
G1 X154.723 Y87.640 E0.0706
G1 X137.640 Y104.723 E2.0089
G1 X137.640 Y103.875 E0.0706
G1 X153.875 Y87.640 E1.9091
G1 X153.026 Y87.640 E0.0706
G1 X137.640 Y103.026 E1.8093
G1 X137.640 Y102.178 E0.0706
G1 X152.178 Y87.640 E1.7095
G1 X151.329 Y87.640 E0.0706
G1 X137.640 Y101.329 E1.6097
G1 X137.640 Y100.481 E0.0706
G1 X150.481 Y87.640 E1.5100
G1 X149.632 Y87.640 E0.0706
G1 X137.640 Y99.632 E1.4102
G1 X137.640 Y98.784 E0.0706
G1 X148.784 Y87.640 E1.3104
G1 X147.935 Y87.640 E0.0706
G1 X137.640 Y97.935 E1.2106
G1 X137.640 Y97.087 E0.0706
G1 X147.087 Y87.640 E1.1108
G1 X146.238 Y87.640 E0.0706
G1 X137.640 Y96.238 E1.0111
G1 X137.640 Y95.389 E0.0706
G1 X145.389 Y87.640 E0.9113
G1 X144.541 Y87.640 E0.0706
G1 X137.640 Y94.541 E0.8115
G1 X137.640 Y93.692 E0.0706
G1 X143.692 Y87.640 E0.7117
G1 X142.844 Y87.640 E0.0706
G1 X137.640 Y92.844 E0.6119
G1 X137.640 Y91.995 E0.0706
G1 X141.995 Y87.640 E0.5122
G1 X141.147 Y87.640 E0.0706
G1 X137.640 Y91.147 E0.4124
G1 X137.640 Y90.298 E0.0706
G1 X140.298 Y87.640 E0.3126
G1 X139.450 Y87.640 E0.0706
G1 X137.852 Y89.238 E0.1879
G1 X137.640 Y89.450 F1800
G1 E-5.5000 F6000
; layer 3, Z = 1.417
;Clean the nozzle must use a hardened nozzle!
;M98 Pbrush.g
G1 Z1.583 F1500
G1 X139.450 Y112.360 F21000
G1 Z1.417 F1500
G1 E5.6000 F6000
G1 X137.640 Y110.550 E0.2128 F1800
G1 X137.640 Y109.702 E0.0706
G1 X140.298 Y112.360 E0.3126
G1 X141.147 Y112.360 E0.0706
G1 X137.640 Y108.853 E0.4124
G1 X137.640 Y108.005 E0.0706
G1 X141.995 Y112.360 E0.5122
G1 X142.844 Y112.360 E0.0706
G1 X137.640 Y107.156 E0.6119
G1 X137.640 Y106.308 E0.0706
G1 X143.692 Y112.360 E0.7117
G1 X144.541 Y112.360 E0.0706
G1 X137.640 Y105.459 E0.8115
G1 X137.640 Y104.611 E0.0706
G1 X145.389 Y112.360 E0.9113
G1 X146.238 Y112.360 E0.0706
G1 X137.640 Y103.762 E1.0111
G1 X137.640 Y102.913 E0.0706
G1 X147.087 Y112.360 E1.1108
G1 X147.935 Y112.360 E0.0706
G1 X137.640 Y102.065 E1.2106
G1 X137.640 Y101.216 E0.0706
G1 X148.784 Y112.360 E1.3104
G1 X149.632 Y112.360 E0.0706
G1 X137.640 Y100.368 E1.4102
G1 X137.640 Y99.519 E0.0706
G1 X150.481 Y112.360 E1.5100
G1 X151.329 Y112.360 E0.0706
G1 X137.640 Y98.671 E1.6097
G1 X137.640 Y97.822 E0.0706
G1 X152.178 Y112.360 E1.7095
G1 X153.026 Y112.360 E0.0706
G1 X137.640 Y96.974 E1.8093
G1 X137.640 Y96.125 E0.0706
G1 X153.875 Y112.360 E1.9091
G1 X154.723 Y112.360 E0.0706
G1 X137.640 Y95.277 E2.0089
G1 X137.640 Y94.428 E0.0706
G1 X155.572 Y112.360 E2.1086
G1 X156.420 Y112.360 E0.0706
G1 X137.640 Y93.580 E2.2084
G1 X137.640 Y92.731 E0.0706
G1 X157.269 Y112.360 E2.3082
G1 X158.117 Y112.360 E0.0706
G1 X137.640 Y91.883 E2.4080
G1 X137.640 Y91.034 E0.0706
G1 X158.966 Y112.360 E2.5078
G1 X159.814 Y112.360 E0.0706
G1 X137.640 Y90.186 E2.6075
G1 X137.640 Y89.337 E0.0706
G1 X160.663 Y112.360 E2.7073
G1 X160.978 Y112.360 E0.0262
G1 X161.245 Y112.093 E0.0314
G1 X137.907 Y88.755 E2.7443
G1 X138.331 Y88.331 E0.0499
G1 X161.669 Y111.669 E2.7443
G1 X162.093 Y111.245 E0.0499
G1 X138.755 Y87.907 E2.7443
G1 X139.022 Y87.640 E0.0314
G1 X139.337 Y87.640 E0.0262
G1 X162.360 Y110.663 E2.7073
G1 X162.360 Y109.814 E0.0706
G1 X140.186 Y87.640 E2.6075
G1 X141.034 Y87.640 E0.0706
G1 X162.360 Y108.966 E2.5078
G1 X162.360 Y108.117 E0.0706
G1 X141.883 Y87.640 E2.4080
G1 X142.731 Y87.640 E0.0706
G1 X162.360 Y107.269 E2.3082
G1 X162.360 Y106.420 E0.0706
G1 X143.580 Y87.640 E2.2084
G1 X144.428 Y87.640 E0.0706
G1 X162.360 Y105.572 E2.1086
G1 X162.360 Y104.723 E0.0706
G1 X145.277 Y87.640 E2.0089
G1 X146.125 Y87.640 E0.0706
G1 X162.360 Y103.875 E1.9091
G1 X162.360 Y103.026 E0.0706
G1 X146.974 Y87.640 E1.8093
G1 X147.822 Y87.640 E0.0706
G1 X162.360 Y102.178 E1.7095
G1 X162.360 Y101.329 E0.0706
G1 X148.671 Y87.640 E1.6097
G1 X149.519 Y87.640 E0.0706
G1 X162.360 Y100.481 E1.5100
G1 X162.360 Y99.632 E0.0706
G1 X150.368 Y87.640 E1.4102
G1 X151.216 Y87.640 E0.0706
G1 X162.360 Y98.784 E1.3104
G1 X162.360 Y97.935 E0.0706
G1 X152.065 Y87.640 E1.2106
G1 X152.914 Y87.640 E0.0706
G1 X162.360 Y97.086 E1.1108
G1 X162.360 Y96.238 E0.0706
G1 X153.762 Y87.640 E1.0111
G1 X154.611 Y87.640 E0.0706
G1 X162.360 Y95.389 E0.9113
G1 X162.360 Y94.541 E0.0706
G1 X155.459 Y87.640 E0.8115
G1 X156.308 Y87.640 E0.0706
G1 X162.360 Y93.692 E0.7117
G1 X162.360 Y92.844 E0.0706
G1 X157.156 Y87.640 E0.6119
G1 X158.005 Y87.640 E0.0706
G1 X162.360 Y91.995 E0.5122
G1 X162.360 Y91.147 E0.0706
G1 X158.853 Y87.640 E0.4124
G1 X159.702 Y87.640 E0.0706
G1 X162.360 Y90.298 E0.3126
G1 X162.360 Y89.450 E0.0706
G1 X160.762 Y87.852 E0.1879
G1 X160.550 Y87.640 F1800
G1 E-5.0000 F3000
; layer 4, Z = 1.817
;Clean the nozzle must use a hardened nozzle!
; feature inner perimeter
; tool H0.400 W0.900
G1 Z6.817 F1500
G1 X157.750 Y107.750 F21000
G1 Z1.817 F1500
G1 E5.0000 F3000
G1 X142.250 Y107.750 E2.3199 F2400
G1 X142.250 Y92.250 E2.3199
G1 X157.750 Y92.250 E2.3199
G1 X157.750 Y107.450 E2.2750
G1 X157.750 Y107.750 F2400
G1 E-5.5000 F6000
G1 Z2.317 F1500
G1 X158.650 Y108.650 F21000
G1 Z1.817 F1500
G1 E5.6000 F6000
G1 X141.350 Y108.650 E2.5893 F2400
G1 X141.350 Y91.350 E2.5893
G1 X158.650 Y91.350 E2.5893
G1 X158.650 Y108.350 E2.5444
G1 X158.650 Y108.650 F2400
G1 E-5.5000 F6000
; feature outer perimeter
G1 Z2.317 F1500
G1 X159.550 Y109.550 F21000
G1 Z1.817 F1500
G1 E5.6000 F6000
G1 X140.450 Y109.550 E2.8587 F2400
G1 X140.450 Y90.450 E2.8587
G1 X159.550 Y90.450 E2.8587
G1 X159.550 Y109.250 E2.8138
G1 X159.550 Y109.550 F2400
G1 X157.350 Y109.550 E-5.5000 F2400
G1 X155.550 Y109.550 F2400
; feature infill
G1 Z2.317 F1500
G1 X156.850 Y106.850 F21000
G1 Z1.817 F1500
G1 E5.6000 F6000
G1 X143.362 Y93.362 E2.8549 F2400
G1 X143.150 Y93.150 F2400
G1 E-5.5000 F6000
G1 Z2.317 F1500
G1 X156.850 Y93.150 F21000
G1 Z1.817 F1500
G1 E5.6000 F6000
G1 X143.362 Y106.638 E2.8549 F2400
G1 X143.150 Y106.850 F2400
G1 E-5.0000 F3000
; layer 5, Z = 2.217
;Clean the nozzle must use a hardened nozzle!
; feature inner perimeter
; tool H0.400 W0.900
G1 Z7.217 F1500
G1 X157.750 Y107.750 F21000
G1 Z2.217 F1500
G1 E5.0000 F3000
G1 X142.250 Y107.750 E2.3199 F2400
G1 X142.250 Y92.250 E2.3199
G1 X157.750 Y92.250 E2.3199
G1 X157.750 Y107.450 E2.2750
G1 X157.750 Y107.750 F2400
G1 E-5.5000 F6000
G1 Z2.717 F1500
G1 X158.650 Y108.650 F21000
G1 Z2.217 F1500
G1 E5.6000 F6000
G1 X141.350 Y108.650 E2.5893 F2400
G1 X141.350 Y91.350 E2.5893
G1 X158.650 Y91.350 E2.5893
G1 X158.650 Y108.350 E2.5444
G1 X158.650 Y108.650 F2400
G1 E-5.5000 F6000
; feature outer perimeter
G1 Z2.717 F1500
G1 X159.550 Y109.550 F21000
G1 Z2.217 F1500
G1 E5.6000 F6000
G1 X140.450 Y109.550 E2.8587 F2400
G1 X140.450 Y90.450 E2.8587
G1 X159.550 Y90.450 E2.8587
G1 X159.550 Y109.250 E2.8138
G1 X159.550 Y109.550 F2400
