; G-Code generated by Simplify3D(R) Version 4.1.2
; Mar 6, 2020 at 6:31:45 PM
; Settings Summary
;   processName,T0
;   applyToModels,Spinner_Demo
;   profileName,Default (modified)
;   profileVersion,2019-07-26 10:50:01
;   baseProfile,Generic Dual Extrusion Profile (modified)
;   printMaterial,PLA
;   printQuality,Medium
;   printExtruders,Both Extruders
;   extruderName,T0,T1,T2
;   extruderToolheadNumber,0,1,2
;   extruderDiameter,0.4,0.4,0.8
;   extruderAutoWidth,1,1,1
;   extruderWidth,0.48,0.48,0.96
;   extrusionMultiplier,1,1,1
;   extruderUseRetract,1,1,1
;   extruderRetractionDistance,1.5,1.5,4.5
;   extruderExtraRestartDistance,0,0,0.1
;   extruderRetractionZLift,0.5,0.5,1
;   extruderRetractionSpeed,6000,6000,6000
;   extruderUseCoasting,1,1,1
;   extruderCoastingDistance,0.3,0.3,0.2
;   extruderUseWipe,1,1,1
;   extruderWipeDistance,4,4,5
;   primaryExtruder,0
;   layerHeight,0.3
;   topSolidLayers,4
;   bottomSolidLayers,4
;   perimeterOutlines,3
;   printPerimetersInsideOut,1
;   startPointOption,1
;   startPointOriginX,0
;   startPointOriginY,100
;   sequentialIslands,1
;   spiralVaseMode,0
;   firstLayerHeightPercentage,100
;   firstLayerWidthPercentage,100
;   firstLayerUnderspeed,0.5
;   useRaft,1
;   raftExtruder,2
;   raftTopLayers,3
;   raftBaseLayers,1
;   raftOffset,2
;   raftSeparationDistance,0
;   raftTopInfill,100
;   aboveRaftSpeedMultiplier,0.3
;   useSkirt,0
;   skirtExtruder,0
;   skirtLayers,1
;   skirtOutlines,1
;   skirtOffset,3
;   usePrimePillar,0
;   primePillarExtruder,999
;   primePillarWidth,10
;   primePillarLocation,6
;   primePillarSpeedMultiplier,1
;   useOozeShield,0
;   oozeShieldExtruder,0
;   oozeShieldOffset,2
;   oozeShieldOutlines,1
;   oozeShieldSidewallShape,2
;   oozeShieldSidewallAngle,30
;   oozeShieldSpeedMultiplier,1
;   infillExtruder,0
;   internalInfillPattern,Grid
;   externalInfillPattern,Rectilinear
;   infillPercentage,12
;   outlineOverlapPercentage,0
;   infillExtrusionWidthPercentage,100
;   minInfillLength,5
;   infillLayerInterval,1
;   internalInfillAngles,45,-45
;   overlapInternalInfillAngles,1
;   externalInfillAngles,45,-45
;   generateSupport,1
;   supportExtruder,2
;   supportInfillPercentage,20
;   supportExtraInflation,0.5
;   supportBaseLayers,1
;   denseSupportExtruder,2
;   denseSupportLayers,3
;   denseSupportInfillPercentage,90
;   supportLayerInterval,1
;   supportHorizontalPartOffset,0.75
;   supportUpperSeparationLayers,0
;   supportLowerSeparationLayers,0
;   supportType,0
;   supportGridSpacing,100
;   maxOverhangAngle,89
;   supportAngles,45,-45
;   temperatureName,Primary Extruder
;   temperatureNumber,0
;   temperatureSetpointCount,1
;   temperatureSetpointLayers,1
;   temperatureSetpointTemperatures,190
;   temperatureStabilizeAtStartup,1
;   temperatureHeatedBed,0
;   fanLayers,1
;   fanSpeeds,0
;   blipFanToFullPower,0
;   adjustSpeedForCooling,1
;   minSpeedLayerTime,5
;   minCoolingSpeedSlowdown,10
;   increaseFanForCooling,0
;   minFanLayerTime,5
;   maxCoolingFanSpeed,75
;   increaseFanForBridging,0
;   bridgingFanSpeed,75
;   use5D,1
;   relativeEdistances,1
;   allowEaxisZeroing,1
;   independentExtruderAxes,0
;   includeM10123,0
;   stickySupport,1
;   applyToolheadOffsets,0
;   gcodeXoffset,0
;   gcodeYoffset,0
;   gcodeZoffset,0
;   overrideMachineDefinition,1
;   machineTypeOverride,0
;   strokeXoverride,300
;   strokeYoverride,200
;   strokeZoverride,300
;   originOffsetXoverride,0
;   originOffsetYoverride,0
;   originOffsetZoverride,0
;   homeXdirOverride,-1
;   homeYdirOverride,-1
;   homeZdirOverride,-1
;   flipXoverride,1
;   flipYoverride,-1
;   flipZoverride,1
;   toolheadOffsets,0,0|0,0|0,0|0,0|0,0|0,0
;   overrideFirmwareConfiguration,0
;   firmwareTypeOverride,RepRap (Marlin/Repetier/Sprinter)
;   GPXconfigOverride,r2
;   baudRateOverride,115200
;   overridePrinterModels,1
;   printerModelsOverride
;   startingGcode,G29 S1,,T0
;   layerChangeGcode,
;   retractionGcode,
;   toolChangeGcode,
;   endingGcode,;Drop Bed,G91,G1 Z2 F1000,G90,,; Drop off the tool,T-1,,; Disable Mesh Compensation.,G29 S2,,; Park,G1 X-20 Y200 F50000,,M0	;turn off all heaters
;   exportFileFormat,gcode
;   celebration,0
;   celebrationSong,Star Wars
;   postProcessing,
;   defaultSpeed,3000
;   outlineUnderspeed,1
;   solidInfillUnderspeed,1
;   supportUnderspeed,1
;   rapidXYspeed,21000
;   rapidZspeed,1500
;   minBridgingArea,50
;   bridgingExtraInflation,1
;   bridgingExtrusionMultiplier,1
;   bridgingSpeedMultiplier,1
;   useFixedBridgingAngle,0
;   fixedBridgingAngle,0
;   applyBridgingToPerimeters,1
;   filamentDiameters,1.75|1.75|1.75|1.75|1.75|1.75
;   filamentPricesPerKg,46|46|46|46|46|46
;   filamentDensities,1.25|1.25|1.25|1.25|1.25|1.25
;   useMinPrintHeight,0
;   minPrintHeight,12
;   useMaxPrintHeight,0
;   maxPrintHeight,1
;   useDiaphragm,0
;   diaphragmLayerInterval,20
;   robustSlicing,1
;   mergeAllIntoSolid,0
;   onlyRetractWhenCrossingOutline,0
;   retractBetweenLayers,0
;   useRetractionMinTravel,1
;   retractionMinTravel,1
;   retractWhileWiping,1
;   onlyWipeOutlines,1
;   avoidCrossingOutline,0
;   maxMovementDetourFactor,3
;   toolChangeRetractionDistance,0
;   toolChangeExtraRestartDistance,0
;   toolChangeRetractionSpeed,3000
;   externalThinWallType,0
;   internalThinWallType,0
;   thinWallAllowedOverlapPercentage,5
;   singleExtrusionMinLength,0.5
;   singleExtrusionMinPrintingWidthPercentage,50
;   singleExtrusionMaxPrintingWidthPercentage,150
;   singleExtrusionEndpointExtension,0.2
;   horizontalSizeCompensation,0.25
G90
M83
M106 S0
M104 S190 T0
M109 S190 T0
G29 S1
T0
; process T0
; layer 1, Z = 1.000
T2
G1 E-4.5000 F6000
; feature raft
; tool H1.000 W1.600
G1 Z1.000 F1500
G1 X150.104 Y83.001 F21000
G1 E4.6000 F6000
G1 X151.374 Y83.056 E0.8457 F375
G1 X151.421 Y83.060 E0.0310
G1 X152.681 Y83.213 E0.8447
G1 X152.727 Y83.220 E0.0307
G1 X153.972 Y83.471 E0.8448
G1 X154.017 Y83.482 E0.0309
G1 X155.239 Y83.827 E0.8448
G1 X155.283 Y83.842 E0.0307
G1 X156.474 Y84.281 E0.8446
G1 X156.517 Y84.299 E0.0309
G1 X157.666 Y84.827 E0.8408
G1 X157.697 Y84.842 E0.0234
G1 X158.265 Y85.144 E0.4280
G1 X158.291 Y85.159 E0.0196
G1 X159.859 Y86.094 E1.2143
G1 X160.330 Y86.288 E0.3391
G1 X160.833 Y86.421 E0.3458
G1 X161.368 Y86.491 E0.3589
G1 X161.632 Y86.500 E0.1758
G1 X170.026 Y86.500 E5.5836
G1 X170.068 Y86.501 E0.0284
G1 X170.797 Y86.553 E0.4861
G1 X170.868 Y86.563 E0.0473
G1 X171.354 Y86.656 E0.3291
G1 X171.411 Y86.670 E0.0395
G1 X172.036 Y86.855 E0.4332
G1 X172.111 Y86.883 E0.0536
G1 X172.807 Y87.197 E0.5076
G1 X172.881 Y87.237 E0.0564
G1 X173.516 Y87.639 E0.4995
G1 X173.568 Y87.676 E0.0423
G1 X173.886 Y87.928 E0.2700
G1 X173.937 Y87.974 E0.0460
G1 X174.535 Y88.571 E0.5619
G1 X174.593 Y88.640 E0.0599
G1 X175.040 Y89.246 E0.5012
G1 X175.075 Y89.299 E0.0423
G1 X175.279 Y89.647 E0.2683
G1 X175.306 Y89.700 E0.0395
G1 X175.578 Y90.292 E0.4336
G1 X175.608 Y90.370 E0.0550
G1 X175.852 Y91.178 E0.5620
G1 X175.868 Y91.246 E0.0466
G1 X175.939 Y91.645 E0.2696
G1 X175.947 Y91.708 E0.0422
G1 X175.998 Y92.432 E0.4825
G1 X176.000 Y92.474 E0.0283
G1 X176.000 Y107.521 E10.0089
G1 X175.999 Y107.551 E0.0198
G1 X175.976 Y108.019 E0.3118
G1 X175.970 Y108.077 E0.0390
G1 X175.876 Y108.716 E0.4294
G1 X175.862 Y108.782 E0.0448
G1 X175.735 Y109.262 E0.3305
G1 X175.716 Y109.319 E0.0399
G1 X175.489 Y109.923 E0.4295
G1 X175.462 Y109.984 E0.0440
G1 X175.237 Y110.426 E0.3302
G1 X175.207 Y110.480 E0.0411
G1 X174.859 Y111.019 E0.4267
G1 X174.825 Y111.067 E0.0391
G1 X174.573 Y111.385 E0.2697
G1 X174.527 Y111.436 E0.0460
G1 X173.929 Y112.034 E0.5624
G1 X173.865 Y112.090 E0.0567
G1 X173.340 Y112.484 E0.4364
G1 X173.288 Y112.518 E0.0414
G1 X172.862 Y112.774 E0.3303
G1 X172.804 Y112.804 E0.0436
G1 X172.218 Y113.074 E0.4294
G1 X172.161 Y113.096 E0.0403
G1 X171.693 Y113.257 E0.3292
G1 X171.625 Y113.276 E0.0471
G1 X170.886 Y113.434 E0.5028
G1 X170.802 Y113.446 E0.0564
G1 X170.068 Y113.498 E0.4895
G1 X170.026 Y113.500 E0.0283
G1 X161.632 Y113.500 E5.5836
G1 X161.368 Y113.509 E0.1758
G1 X160.833 Y113.579 E0.3589
G1 X160.330 Y113.712 E0.3458
G1 X159.859 Y113.906 E0.3391
G1 X158.291 Y114.841 E1.2143
G1 X158.265 Y114.856 E0.0196
G1 X157.697 Y115.158 E0.4280
G1 X157.666 Y115.173 E0.0234
G1 X156.517 Y115.701 E0.8408
G1 X156.474 Y115.719 E0.0308
G1 X155.283 Y116.158 E0.8449
G1 X155.239 Y116.173 E0.0307
G1 X154.020 Y116.518 E0.8425
G1 X153.983 Y116.527 E0.0256
G1 X153.199 Y116.695 E0.5332
G1 X153.166 Y116.702 E0.0227
G1 X152.074 Y116.873 E0.7353
G1 X152.030 Y116.878 E0.0292
G1 X150.761 Y116.983 E0.8466
G1 X150.712 Y116.985 E0.0326
G1 X149.287 Y116.985 E0.9483
G1 X149.238 Y116.983 E0.0327
G1 X147.971 Y116.878 E0.8457
G1 X147.925 Y116.873 E0.0309
G1 X146.671 Y116.671 E0.8445
G1 X146.625 Y116.661 E0.0312
G1 X145.391 Y116.363 E0.8444
G1 X145.346 Y116.351 E0.0311
G1 X144.139 Y115.958 E0.8445
G1 X144.095 Y115.942 E0.0311
G1 X142.922 Y115.457 E0.8444
G1 X142.880 Y115.437 E0.0311
G1 X141.747 Y114.862 E0.8448
G1 X141.706 Y114.839 E0.0315
G1 X140.400 Y114.042 E1.0181
G1 X139.913 Y113.804 E0.3602
G1 X139.421 Y113.637 E0.3459
G1 X138.911 Y113.536 E0.3458
G1 X138.349 Y113.500 E0.3745
G1 X124.703 Y113.500 E9.0773
G1 X124.000 Y112.797 E0.6613
G1 X124.000 Y87.203 E17.0253
G1 X124.703 Y86.500 E0.6613
G1 X138.349 Y86.500 E9.0773
G1 X138.911 Y86.463 E0.3745
G1 X139.421 Y86.363 E0.3458
G1 X139.913 Y86.196 E0.3459
G1 X140.392 Y85.962 E0.3549
G1 X141.158 Y85.480 E0.6015
G1 X141.185 Y85.464 E0.0209
G1 X142.288 Y84.850 E0.8396
G1 X142.329 Y84.829 E0.0308
G1 X143.483 Y84.299 E0.8448
G1 X143.526 Y84.281 E0.0309
G1 X144.717 Y83.842 E0.8446
G1 X144.761 Y83.827 E0.0307
G1 X145.983 Y83.482 E0.8448
G1 X146.028 Y83.471 E0.0309
G1 X147.273 Y83.220 E0.8448
G1 X147.319 Y83.213 E0.0307
G1 X148.581 Y83.060 E0.8458
G1 X148.630 Y83.056 E0.0327
G1 X149.904 Y83.006 E0.8480
G1 X150.054 Y83.001 F375
G1 X150.104 Y83.001
G1 E-4.5000 F6000
G1 Z2.000 F1500
G1 X150.200 Y90.003 F21000
G1 Z1.000 F1500
G1 E4.6000 F6000
G1 X149.403 Y90.020 E0.5304 F375
G1 X148.374 Y90.135 E0.6892
G1 X147.483 Y90.324 E0.6059
G1 X146.608 Y90.595 E0.6088
G1 X145.750 Y90.949 E0.6178
G1 X145.364 Y91.141 E0.2870
G1 X144.658 Y91.548 E0.5419
G1 X143.907 Y92.073 E0.6096
G1 X143.210 Y92.661 E0.6062
G1 X142.488 Y93.403 E0.6887
G1 X141.977 Y94.032 E0.5396
G1 X141.727 Y94.384 E0.2866
G1 X141.242 Y95.176 E0.6177
G1 X140.838 Y95.997 E0.6088
G1 X140.510 Y96.851 E0.6087
G1 X140.262 Y97.732 E0.6087
G1 X140.095 Y98.631 E0.6086
G1 X140.012 Y99.543 E0.6087
G1 X140.012 Y100.457 E0.6085
G1 X140.096 Y101.370 E0.6094
G1 X140.262 Y102.268 E0.6079
G1 X140.510 Y103.149 E0.6087
G1 X140.838 Y104.003 E0.6087
G1 X141.242 Y104.824 E0.6088
G1 X141.720 Y105.605 E0.6086
G1 X142.267 Y106.338 E0.6086
G1 X142.879 Y107.019 E0.6092
G1 X143.475 Y107.576 E0.5421
G1 X143.808 Y107.850 E0.2871
G1 X144.563 Y108.391 E0.6178
G1 X145.353 Y108.853 E0.6086
G1 X146.190 Y109.244 E0.6149
G1 X146.706 Y109.440 E0.3668
G1 X147.495 Y109.680 E0.5487
G1 X147.914 Y109.779 E0.2868
G1 X148.844 Y109.932 E0.6269
G1 X149.273 Y109.973 E0.2862
G1 X150.201 Y109.997 E0.6178
G1 X151.114 Y109.936 E0.6087
G1 X152.018 Y109.793 E0.6086
G1 X152.904 Y109.567 E0.6087
G1 X153.766 Y109.262 E0.6080
G1 X154.598 Y108.879 E0.6093
G1 X155.402 Y108.414 E0.6179
G1 X155.759 Y108.174 E0.2862
G1 X156.492 Y107.604 E0.6177
G1 X157.160 Y106.979 E0.6087
G1 X157.768 Y106.295 E0.6086
G1 X158.311 Y105.558 E0.6086
G1 X158.784 Y104.775 E0.6086
G1 X159.184 Y103.952 E0.6091
G1 X159.469 Y103.207 E0.5305
G1 X159.751 Y102.210 E0.6888
G1 X159.914 Y101.300 E0.6154
G1 X159.961 Y100.872 E0.2861
G1 X159.999 Y99.931 E0.6268
G1 X159.986 Y99.499 E0.2872
G1 X159.912 Y98.688 E0.5420
G1 X159.750 Y97.786 E0.6094
G1 X159.507 Y96.904 E0.6087
G1 X159.184 Y96.048 E0.6088
G1 X158.784 Y95.225 E0.6086
G1 X158.311 Y94.442 E0.6086
G1 X157.768 Y93.705 E0.6086
G1 X157.161 Y93.022 E0.6080
G1 X156.492 Y92.396 E0.6093
G1 X155.770 Y91.834 E0.6086
G1 X154.999 Y91.341 E0.6089
G1 X154.187 Y90.920 E0.6085
G1 X153.339 Y90.575 E0.6086
G1 X152.464 Y90.310 E0.6088
G1 X151.554 Y90.122 E0.6178
G1 X151.128 Y90.065 E0.2861
G1 X150.400 Y90.017 E0.4851
G1 X150.200 Y90.003 F375
G1 E-4.5000 F6000
G1 Z2.000 F1500
G1 X142.998 Y86.286 F21000
G1 Z1.000 F1500
G1 E4.6000 F6000
G1 X157.004 Y86.286 E9.3166 F375
G1 X157.493 Y86.546 E0.3682
G1 X159.141 Y87.528 E1.2766
G1 X159.818 Y87.807 E0.4868
G1 X160.522 Y87.994 E0.4845
G1 X161.237 Y88.088 E0.4803
G1 X161.606 Y88.100 E0.2451
G1 X169.990 Y88.100 E5.5774
G1 X170.624 Y88.145 E0.4229
G1 X171.003 Y88.218 E0.2565
G1 X171.515 Y88.370 E0.3554
G1 X172.085 Y88.627 E0.4157
G1 X172.615 Y88.962 E0.4172
G1 X172.847 Y89.146 E0.1966
G1 X173.350 Y89.649 E0.4736
G1 X173.721 Y90.153 E0.4160
G1 X173.873 Y90.413 E0.2003
G1 X174.077 Y90.857 E0.3253
G1 X157.120 Y90.857 E11.2800
G1 X156.694 Y90.526 E0.3587
G1 X155.800 Y89.954 E0.7064
G1 X154.857 Y89.466 E0.7060
G1 X153.874 Y89.066 E0.7061
G1 X152.858 Y88.757 E0.7063
G1 X151.823 Y88.544 E0.7031
G1 X151.288 Y88.472 E0.3592
G1 X150.236 Y88.402 E0.7011
G1 X149.298 Y88.422 E0.6245
G1 X148.119 Y88.553 E0.7891
G1 X147.079 Y88.774 E0.7068
G1 X146.065 Y89.088 E0.7063
G1 X145.088 Y89.492 E0.7031
G1 X144.607 Y89.730 E0.3571
G1 X143.798 Y90.197 E0.6212
G1 X142.931 Y90.803 E0.7040
G1 X142.867 Y90.857 E0.0558
G1 X125.600 Y90.857 E11.4858
G1 X125.600 Y95.429 E3.0409
G1 X139.342 Y95.429 E9.1413
G1 X138.990 Y96.347 E0.6540
G1 X138.702 Y97.368 E0.7062
G1 X138.509 Y98.412 E0.7061
G1 X138.412 Y99.469 E0.7062
G1 X138.412 Y100.000 E0.3530
G1 X125.600 Y100.000 E8.5224
G1 X125.600 Y104.571 E3.0409
G1 X139.342 Y104.571 E9.1413
G1 X139.370 Y104.645 E0.0522
G1 X139.839 Y105.597 E0.7063
G1 X140.394 Y106.503 E0.7061
G1 X141.028 Y107.353 E0.7061
G1 X141.736 Y108.140 E0.7040
G1 X142.418 Y108.778 E0.6214
G1 X142.832 Y109.120 E0.3569
G1 X142.865 Y109.143 E0.0264
G1 X125.600 Y109.143 E11.4844
G1 X125.600 Y111.900 E1.8341
G1 X138.401 Y111.900 E8.5151
G1 X139.119 Y111.947 E0.4785
G1 X139.833 Y112.088 E0.4846
G1 X140.523 Y112.321 E0.4846
G1 X141.170 Y112.638 E0.4789
G1 X142.506 Y113.453 E1.0413
G1 X143.020 Y113.714 E0.3837
G1 X157.004 Y113.714 E9.3018
G1 X157.493 Y113.454 E0.3683
G1 X159.141 Y112.472 E1.2766
G1 X159.818 Y112.193 E0.4868
G1 X160.522 Y112.006 E0.4845
G1 X161.237 Y111.912 E0.4803
G1 X161.606 Y111.900 E0.2451
G1 X169.990 Y111.900 E5.5772
G1 X170.619 Y111.855 E0.4192
G1 X171.231 Y111.724 E0.4167
G1 X171.596 Y111.599 E0.2564
G1 X172.087 Y111.373 E0.3594
G1 X172.421 Y111.173 E0.2596
G1 X172.848 Y110.853 E0.3547
G1 X173.355 Y110.346 E0.4771
G1 X173.541 Y110.111 E0.1990
G1 X173.834 Y109.656 E0.3603
G1 X174.011 Y109.308 E0.2594
G1 X174.073 Y109.143 E0.1176
G1 X157.120 Y109.143 E11.2772
G1 X157.532 Y108.822 E0.3475
G1 X158.307 Y108.097 E0.7062
G1 X159.013 Y107.303 E0.7062
G1 X159.643 Y106.449 E0.7061
G1 X160.192 Y105.540 E0.7061
G1 X160.654 Y104.588 E0.7041
G1 X160.660 Y104.571 E0.0120
G1 X174.400 Y104.571 E9.1396
G1 X174.400 Y100.000 E3.0409
G1 X161.597 Y100.000 E8.5166
G1 X161.599 Y99.940 E0.0401
G1 X161.584 Y99.403 E0.3571
G1 X161.499 Y98.473 E0.6213
G1 X161.312 Y97.431 E0.7040
G1 X161.030 Y96.408 E0.7062
G1 X160.661 Y95.429 E0.6963
G1 X174.200 Y95.429 E9.0064
G1 X174.400 Y95.429 F375
G1 E-4.5000 F6000
; layer 2, Z = 1.444
; tool H0.444 W0.800
G1 Z2.000 F1500
G1 X175.592 Y110.612 F21000
G1 Z1.444 F1500
G1 E4.6000 F6000
G1 X173.116 Y113.088 E0.5176 F2250
G1 X173.059 Y113.122 E0.0099
G1 X172.981 Y113.163 E0.0129
G1 X172.376 Y113.442 E0.0985
G1 X172.301 Y113.472 E0.0119
G1 X171.812 Y113.639 E0.0764
G1 X171.721 Y113.664 E0.0140
G1 X171.323 Y113.750 E0.0601
G1 X176.265 Y108.807 E1.0332
G1 X176.270 Y108.785 E0.0033
G1 X176.368 Y108.126 E0.0986
G1 X176.375 Y108.048 E0.0115
G1 X176.399 Y107.566 E0.0714
G1 X176.400 Y107.542 E0.0036
G1 X170.041 Y113.900 E1.3292
G1 X170.033 Y113.900 E0.0013
G1 X168.910 Y113.900 E0.1660
G1 X176.400 Y106.410 E1.5658
G1 X176.400 Y105.278 E0.1672
G1 X167.778 Y113.900 E1.8024
G1 X166.647 Y113.900 E0.1672
G1 X176.400 Y104.147 E2.0389
G1 X176.400 Y103.016 E0.1672
G1 X165.516 Y113.900 E2.2754
G1 X164.384 Y113.900 E0.1672
G1 X176.400 Y101.884 E2.5119
G1 X176.400 Y100.753 E0.1672
