; G-Code generated by Simplify3D(R) Version 4.1.2
; Feb 12, 2020 at 5:16:07 PM
; Settings Summary
;   processName,T0
;   applyToModels,gear12-2
;   profileName,Default (modified)
;   profileVersion,2019-07-26 10:50:01
;   baseProfile,Generic Dual Extrusion Profile (modified)
;   printMaterial,PLA
;   printQuality,Medium
;   printExtruders,Both Extruders
;   extruderName,T0,T1
;   extruderToolheadNumber,0,1
;   extruderDiameter,0.4,0.4
;   extruderAutoWidth,1,1
;   extruderWidth,0.48,0.48
;   extrusionMultiplier,1,1
;   extruderUseRetract,1,1
;   extruderRetractionDistance,1.5,1.5
;   extruderExtraRestartDistance,0,0
;   extruderRetractionZLift,0.5,0.5
;   extruderRetractionSpeed,6000,6000
;   extruderUseCoasting,1,1
;   extruderCoastingDistance,0.3,0.3
;   extruderUseWipe,1,1
;   extruderWipeDistance,4,4
;   primaryExtruder,0
;   layerHeight,0.15
;   topSolidLayers,4
;   bottomSolidLayers,4
;   perimeterOutlines,3
;   printPerimetersInsideOut,1
;   startPointOption,1
;   startPointOriginX,0
;   startPointOriginY,100
;   sequentialIslands,1
;   spiralVaseMode,0
;   firstLayerHeightPercentage,100
;   firstLayerWidthPercentage,100
;   firstLayerUnderspeed,0.5
;   useRaft,1
;   raftExtruder,1
;   raftTopLayers,3
;   raftBaseLayers,1
;   raftOffset,1
;   raftSeparationDistance,0
;   raftTopInfill,100
;   aboveRaftSpeedMultiplier,0.3
;   useSkirt,1
;   skirtExtruder,0
;   skirtLayers,1
;   skirtOutlines,1
;   skirtOffset,3
;   usePrimePillar,0
;   primePillarExtruder,999
;   primePillarWidth,10
;   primePillarLocation,6
;   primePillarSpeedMultiplier,1
;   useOozeShield,0
;   oozeShieldExtruder,0
;   oozeShieldOffset,2
;   oozeShieldOutlines,1
;   oozeShieldSidewallShape,2
;   oozeShieldSidewallAngle,30
;   oozeShieldSpeedMultiplier,1
;   infillExtruder,0
;   internalInfillPattern,Grid
;   externalInfillPattern,Rectilinear
;   infillPercentage,12
;   outlineOverlapPercentage,0
;   infillExtrusionWidthPercentage,100
;   minInfillLength,5
;   infillLayerInterval,1
;   internalInfillAngles,45,-45
;   overlapInternalInfillAngles,1
;   externalInfillAngles,45,-45
;   generateSupport,0
;   supportExtruder,0
;   supportInfillPercentage,20
;   supportExtraInflation,0.5
;   supportBaseLayers,1
;   denseSupportExtruder,0
;   denseSupportLayers,0
;   denseSupportInfillPercentage,90
;   supportLayerInterval,1
;   supportHorizontalPartOffset,0.75
;   supportUpperSeparationLayers,1
;   supportLowerSeparationLayers,1
;   supportType,0
;   supportGridSpacing,100
;   maxOverhangAngle,89
;   supportAngles,45
;   temperatureName,Primary Extruder,Heated Bed
;   temperatureNumber,0,0
;   temperatureSetpointCount,1,1
;   temperatureSetpointLayers,1,1
;   temperatureSetpointTemperatures,215,55
;   temperatureStabilizeAtStartup,1,1
;   temperatureHeatedBed,0,1
;   fanLayers,1
;   fanSpeeds,0
;   blipFanToFullPower,0
;   adjustSpeedForCooling,1
;   minSpeedLayerTime,5
;   minCoolingSpeedSlowdown,10
;   increaseFanForCooling,0
;   minFanLayerTime,5
;   maxCoolingFanSpeed,75
;   increaseFanForBridging,0
;   bridgingFanSpeed,75
;   use5D,1
;   relativeEdistances,1
;   allowEaxisZeroing,1
;   independentExtruderAxes,0
;   includeM10123,0
;   stickySupport,1
;   applyToolheadOffsets,0
;   gcodeXoffset,0
;   gcodeYoffset,0
;   gcodeZoffset,0
;   overrideMachineDefinition,1
;   machineTypeOverride,0
;   strokeXoverride,300
;   strokeYoverride,200
;   strokeZoverride,300
;   originOffsetXoverride,0
;   originOffsetYoverride,0
;   originOffsetZoverride,0
;   homeXdirOverride,-1
;   homeYdirOverride,-1
;   homeZdirOverride,-1
;   flipXoverride,1
;   flipYoverride,-1
;   flipZoverride,1
;   toolheadOffsets,0,0|0,0|0,0|0,0|0,0|0,0
;   overrideFirmwareConfiguration,0
;   firmwareTypeOverride,RepRap (Marlin/Repetier/Sprinter)
;   GPXconfigOverride,r2
;   baudRateOverride,115200
;   overridePrinterModels,1
;   printerModelsOverride
;   startingGcode,G29 S1,,T0
;   layerChangeGcode,
;   retractionGcode,
;   toolChangeGcode,
;   endingGcode,;Drop Bed,G91,G1 Z2 F1000,G90,,; Drop off the tool,T-1,,; Disable Mesh Compensation.,G29 S2,,; Park,G1 X-20 Y200 F50000,,M0	;turn off all heaters
;   exportFileFormat,gcode
;   celebration,0
;   celebrationSong,Star Wars
;   postProcessing,
;   defaultSpeed,3000
;   outlineUnderspeed,1
;   solidInfillUnderspeed,1
;   supportUnderspeed,1
;   rapidXYspeed,21000
;   rapidZspeed,1500
;   minBridgingArea,50
;   bridgingExtraInflation,1
;   bridgingExtrusionMultiplier,1
;   bridgingSpeedMultiplier,1
;   useFixedBridgingAngle,0
;   fixedBridgingAngle,0
;   applyBridgingToPerimeters,1
;   filamentDiameters,1.75|1.75|1.75|1.75|1.75|1.75
;   filamentPricesPerKg,46|46|46|46|46|46
;   filamentDensities,1.25|1.25|1.25|1.25|1.25|1.25
;   useMinPrintHeight,0
;   minPrintHeight,12
;   useMaxPrintHeight,0
;   maxPrintHeight,1
;   useDiaphragm,0
;   diaphragmLayerInterval,20
;   robustSlicing,1
;   mergeAllIntoSolid,0
;   onlyRetractWhenCrossingOutline,0
;   retractBetweenLayers,0
;   useRetractionMinTravel,1
;   retractionMinTravel,1
;   retractWhileWiping,1
;   onlyWipeOutlines,1
;   avoidCrossingOutline,0
;   maxMovementDetourFactor,3
;   toolChangeRetractionDistance,5
;   toolChangeExtraRestartDistance,0
;   toolChangeRetractionSpeed,3000
;   externalThinWallType,0
;   internalThinWallType,0
;   thinWallAllowedOverlapPercentage,5
;   singleExtrusionMinLength,0.5
;   singleExtrusionMinPrintingWidthPercentage,50
;   singleExtrusionMaxPrintingWidthPercentage,150
;   singleExtrusionEndpointExtension,0.2
;   horizontalSizeCompensation,0
G90
M83
M106 S0
M140 S55
M190 S55
M104 S215 T0
M109 S215 T0
G29 S1
T0
; process T0
; layer 1, Z = 0.500
T0
G1 E-1.5000 F6000
; feature skirt
; tool H0.500 W0.480
G1 Z0.500 F1500
G1 X153.087 Y68.897 F21000
G1 E1.5000 F6000
G1 X153.302 Y68.910 E0.0215 F1500
G1 X153.434 Y68.924 E0.0133
G1 X154.208 Y69.035 E0.0780
G1 X154.354 Y69.063 E0.0148
G1 X154.588 Y69.119 E0.0240
G1 X154.730 Y69.160 E0.0148
G1 X155.598 Y69.454 E0.0914
G1 X155.735 Y69.507 E0.0146
G1 X155.951 Y69.603 E0.0236
G1 X156.082 Y69.668 E0.0146
G1 X156.729 Y70.027 E0.0739
G1 X156.838 Y70.094 E0.0127
G1 X157.010 Y70.207 E0.0206
G1 X157.113 Y70.282 E0.0127
G1 X157.687 Y70.731 E0.0727
G1 X157.757 Y70.789 E0.0091
G1 X157.868 Y70.887 E0.0147
G1 X157.935 Y70.949 E0.0091
G1 X159.012 Y72.008 E0.1508
G1 X159.148 Y72.106 E0.0167
G1 X159.251 Y72.159 E0.0116
G1 X159.362 Y72.193 E0.0115
G1 X159.497 Y72.211 E0.0136
G1 X159.739 Y72.203 E0.0242
G1 X160.667 Y72.053 E0.0938
G1 X160.711 Y72.046 E0.0044
G1 X160.782 Y72.037 E0.0071
G1 X160.826 Y72.031 E0.0044
G1 X161.677 Y71.941 E0.0854
G1 X161.812 Y71.932 E0.0135
G1 X162.032 Y71.927 E0.0219
G1 X162.167 Y71.929 E0.0135
G1 X162.925 Y71.976 E0.0758
G1 X163.049 Y71.988 E0.0125
G1 X163.249 Y72.016 E0.0201
G1 X163.372 Y72.038 E0.0124
G1 X164.024 Y72.180 E0.0666
G1 X164.144 Y72.211 E0.0124
G1 X164.337 Y72.269 E0.0201
G1 X164.454 Y72.309 E0.0124
G1 X165.172 Y72.586 E0.0768
G1 X165.295 Y72.640 E0.0134
G1 X165.490 Y72.734 E0.0216
G1 X165.608 Y72.797 E0.0134
G1 X166.273 Y73.190 E0.0771
G1 X166.385 Y73.263 E0.0132
G1 X166.560 Y73.386 E0.0214
G1 X166.665 Y73.467 E0.0132
G1 X167.250 Y73.958 E0.0762
G1 X167.350 Y74.049 E0.0135
G1 X167.505 Y74.203 E0.0218
G1 X167.597 Y74.302 E0.0135
G1 X168.105 Y74.897 E0.0781
G1 X168.188 Y75.002 E0.0134
G1 X168.315 Y75.178 E0.0216
G1 X168.389 Y75.290 E0.0134
G1 X168.773 Y75.930 E0.0744
G1 X168.836 Y76.044 E0.0130
G1 X168.929 Y76.234 E0.0211
G1 X168.983 Y76.353 E0.0130
G1 X169.620 Y77.950 E0.1716
G1 X169.720 Y78.126 E0.0201
G1 X169.794 Y78.219 E0.0119
G1 X169.887 Y78.302 E0.0124
G1 X169.955 Y78.345 E0.0081
G1 X170.269 Y78.478 E0.0340
G1 X171.941 Y78.953 E0.1734
G1 X172.088 Y79.002 E0.0155
G1 X172.323 Y79.094 E0.0251
G1 X172.465 Y79.158 E0.0155
G1 X173.163 Y79.511 E0.0780
G1 X173.280 Y79.577 E0.0135
G1 X173.466 Y79.692 E0.0218
G1 X173.578 Y79.767 E0.0135
G1 X174.203 Y80.228 E0.0774
G1 X174.309 Y80.313 E0.0136
G1 X174.474 Y80.458 E0.0220
G1 X174.573 Y80.552 E0.0136
G1 X175.116 Y81.115 E0.0781
G1 X175.205 Y81.216 E0.0134
G1 X175.342 Y81.383 E0.0216
G1 X175.422 Y81.491 E0.0134
G1 X175.858 Y82.125 E0.0768
G1 X175.928 Y82.236 E0.0131
G1 X176.034 Y82.421 E0.0212
G1 X176.095 Y82.537 E0.0131
G1 X176.417 Y83.223 E0.0756
G1 X176.468 Y83.345 E0.0133
G1 X176.544 Y83.547 E0.0215
G1 X176.585 Y83.673 E0.0133
G1 X176.791 Y84.401 E0.0755
G1 X176.821 Y84.529 E0.0131
G1 X176.862 Y84.737 E0.0212
G1 X176.883 Y84.867 E0.0131
G1 X176.966 Y85.600 E0.0737
G1 X176.975 Y85.719 E0.0119
G1 X176.983 Y85.912 E0.0193
G1 X176.983 Y86.031 E0.0119
G1 X176.923 Y87.824 E0.1790
G1 X176.940 Y87.957 E0.0134
G1 X176.972 Y88.066 E0.0113
G1 X177.024 Y88.173 E0.0118
G1 X177.107 Y88.287 E0.0141
G1 X177.318 Y88.499 E0.0299
G1 X178.235 Y89.232 E0.1171
G1 X178.299 Y89.286 E0.0084
G1 X178.401 Y89.376 E0.0135
G1 X178.462 Y89.434 E0.0084
G1 X178.972 Y89.937 E0.0715
G1 X179.060 Y90.031 E0.0128
G1 X179.196 Y90.188 E0.0208
G1 X179.276 Y90.288 E0.0128
G1 X179.731 Y90.906 E0.0765
G1 X179.807 Y91.020 E0.0136
G1 X179.922 Y91.207 E0.0220
G1 X179.988 Y91.327 E0.0136
G1 X180.338 Y92.022 E0.0777
G1 X180.394 Y92.146 E0.0135
G1 X180.475 Y92.348 E0.0218
G1 X180.520 Y92.475 E0.0135
G1 X180.749 Y93.219 E0.0776
G1 X180.783 Y93.349 E0.0134
G1 X180.830 Y93.560 E0.0216
G1 X180.853 Y93.693 E0.0134
G1 X180.956 Y94.460 E0.0772
G1 X180.969 Y94.592 E0.0132
G1 X180.980 Y94.806 E0.0214
G1 X180.981 Y94.938 E0.0132
G1 X180.958 Y95.692 E0.0753
G1 X180.949 Y95.821 E0.0129
G1 X180.926 Y96.030 E0.0209
G1 X180.907 Y96.158 E0.0129
G1 X180.770 Y96.870 E0.0723
G1 X180.741 Y96.995 E0.0129
G1 X180.685 Y97.197 E0.0209
G1 X180.646 Y97.320 E0.0129
G1 X180.385 Y98.034 E0.0758
G1 X180.346 Y98.132 E0.0106
G1 X180.277 Y98.289 E0.0171
G1 X180.231 Y98.385 E0.0106
G1 X179.769 Y99.271 E0.0998
G1 X179.554 Y99.770 E0.0542
G1 X179.524 Y99.889 E0.0123
G1 X179.515 Y100.000 E0.0111
G1 X179.524 Y100.111 E0.0111
G1 X179.554 Y100.230 E0.0123
G1 X179.769 Y100.729 E0.0542
G1 X180.231 Y101.615 E0.0998
G1 X180.277 Y101.711 E0.0106
G1 X180.346 Y101.868 E0.0171
G1 X180.385 Y101.966 E0.0106
G1 X180.646 Y102.680 E0.0758
G1 X180.685 Y102.803 E0.0129
G1 X180.741 Y103.004 E0.0209
G1 X180.770 Y103.130 E0.0129
G1 X180.907 Y103.842 E0.0723
G1 X180.926 Y103.970 E0.0129
G1 X180.949 Y104.179 E0.0209
G1 X180.958 Y104.308 E0.0129
G1 X180.981 Y105.062 E0.0753
G1 X180.980 Y105.194 E0.0132
G1 X180.969 Y105.408 E0.0214
G1 X180.956 Y105.540 E0.0132
G1 X180.853 Y106.307 E0.0772
G1 X180.830 Y106.439 E0.0134
G1 X180.783 Y106.651 E0.0216
G1 X180.749 Y106.781 E0.0134
G1 X180.520 Y107.525 E0.0776
G1 X180.475 Y107.652 E0.0135
G1 X180.393 Y107.855 E0.0218
G1 X180.338 Y107.978 E0.0135
G1 X179.988 Y108.674 E0.0777
G1 X179.922 Y108.793 E0.0136
G1 X179.807 Y108.981 E0.0220
G1 X179.731 Y109.094 E0.0136
G1 X179.276 Y109.712 E0.0765
G1 X179.196 Y109.812 E0.0128
G1 X179.060 Y109.969 E0.0208
G1 X178.972 Y110.063 E0.0128
G1 X178.462 Y110.566 E0.0715
G1 X178.401 Y110.624 E0.0084
G1 X178.299 Y110.714 E0.0135
G1 X178.235 Y110.768 E0.0084
G1 X177.318 Y111.501 E0.1171
G1 X177.107 Y111.713 E0.0299
G1 X177.024 Y111.827 E0.0141
G1 X176.972 Y111.934 E0.0118
G1 X176.940 Y112.043 E0.0113
G1 X176.923 Y112.176 E0.0134
G1 X176.983 Y113.969 E0.1790
G1 X176.983 Y114.088 E0.0119
G1 X176.975 Y114.281 E0.0193
G1 X176.966 Y114.400 E0.0119
G1 X176.883 Y115.133 E0.0737
G1 X176.862 Y115.263 E0.0131
G1 X176.821 Y115.471 E0.0212
G1 X176.791 Y115.599 E0.0131
G1 X176.585 Y116.327 E0.0755
G1 X176.544 Y116.453 E0.0133
G1 X176.468 Y116.655 E0.0215
G1 X176.417 Y116.777 E0.0133
G1 X176.095 Y117.463 E0.0756
G1 X176.034 Y117.579 E0.0131
G1 X175.928 Y117.764 E0.0212
G1 X175.858 Y117.875 E0.0131
G1 X175.422 Y118.509 E0.0768
G1 X175.342 Y118.617 E0.0134
G1 X175.205 Y118.784 E0.0216
G1 X175.116 Y118.885 E0.0134
G1 X174.573 Y119.448 E0.0781
G1 X174.474 Y119.542 E0.0136
G1 X174.309 Y119.687 E0.0220
G1 X174.203 Y119.772 E0.0136
G1 X173.578 Y120.233 E0.0774
G1 X173.466 Y120.308 E0.0135
G1 X173.280 Y120.423 E0.0218
G1 X173.163 Y120.489 E0.0135
G1 X172.465 Y120.842 E0.0780
G1 X172.323 Y120.906 E0.0155
G1 X172.088 Y120.998 E0.0251
G1 X171.941 Y121.047 E0.0155
G1 X170.269 Y121.522 E0.1734
G1 X169.955 Y121.655 E0.0340
G1 X169.887 Y121.698 E0.0081
G1 X169.794 Y121.781 E0.0124
G1 X169.720 Y121.874 E0.0119
G1 X169.620 Y122.050 E0.0201
G1 X168.983 Y123.647 E0.1716
G1 X168.929 Y123.766 E0.0130
G1 X168.836 Y123.956 E0.0211
G1 X168.773 Y124.070 E0.0130
G1 X168.389 Y124.710 E0.0744
G1 X168.315 Y124.822 E0.0134
G1 X168.188 Y124.998 E0.0216
G1 X168.105 Y125.103 E0.0134
G1 X167.597 Y125.698 E0.0781
G1 X167.505 Y125.797 E0.0135
G1 X167.350 Y125.951 E0.0218
G1 X167.250 Y126.042 E0.0135
G1 X166.665 Y126.533 E0.0762
G1 X166.560 Y126.614 E0.0132
G1 X166.384 Y126.738 E0.0214
G1 X166.273 Y126.810 E0.0132
G1 X165.608 Y127.203 E0.0771
G1 X165.490 Y127.266 E0.0134
G1 X165.295 Y127.360 E0.0216
G1 X165.172 Y127.414 E0.0134
G1 X164.454 Y127.691 E0.0768
G1 X164.337 Y127.731 E0.0124
G1 X164.144 Y127.789 E0.0201
G1 X164.024 Y127.820 E0.0124
G1 X163.372 Y127.962 E0.0666
G1 X163.249 Y127.984 E0.0124
G1 X163.049 Y128.012 E0.0201
G1 X162.925 Y128.024 E0.0125
G1 X162.167 Y128.071 E0.0758
G1 X162.032 Y128.073 E0.0135
G1 X161.812 Y128.068 E0.0219
G1 X161.677 Y128.059 E0.0135
G1 X160.826 Y127.969 E0.0854
G1 X160.782 Y127.963 E0.0044
G1 X160.711 Y127.954 E0.0071
G1 X160.667 Y127.947 E0.0044
G1 X159.739 Y127.797 E0.0938
G1 X159.497 Y127.789 E0.0242
G1 X159.362 Y127.807 E0.0136
G1 X159.251 Y127.841 E0.0115
G1 X159.148 Y127.894 E0.0116
G1 X159.012 Y127.992 E0.0167
G1 X157.935 Y129.051 E0.1508
G1 X157.868 Y129.113 E0.0091
G1 X157.757 Y129.211 E0.0147
G1 X157.687 Y129.269 E0.0091
G1 X157.113 Y129.718 E0.0727
G1 X157.010 Y129.792 E0.0127
G1 X156.838 Y129.906 E0.0206
G1 X156.729 Y129.972 E0.0127
G1 X156.094 Y130.326 E0.0726
G1 X155.977 Y130.384 E0.0130
G1 X155.785 Y130.472 E0.0211
G1 X155.664 Y130.521 E0.0130
G1 X154.938 Y130.783 E0.0770
G1 X154.796 Y130.827 E0.0148
G1 X154.563 Y130.887 E0.0240
G1 X154.418 Y130.918 E0.0148
G1 X153.504 Y131.068 E0.0924
G1 X153.356 Y131.085 E0.0148
G1 X153.116 Y131.102 E0.0240
G1 X152.967 Y131.106 E0.0148
G1 X152.175 Y131.089 E0.0790
G1 X152.039 Y131.080 E0.0136
G1 X151.820 Y131.057 E0.0220
G1 X151.685 Y131.037 E0.0136
G1 X150.918 Y130.890 E0.0779
G1 X150.786 Y130.859 E0.0136
G1 X150.575 Y130.800 E0.0219
G1 X150.446 Y130.758 E0.0135
G1 X149.732 Y130.492 E0.0760
G1 X149.608 Y130.440 E0.0134
G1 X149.411 Y130.347 E0.0217
G1 X149.292 Y130.285 E0.0134
G1 X148.550 Y129.857 E0.0855
G1 X148.510 Y129.833 E0.0047
G1 X148.446 Y129.793 E0.0075
G1 X148.407 Y129.768 E0.0046
G1 X147.615 Y129.250 E0.0944
G1 X147.386 Y129.139 E0.0255
G1 X147.258 Y129.100 E0.0133
G1 X147.201 Y129.092 E0.0057
G1 X147.065 Y129.094 E0.0136
G1 X146.952 Y129.113 E0.0115
G1 X145.154 Y129.755 E0.1905
G1 X145.032 Y129.793 E0.0127
G1 X144.833 Y129.847 E0.0206
G1 X144.709 Y129.876 E0.0127
G1 X143.979 Y130.013 E0.0741
G1 X143.847 Y130.032 E0.0134
G1 X143.631 Y130.054 E0.0216
G1 X143.498 Y130.063 E0.0134
G1 X142.720 Y130.078 E0.0776
G1 X142.585 Y130.075 E0.0134
G1 X142.368 Y130.062 E0.0217
G1 X142.234 Y130.048 E0.0134
G1 X141.477 Y129.937 E0.0763
G1 X141.347 Y129.912 E0.0133
G1 X141.137 Y129.863 E0.0215
G1 X141.009 Y129.828 E0.0133
G1 X140.270 Y129.591 E0.0774
G1 X140.144 Y129.545 E0.0134
G1 X139.944 Y129.462 E0.0217
G1 X139.822 Y129.405 E0.0134
G1 X139.129 Y129.048 E0.0778
G1 X139.011 Y128.981 E0.0136
G1 X138.825 Y128.865 E0.0219
G1 X138.713 Y128.788 E0.0136
G1 X138.090 Y128.321 E0.0776
G1 X137.985 Y128.235 E0.0135
G1 X137.821 Y128.089 E0.0219
G1 X137.724 Y127.994 E0.0135
G1 X137.195 Y127.438 E0.0765
G1 X137.106 Y127.336 E0.0136
G1 X136.968 Y127.164 E0.0220
G1 X136.887 Y127.054 E0.0136
G1 X135.898 Y125.581 E0.1771
G1 X135.761 Y125.430 E0.0203
G1 X135.684 Y125.368 E0.0100
G1 X135.586 Y125.312 E0.0113
G1 X135.440 Y125.260 E0.0154
G1 X135.237 Y125.222 E0.0206
G1 X134.199 Y125.170 E0.1038
G1 X134.154 Y125.167 E0.0045
G1 X134.081 Y125.161 E0.0073
G1 X134.036 Y125.157 E0.0045
G1 X133.279 Y125.076 E0.0759
G1 X133.153 Y125.058 E0.0127
G1 X132.950 Y125.020 E0.0206
G1 X132.825 Y124.992 E0.0127
G1 X132.082 Y124.791 E0.0768
