; G-Code generated by Simplify3D(R) Version 4.1.1
; Mar 7, 2020 at 5:58:59 PM
; Settings Summary
;   processName,T1
;   applyToModels,Spinner_Demo_Inner
;   profileName,Default (modified)
;   profileVersion,2019-07-26 10:50:01
;   baseProfile,Generic Dual Extrusion Profile (modified)
;   printMaterial,PLA
;   printQuality,Medium
;   printExtruders,Both Extruders
;   extruderName,T0,T1,T2
;   extruderToolheadNumber,0,1,2
;   extruderDiameter,0.4,0.4,0.8
;   extruderAutoWidth,1,0,1
;   extruderWidth,0.48,0.5,0.96
;   extrusionMultiplier,1,1,1
;   extruderUseRetract,1,1,1
;   extruderRetractionDistance,1.5,1.5,4.5
;   extruderExtraRestartDistance,0,0,0.1
;   extruderRetractionZLift,0.5,0.5,1
;   extruderRetractionSpeed,6000,6000,6000
;   extruderUseCoasting,1,1,0
;   extruderCoastingDistance,0.3,0.3,0.2
;   extruderUseWipe,1,1,1
;   extruderWipeDistance,4,4,5
;   primaryExtruder,1
;   layerHeight,0.3
;   topSolidLayers,4
;   bottomSolidLayers,4
;   perimeterOutlines,3
;   printPerimetersInsideOut,1
;   startPointOption,1
;   startPointOriginX,0
;   startPointOriginY,100
;   sequentialIslands,1
;   spiralVaseMode,0
;   firstLayerHeightPercentage,100
;   firstLayerWidthPercentage,100
;   firstLayerUnderspeed,1
;   useRaft,0
;   raftExtruder,2
;   raftTopLayers,3
;   raftBaseLayers,1
;   raftOffset,4
;   raftSeparationDistance,0
;   raftTopInfill,100
;   aboveRaftSpeedMultiplier,1
;   useSkirt,0
;   skirtExtruder,0
;   skirtLayers,1
;   skirtOutlines,1
;   skirtOffset,3
;   usePrimePillar,0
;   primePillarExtruder,999
;   primePillarWidth,10
;   primePillarLocation,6
;   primePillarSpeedMultiplier,1
;   useOozeShield,0
;   oozeShieldExtruder,0
;   oozeShieldOffset,2
;   oozeShieldOutlines,1
;   oozeShieldSidewallShape,2
;   oozeShieldSidewallAngle,30
;   oozeShieldSpeedMultiplier,1
;   infillExtruder,1
;   internalInfillPattern,Grid
;   externalInfillPattern,Rectilinear
;   infillPercentage,12
;   outlineOverlapPercentage,0
;   infillExtrusionWidthPercentage,100
;   minInfillLength,5
;   infillLayerInterval,1
;   internalInfillAngles,45,-45
;   overlapInternalInfillAngles,1
;   externalInfillAngles,45,-45
;   generateSupport,0
;   supportExtruder,2
;   supportInfillPercentage,20
;   supportExtraInflation,0.5
;   supportBaseLayers,1
;   denseSupportExtruder,2
;   denseSupportLayers,3
;   denseSupportInfillPercentage,90
;   supportLayerInterval,1
;   supportHorizontalPartOffset,0.75
;   supportUpperSeparationLayers,0
;   supportLowerSeparationLayers,0
;   supportType,0
;   supportGridSpacing,100
;   maxOverhangAngle,89
;   supportAngles,45,-45
;   temperatureName
;   temperatureNumber
;   temperatureSetpointCount
;   temperatureSetpointLayers
;   temperatureSetpointTemperatures
;   temperatureStabilizeAtStartup
;   temperatureHeatedBed
;   fanLayers,1
;   fanSpeeds,0
;   blipFanToFullPower,0
;   adjustSpeedForCooling,1
;   minSpeedLayerTime,5
;   minCoolingSpeedSlowdown,10
;   increaseFanForCooling,0
;   minFanLayerTime,5
;   maxCoolingFanSpeed,75
;   increaseFanForBridging,0
;   bridgingFanSpeed,75
;   use5D,1
;   relativeEdistances,1
;   allowEaxisZeroing,1
;   independentExtruderAxes,0
;   includeM10123,0
;   stickySupport,1
;   applyToolheadOffsets,0
;   gcodeXoffset,0
;   gcodeYoffset,0
;   gcodeZoffset,0
;   overrideMachineDefinition,1
;   machineTypeOverride,0
;   strokeXoverride,300
;   strokeYoverride,200
;   strokeZoverride,300
;   originOffsetXoverride,0
;   originOffsetYoverride,0
;   originOffsetZoverride,0
;   homeXdirOverride,-1
;   homeYdirOverride,-1
;   homeZdirOverride,-1
;   flipXoverride,1
;   flipYoverride,-1
;   flipZoverride,1
;   toolheadOffsets,0,0|0,0|0,0|0,0|0,0|0,0
;   overrideFirmwareConfiguration,0
;   firmwareTypeOverride,RepRap (Marlin/Repetier/Sprinter)
;   GPXconfigOverride,r2
;   baudRateOverride,115200
;   overridePrinterModels,1
;   printerModelsOverride
;   startingGcode,G29 S1,,T1
;   layerChangeGcode,
;   retractionGcode,
;   toolChangeGcode,
;   endingGcode,;Drop Bed,G91,G1 Z2 F1000,G90,,; Drop off the tool,T-1,,; Disable Mesh Compensation.,G29 S2,,; Park,G1 X-20 Y200 F50000,,M0	;turn off all heaters
;   exportFileFormat,gcode
;   celebration,0
;   celebrationSong,Star Wars
;   postProcessing,
;   defaultSpeed,3000
;   outlineUnderspeed,1
;   solidInfillUnderspeed,1
;   supportUnderspeed,1
;   rapidXYspeed,21000
;   rapidZspeed,1500
;   minBridgingArea,50
;   bridgingExtraInflation,1
;   bridgingExtrusionMultiplier,1
;   bridgingSpeedMultiplier,1
;   useFixedBridgingAngle,0
;   fixedBridgingAngle,0
;   applyBridgingToPerimeters,1
;   filamentDiameters,1.75|1.75|1.75|1.75|1.75|1.75
;   filamentPricesPerKg,46|46|46|46|46|46
;   filamentDensities,1.25|1.25|1.25|1.25|1.25|1.25
;   useMinPrintHeight,0
;   minPrintHeight,12
;   useMaxPrintHeight,0
;   maxPrintHeight,1
;   useDiaphragm,0
;   diaphragmLayerInterval,20
;   robustSlicing,1
;   mergeAllIntoSolid,0
;   onlyRetractWhenCrossingOutline,0
;   retractBetweenLayers,0
;   useRetractionMinTravel,1
;   retractionMinTravel,1
;   retractWhileWiping,1
;   onlyWipeOutlines,1
;   avoidCrossingOutline,0
;   maxMovementDetourFactor,3
;   toolChangeRetractionDistance,0
;   toolChangeExtraRestartDistance,0
;   toolChangeRetractionSpeed,3000
;   externalThinWallType,0
;   internalThinWallType,0
;   thinWallAllowedOverlapPercentage,5
;   singleExtrusionMinLength,0.5
;   singleExtrusionMinPrintingWidthPercentage,50
;   singleExtrusionMaxPrintingWidthPercentage,150
;   singleExtrusionEndpointExtension,0.2
;   horizontalSizeCompensation,0.2
G90
M83
M106 S0
G29 S1
T0
; process T0
; layer 1, Z = 1.000
T2
G1 E-4.5000 F6000
; feature raft
; tool H1.000 W1.600
G1 Z1.000 F1500
G1 X150.810 Y81.067 F21000
G1 E4.6000 F6000
G1 X150.903 Y81.072 E0.0618 F750
G1 X152.211 Y81.180 E0.8731
G1 X152.303 Y81.190 E0.0617
G1 X152.999 Y81.289 E0.4675
G1 X153.090 Y81.304 E0.0619
G1 X154.392 Y81.566 E0.8834
G1 X154.513 Y81.595 E0.0823
G1 X155.805 Y81.961 E0.8938
G1 X155.923 Y81.999 E0.0822
G1 X157.183 Y82.464 E0.8937
G1 X157.298 Y82.512 E0.0826
G1 X158.505 Y83.066 E0.8831
G1 X158.588 Y83.107 E0.0617
G1 X159.202 Y83.434 E0.4628
G1 X159.270 Y83.472 E0.0516
G1 X160.734 Y84.345 E1.1344
G1 X160.955 Y84.436 E0.1587
G1 X161.212 Y84.504 E0.1767
G1 X161.527 Y84.546 E0.2116
G1 X161.663 Y84.550 E0.0906
G1 X170.060 Y84.550 E5.5856
G1 X170.173 Y84.554 E0.0754
G1 X170.991 Y84.612 E0.5450
G1 X171.179 Y84.637 E0.1265
G1 X171.767 Y84.750 E0.3983
G1 X171.922 Y84.787 E0.1059
G1 X172.653 Y85.005 E0.5075
G1 X172.855 Y85.080 E0.1431
G1 X173.669 Y85.447 E0.5941
G1 X173.868 Y85.554 E0.1504
G1 X174.601 Y86.018 E0.5770
G1 X174.739 Y86.116 E0.1127
G1 X175.141 Y86.435 E0.3411
G1 X175.278 Y86.557 E0.1225
G1 X175.964 Y87.243 E0.6450
G1 X176.121 Y87.425 E0.1598
G1 X176.639 Y88.129 E0.5817
G1 X176.733 Y88.270 E0.1128
G1 X176.986 Y88.703 E0.3334
G1 X177.059 Y88.843 E0.1050
G1 X177.378 Y89.538 E0.5088
G1 X177.456 Y89.744 E0.1465
G1 X177.735 Y90.667 E0.6411
G1 X177.778 Y90.849 E0.1243
G1 X177.868 Y91.353 E0.3412
G1 X177.889 Y91.521 E0.1126
G1 X177.946 Y92.327 E0.5370
G1 X177.950 Y92.440 E0.0753
G1 X177.950 Y107.544 E10.0475
G1 X177.948 Y107.623 E0.0527
G1 X177.921 Y108.161 E0.3584
G1 X177.906 Y108.317 E0.1039
G1 X177.797 Y109.054 E0.4959
G1 X177.760 Y109.231 E0.1198
G1 X177.607 Y109.809 E0.3976
G1 X177.558 Y109.961 E0.1065
G1 X177.296 Y110.659 E0.4959
G1 X177.225 Y110.820 E0.1174
G1 X176.954 Y111.353 E0.3976
G1 X176.872 Y111.496 E0.1092
G1 X176.473 Y112.115 E0.4902
G1 X176.382 Y112.242 E0.1040
G1 X176.066 Y112.640 E0.3380
G1 X175.944 Y112.777 E0.1223
G1 X175.261 Y113.460 E0.6423
G1 X175.089 Y113.609 E0.1512
G1 X174.471 Y114.073 E0.5145
G1 X174.333 Y114.166 E0.1102
G1 X173.820 Y114.473 E0.3976
G1 X173.666 Y114.554 E0.1162
G1 X172.988 Y114.866 E0.4960
G1 X172.838 Y114.926 E0.1075
G1 X172.271 Y115.120 E0.3989
G1 X172.089 Y115.171 E0.1256
G1 X171.230 Y115.355 E0.5843
G1 X171.007 Y115.387 E0.1500
G1 X170.173 Y115.446 E0.5559
G1 X170.060 Y115.450 E0.0753
G1 X161.663 Y115.450 E5.5856
G1 X161.527 Y115.454 E0.0906
G1 X161.212 Y115.496 E0.2116
G1 X160.955 Y115.564 E0.1767
G1 X160.734 Y115.655 E0.1587
G1 X159.270 Y116.528 E1.1344
G1 X159.202 Y116.566 E0.0516
G1 X158.588 Y116.893 E0.4628
G1 X158.505 Y116.934 E0.0617
G1 X157.298 Y117.488 E0.8831
G1 X157.183 Y117.536 E0.0826
G1 X155.923 Y118.001 E0.8936
G1 X155.805 Y118.039 E0.0824
G1 X154.523 Y118.402 E0.8868
G1 X154.423 Y118.427 E0.0680
G1 X153.583 Y118.608 E0.5717
G1 X153.494 Y118.624 E0.0603
G1 X152.341 Y118.805 E0.7766
G1 X152.224 Y118.819 E0.0779
G1 X150.883 Y118.929 E0.8954
G1 X150.751 Y118.935 E0.0874
G1 X149.248 Y118.935 E1.0002
G1 X149.117 Y118.929 E0.0874
G1 X147.774 Y118.819 E0.8962
G1 X147.651 Y118.804 E0.0826
G1 X146.325 Y118.590 E0.8934
G1 X146.203 Y118.566 E0.0824
G1 X144.897 Y118.250 E0.8938
G1 X144.778 Y118.216 E0.0824
G1 X143.501 Y117.801 E0.8936
G1 X143.385 Y117.758 E0.0824
G1 X142.143 Y117.244 E0.8938
G1 X142.030 Y117.193 E0.0824
G1 X140.831 Y116.584 E0.8943
G1 X140.721 Y116.523 E0.0838
G1 X139.461 Y115.754 E0.9820
G1 X139.170 Y115.611 E0.2161
G1 X138.918 Y115.526 E0.1769
G1 X138.657 Y115.474 E0.1766
G1 X138.285 Y115.450 E0.2483
G1 X123.925 Y115.450 E9.5525
G1 X122.050 Y113.575 E1.7634
G1 X122.050 Y86.425 E18.0609
G1 X123.925 Y84.550 E1.7634
G1 X138.285 Y84.550 E9.5525
G1 X138.657 Y84.526 E0.2483
G1 X138.918 Y84.474 E0.1766
G1 X139.170 Y84.389 E0.1769
G1 X139.442 Y84.256 E0.2020
G1 X140.141 Y83.816 E0.5492
G1 X140.215 Y83.773 E0.0569
G1 X141.371 Y83.129 E0.8802
G1 X141.481 Y83.073 E0.0823
G1 X142.702 Y82.512 E0.8938
G1 X142.817 Y82.464 E0.0825
G1 X144.077 Y81.999 E0.8936
G1 X144.194 Y81.961 E0.0823
G1 X145.487 Y81.595 E0.8938
G1 X145.608 Y81.566 E0.0823
G1 X146.925 Y81.301 E0.8937
G1 X147.047 Y81.282 E0.0824
G1 X148.385 Y81.119 E0.8962
G1 X148.516 Y81.109 E0.0877
G1 X150.002 Y81.051 E0.9896
G1 X150.103 Y81.050 E0.0668
G1 X150.810 Y81.067 E0.4703
G1 E-4.5000 F6000
G1 Z2.000 F1500
G1 X152.983 Y106.987 F21000
G1 Z1.000 F1500
G1 E4.6000 F6000
G1 X153.442 Y106.772 E0.3374 F750
G1 X154.223 Y106.315 E0.6016
G1 X154.659 Y106.002 E0.3570
G1 X155.092 Y105.640 E0.3757
G1 X155.476 Y105.266 E0.3569
G1 X156.065 Y104.576 E0.6029
G1 X156.371 Y104.142 E0.3535
G1 X156.646 Y103.681 E0.3574
G1 X157.037 Y102.865 E0.6017
G1 X157.213 Y102.388 E0.3382
G1 X157.438 Y101.542 E0.5819
G1 X157.563 Y100.705 E0.5633
G1 X157.596 Y99.829 E0.5830
G1 X157.567 Y99.323 E0.3372
G1 X157.438 Y98.458 E0.5820
G1 X157.213 Y97.612 E0.5820
G1 X157.027 Y97.109 E0.3569
G1 X156.805 Y96.622 E0.3561
G1 X156.355 Y95.837 E0.6016
G1 X156.063 Y95.422 E0.3373
G1 X155.476 Y94.734 E0.6017
G1 X155.113 Y94.381 E0.3373
G1 X154.432 Y93.832 E0.5819
G1 X153.717 Y93.376 E0.5641
G1 X152.955 Y93.003 E0.5644
G1 X152.131 Y92.708 E0.5818
G1 X151.640 Y92.582 E0.3374
G1 X150.776 Y92.445 E0.5819
G1 X149.902 Y92.404 E0.5820
G1 X149.366 Y92.429 E0.3569
G1 X148.835 Y92.493 E0.3561
G1 X147.951 Y92.685 E0.6016
G1 X147.467 Y92.838 E0.3374
G1 X146.634 Y93.190 E0.6015
G1 X146.188 Y93.430 E0.3373
G1 X145.434 Y93.930 E0.6017
G1 X145.039 Y94.248 E0.3372
G1 X144.411 Y94.859 E0.5831
G1 X143.854 Y95.536 E0.5829
G1 X143.570 Y95.956 E0.3371
G1 X143.149 Y96.724 E0.5831
G1 X142.827 Y97.507 E0.5632
G1 X142.594 Y98.321 E0.5632
G1 X142.448 Y99.184 E0.5819
G1 X142.408 Y99.719 E0.3573
G1 X142.408 Y100.281 E0.3733
G1 X142.448 Y100.816 E0.3573
G1 X142.599 Y101.708 E0.6015
G1 X142.730 Y102.199 E0.3385
G1 X143.043 Y103.048 E0.6016
G1 X143.274 Y103.531 E0.3560
G1 X143.554 Y104.021 E0.3757
G1 X143.872 Y104.490 E0.3771
G1 X144.220 Y104.930 E0.3732
G1 X144.604 Y105.347 E0.3768
G1 X144.994 Y105.713 E0.3562
G1 X145.709 Y106.268 E0.6016
G1 X146.138 Y106.541 E0.3383
G1 X146.916 Y106.940 E0.5819
G1 X147.734 Y107.251 E0.5819
G1 X148.223 Y107.386 E0.3373
G1 X149.113 Y107.545 E0.6017
G1 X149.650 Y107.590 E0.3582
G1 X150.211 Y107.595 E0.3732
G1 X150.747 Y107.560 E0.3574
G1 X151.640 Y107.418 E0.6016
G1 X152.131 Y107.292 E0.3374
G1 X152.983 Y106.987 E0.6015
G1 E-4.5000 F6000
G1 Z2.000 F1500
G1 X124.452 Y86.286 F21000
G1 Z1.000 F1500
G1 E4.6000 F6000
G1 X171.283 Y86.286 E31.1522 F750
G1 X171.426 Y86.313 E0.0974
G1 X171.504 Y86.332 E0.0534
G1 X172.146 Y86.523 E0.4450
G1 X172.247 Y86.561 E0.0717
G1 X172.960 Y86.882 E0.5207
G1 X173.060 Y86.936 E0.0751
G1 X173.709 Y87.347 E0.5113
G1 X173.778 Y87.396 E0.0565
G1 X174.111 Y87.660 E0.2821
G1 X174.179 Y87.721 E0.0614
G1 X174.790 Y88.332 E0.5743
G1 X174.868 Y88.423 E0.0798
G1 X175.326 Y89.044 E0.5137
G1 X175.373 Y89.115 E0.0564
G1 X175.585 Y89.477 E0.2789
G1 X175.621 Y89.547 E0.0528
G1 X175.901 Y90.156 E0.4459
G1 X175.940 Y90.259 E0.0733
G1 X176.121 Y90.857 E0.4154
G1 X150.981 Y90.857 E16.7232
G1 X150.940 Y90.851 E0.0276
G1 X149.902 Y90.802 E0.6908
G1 X149.232 Y90.833 E0.4460
G1 X149.037 Y90.857 E0.1311
G1 X123.650 Y90.857 E16.8874
G1 X123.650 Y95.429 E3.0409
G1 X142.035 Y95.429 E12.2295
G1 X141.703 Y96.033 E0.4585
G1 X141.313 Y96.981 E0.6821
G1 X141.031 Y97.967 E0.6821
G1 X140.858 Y98.991 E0.6907
G1 X140.808 Y99.660 E0.4463
G1 X140.808 Y100.000 E0.2263
G1 X123.650 Y100.000 E11.4138
G1 X123.650 Y104.571 E3.0409
G1 X142.026 Y104.571 E12.2237
G1 X142.196 Y104.868 E0.2275
G1 X142.580 Y105.436 E0.4563
G1 X143.002 Y105.970 E0.4524
G1 X143.466 Y106.474 E0.4560
G1 X143.955 Y106.932 E0.4451
G1 X144.787 Y107.577 E0.7006
G1 X145.341 Y107.931 E0.4375
G1 X146.265 Y108.405 E0.6908
G1 X147.236 Y108.773 E0.6907
G1 X147.868 Y108.948 E0.4363
G1 X148.905 Y109.133 E0.7007
G1 X149.026 Y109.143 E0.0802
G1 X123.650 Y109.143 E16.8799
G1 X123.650 Y112.913 E2.5077
G1 X124.452 Y113.714 E0.7541
G1 X171.250 Y113.714 E31.1305
G1 X171.706 Y113.616 E0.3105
G1 X171.797 Y113.591 E0.0628
G1 X172.282 Y113.425 E0.3405
G1 X172.357 Y113.395 E0.0539
G1 X172.958 Y113.119 E0.4400
G1 X173.035 Y113.078 E0.0581
G1 X173.475 Y112.814 E0.3411
G1 X173.544 Y112.768 E0.0550
G1 X174.084 Y112.363 E0.4492
G1 X174.170 Y112.289 E0.0755
G1 X174.780 Y111.679 E0.5740
G1 X174.841 Y111.610 E0.0612
G1 X175.104 Y111.279 E0.2813
G1 X175.149 Y111.215 E0.0521
G1 X175.505 Y110.663 E0.4367
G1 X175.546 Y110.592 E0.0545
G1 X175.778 Y110.135 E0.3412
G1 X175.814 Y110.054 E0.0586
G1 X176.047 Y109.435 E0.4400
G1 X176.071 Y109.359 E0.0532
G1 X176.128 Y109.143 E0.1487
G1 X150.980 Y109.143 E16.7285
G1 X151.965 Y108.986 E0.6634
G1 X152.601 Y108.823 E0.4364
G1 X153.592 Y108.468 E0.7005
G1 X154.187 Y108.191 E0.4364
G1 X155.095 Y107.659 E0.7006
G1 X155.640 Y107.267 E0.4462
G1 X156.165 Y106.828 E0.4549
G1 X156.645 Y106.361 E0.4461
G1 X157.330 Y105.558 E0.7019
G1 X157.713 Y105.014 E0.4425
G1 X157.978 Y104.571 E0.3432
G1 X176.350 Y104.571 E12.2212
G1 X176.350 Y100.000 E3.0409
G1 X159.190 Y100.000 E11.4146
G1 X159.197 Y99.814 E0.1237
G1 X159.161 Y99.159 E0.4362
G1 X159.007 Y98.132 E0.6908
G1 X158.740 Y97.129 E0.6908
G1 X158.508 Y96.500 E0.4461
G1 X158.230 Y95.891 E0.4451
G1 X157.965 Y95.429 E0.3543
G1 X176.350 Y95.429 E12.2295
G1 E-4.5000 F6000
; layer 2, Z = 1.444
; tool H0.444 W0.800
G1 Z2.000 F1500
G1 X173.307 Y115.160 F21000
G1 Z1.444 F1500
G1 E4.6000 F6000
G1 X177.672 Y110.795 E0.9125 F2250
G1 X177.936 Y110.093 E0.1109
G1 X177.991 Y109.921 E0.0267
G1 X178.150 Y109.323 E0.0915
G1 X178.186 Y109.150 E0.0261
G1 X171.664 Y115.671 E1.3633
G1 X171.301 Y115.749 E0.0550
G1 X171.049 Y115.785 E0.0376
G1 X170.371 Y115.833 E0.1005
G1 X178.336 Y107.867 E1.6652
G1 X178.348 Y107.638 E0.0339
G1 X178.350 Y107.549 E0.0132
G1 X178.350 Y106.723 E0.1222
G1 X169.223 Y115.850 E1.9081
G1 X168.091 Y115.850 E0.1672
G1 X178.350 Y105.591 E2.1446
G1 X178.350 Y104.460 E0.1672
G1 X166.960 Y115.850 E2.3812
G1 X165.828 Y115.850 E0.1672
G1 X178.350 Y103.328 E2.6177
G1 X178.350 Y102.197 E0.1672
G1 X164.697 Y115.850 E2.8542
G1 X163.566 Y115.850 E0.1672
G1 X178.350 Y101.066 E3.0907
G1 X178.350 Y99.934 E0.1672
G1 X162.434 Y115.850 E3.3272
G1 X161.670 Y115.850 E0.1130
G1 X161.560 Y115.854 E0.0163
G1 X161.290 Y115.889 E0.0403
G1 X161.255 Y115.898 E0.0053
G1 X178.350 Y98.803 E3.5738
G1 X178.350 Y97.672 E0.1672
G1 X158.776 Y117.246 E4.0921
G1 X158.771 Y117.249 E0.0009
G1 X158.677 Y117.295 E0.0154
G1 X157.458 Y117.855 E0.1983
G1 X157.329 Y117.908 E0.0206
G1 X156.779 Y118.111 E0.0867
G1 X178.350 Y96.540 E4.5095
