; G-Code generated by Simplify3D(R) Version 4.1.1
; Mar 7, 2020 at 11:45:05 AM
; Settings Summary
;   processName,T0
;   applyToModels,Spinner_Demo
;   profileName,Default (modified)
;   profileVersion,2019-07-26 10:50:01
;   baseProfile,Generic Dual Extrusion Profile (modified)
;   printMaterial,PLA
;   printQuality,Medium
;   printExtruders,Both Extruders
;   extruderName,T0,T1,T2
;   extruderToolheadNumber,0,1,2
;   extruderDiameter,0.4,0.4,0.8
;   extruderAutoWidth,1,1,1
;   extruderWidth,0.48,0.48,0.96
;   extrusionMultiplier,1,1,1
;   extruderUseRetract,1,1,1
;   extruderRetractionDistance,1.5,1.5,4.5
;   extruderExtraRestartDistance,0,0,0.1
;   extruderRetractionZLift,0.5,0.5,1
;   extruderRetractionSpeed,6000,6000,6000
;   extruderUseCoasting,1,1,1
;   extruderCoastingDistance,0.3,0.3,0.2
;   extruderUseWipe,1,1,1
;   extruderWipeDistance,4,4,5
;   primaryExtruder,0
;   layerHeight,0.3
;   topSolidLayers,4
;   bottomSolidLayers,4
;   perimeterOutlines,3
;   printPerimetersInsideOut,1
;   startPointOption,1
;   startPointOriginX,0
;   startPointOriginY,100
;   sequentialIslands,1
;   spiralVaseMode,0
;   firstLayerHeightPercentage,100
;   firstLayerWidthPercentage,100
;   firstLayerUnderspeed,1
;   useRaft,1
;   raftExtruder,2
;   raftTopLayers,3
;   raftBaseLayers,1
;   raftOffset,4
;   raftSeparationDistance,0
;   raftTopInfill,100
;   aboveRaftSpeedMultiplier,0.3
;   useSkirt,0
;   skirtExtruder,0
;   skirtLayers,1
;   skirtOutlines,1
;   skirtOffset,3
;   usePrimePillar,0
;   primePillarExtruder,999
;   primePillarWidth,10
;   primePillarLocation,6
;   primePillarSpeedMultiplier,1
;   useOozeShield,0
;   oozeShieldExtruder,0
;   oozeShieldOffset,2
;   oozeShieldOutlines,1
;   oozeShieldSidewallShape,2
;   oozeShieldSidewallAngle,30
;   oozeShieldSpeedMultiplier,1
;   infillExtruder,0
;   internalInfillPattern,Grid
;   externalInfillPattern,Rectilinear
;   infillPercentage,12
;   outlineOverlapPercentage,0
;   infillExtrusionWidthPercentage,100
;   minInfillLength,5
;   infillLayerInterval,1
;   internalInfillAngles,45,-45
;   overlapInternalInfillAngles,1
;   externalInfillAngles,45,-45
;   generateSupport,1
;   supportExtruder,2
;   supportInfillPercentage,20
;   supportExtraInflation,0.5
;   supportBaseLayers,1
;   denseSupportExtruder,2
;   denseSupportLayers,3
;   denseSupportInfillPercentage,90
;   supportLayerInterval,1
;   supportHorizontalPartOffset,0.75
;   supportUpperSeparationLayers,0
;   supportLowerSeparationLayers,0
;   supportType,0
;   supportGridSpacing,100
;   maxOverhangAngle,89
;   supportAngles,45,-45
;   temperatureName
;   temperatureNumber
;   temperatureSetpointCount
;   temperatureSetpointLayers
;   temperatureSetpointTemperatures
;   temperatureStabilizeAtStartup
;   temperatureHeatedBed
;   fanLayers,1
;   fanSpeeds,0
;   blipFanToFullPower,0
;   adjustSpeedForCooling,1
;   minSpeedLayerTime,5
;   minCoolingSpeedSlowdown,10
;   increaseFanForCooling,0
;   minFanLayerTime,5
;   maxCoolingFanSpeed,75
;   increaseFanForBridging,0
;   bridgingFanSpeed,75
;   use5D,1
;   relativeEdistances,1
;   allowEaxisZeroing,1
;   independentExtruderAxes,0
;   includeM10123,0
;   stickySupport,1
;   applyToolheadOffsets,0
;   gcodeXoffset,0
;   gcodeYoffset,0
;   gcodeZoffset,0
;   overrideMachineDefinition,1
;   machineTypeOverride,0
;   strokeXoverride,300
;   strokeYoverride,200
;   strokeZoverride,300
;   originOffsetXoverride,0
;   originOffsetYoverride,0
;   originOffsetZoverride,0
;   homeXdirOverride,-1
;   homeYdirOverride,-1
;   homeZdirOverride,-1
;   flipXoverride,1
;   flipYoverride,-1
;   flipZoverride,1
;   toolheadOffsets,0,0|0,0|0,0|0,0|0,0|0,0
;   overrideFirmwareConfiguration,0
;   firmwareTypeOverride,RepRap (Marlin/Repetier/Sprinter)
;   GPXconfigOverride,r2
;   baudRateOverride,115200
;   overridePrinterModels,1
;   printerModelsOverride
;   startingGcode,G29 S1,,T0
;   layerChangeGcode,
;   retractionGcode,
;   toolChangeGcode,
;   endingGcode,;Drop Bed,G91,G1 Z2 F1000,G90,,; Drop off the tool,T-1,,; Disable Mesh Compensation.,G29 S2,,; Park,G1 X-20 Y200 F50000,,M0	;turn off all heaters
;   exportFileFormat,gcode
;   celebration,0
;   celebrationSong,Star Wars
;   postProcessing,
;   defaultSpeed,3000
;   outlineUnderspeed,1
;   solidInfillUnderspeed,1
;   supportUnderspeed,1
;   rapidXYspeed,21000
;   rapidZspeed,1500
;   minBridgingArea,50
;   bridgingExtraInflation,1
;   bridgingExtrusionMultiplier,1
;   bridgingSpeedMultiplier,1
;   useFixedBridgingAngle,0
;   fixedBridgingAngle,0
;   applyBridgingToPerimeters,1
;   filamentDiameters,1.75|1.75|1.75|1.75|1.75|1.75
;   filamentPricesPerKg,46|46|46|46|46|46
;   filamentDensities,1.25|1.25|1.25|1.25|1.25|1.25
;   useMinPrintHeight,0
;   minPrintHeight,12
;   useMaxPrintHeight,0
;   maxPrintHeight,1
;   useDiaphragm,0
;   diaphragmLayerInterval,20
;   robustSlicing,1
;   mergeAllIntoSolid,0
;   onlyRetractWhenCrossingOutline,0
;   retractBetweenLayers,0
;   useRetractionMinTravel,1
;   retractionMinTravel,1
;   retractWhileWiping,1
;   onlyWipeOutlines,1
;   avoidCrossingOutline,0
;   maxMovementDetourFactor,3
;   toolChangeRetractionDistance,0
;   toolChangeExtraRestartDistance,0
;   toolChangeRetractionSpeed,3000
;   externalThinWallType,0
;   internalThinWallType,0
;   thinWallAllowedOverlapPercentage,5
;   singleExtrusionMinLength,0.5
;   singleExtrusionMinPrintingWidthPercentage,50
;   singleExtrusionMaxPrintingWidthPercentage,150
;   singleExtrusionEndpointExtension,0.2
;   horizontalSizeCompensation,0.25
G90
M83
M106 S0
G29 S1
T0
; process T0
; layer 1, Z = 1.000
T2
G1 E-4.5000 F6000
; feature raft
; tool H1.000 W1.600
G1 Z1.000 F1500
G1 X150.150 Y81.001 F21000
G1 E4.6000 F6000
G1 X151.500 Y81.060 E0.8989 F750
G1 X151.623 Y81.070 E0.0825
G1 X152.961 Y81.232 E0.8963
G1 X153.083 Y81.252 E0.0823
G1 X154.404 Y81.518 E0.8965
G1 X154.524 Y81.547 E0.0821
G1 X155.821 Y81.914 E0.8964
G1 X155.939 Y81.952 E0.0825
G1 X157.203 Y82.418 E0.8960
G1 X157.317 Y82.465 E0.0826
G1 X158.527 Y83.021 E0.8858
G1 X158.611 Y83.063 E0.0620
G1 X159.226 Y83.390 E0.4636
G1 X159.294 Y83.428 E0.0517
G1 X160.756 Y84.300 E1.1327
G1 X160.971 Y84.389 E0.1544
G1 X161.221 Y84.455 E0.1723
G1 X161.530 Y84.496 E0.2072
G1 X161.664 Y84.500 E0.0891
G1 X170.061 Y84.500 E5.5855
G1 X170.175 Y84.504 E0.0756
G1 X170.998 Y84.563 E0.5491
G1 X171.186 Y84.587 E0.1264
G1 X171.779 Y84.701 E0.4016
G1 X171.934 Y84.739 E0.1056
G1 X172.670 Y84.957 E0.5110
G1 X172.871 Y85.032 E0.1430
G1 X173.693 Y85.402 E0.5993
G1 X173.892 Y85.510 E0.1505
G1 X174.631 Y85.978 E0.5816
G1 X174.769 Y86.076 E0.1128
G1 X175.174 Y86.397 E0.3436
G1 X175.311 Y86.519 E0.1226
G1 X176.002 Y87.210 E0.6501
G1 X176.159 Y87.393 E0.1598
G1 X176.682 Y88.102 E0.5863
G1 X176.775 Y88.244 E0.1128
G1 X177.030 Y88.680 E0.3362
G1 X177.103 Y88.820 E0.1051
G1 X177.425 Y89.520 E0.5122
G1 X177.502 Y89.726 E0.1464
G1 X177.783 Y90.656 E0.6468
G1 X177.827 Y90.838 E0.1242
G1 X177.918 Y91.347 E0.3437
G1 X177.938 Y91.514 E0.1123
G1 X177.996 Y92.326 E0.5413
G1 X178.000 Y92.439 E0.0753
G1 X178.000 Y107.545 E10.0489
G1 X177.998 Y107.625 E0.0527
G1 X177.971 Y108.166 E0.3608
G1 X177.956 Y108.322 E0.1039
G1 X177.846 Y109.065 E0.4995
G1 X177.810 Y109.241 E0.1198
G1 X177.655 Y109.824 E0.4013
G1 X177.606 Y109.976 E0.1065
G1 X177.341 Y110.679 E0.4994
G1 X177.270 Y110.840 E0.1173
G1 X176.997 Y111.378 E0.4012
G1 X176.916 Y111.520 E0.1092
G1 X176.514 Y112.144 E0.4935
G1 X176.422 Y112.271 E0.1040
G1 X176.104 Y112.673 E0.3408
G1 X175.982 Y112.810 E0.1223
G1 X175.293 Y113.499 E0.6479
G1 X175.121 Y113.647 E0.1512
G1 X174.499 Y114.115 E0.5180
G1 X174.361 Y114.207 E0.1102
G1 X173.844 Y114.517 E0.4011
G1 X173.689 Y114.599 E0.1163
G1 X173.007 Y114.912 E0.4995
G1 X172.857 Y114.972 E0.1075
G1 X172.285 Y115.168 E0.4021
G1 X172.103 Y115.218 E0.1255
G1 X171.238 Y115.405 E0.5890
G1 X171.014 Y115.436 E0.1502
G1 X170.174 Y115.496 E0.5600
G1 X170.061 Y115.500 E0.0753
G1 X161.664 Y115.500 E5.5856
G1 X161.530 Y115.504 E0.0891
G1 X161.221 Y115.545 E0.2072
G1 X160.971 Y115.611 E0.1723
G1 X160.756 Y115.700 E0.1544
G1 X159.294 Y116.572 E1.1327
G1 X159.226 Y116.610 E0.0517
G1 X158.611 Y116.937 E0.4636
G1 X158.527 Y116.979 E0.0620
G1 X157.317 Y117.535 E0.8858
G1 X157.203 Y117.582 E0.0824
G1 X155.938 Y118.048 E0.8964
G1 X155.821 Y118.086 E0.0823
G1 X154.534 Y118.451 E0.8895
G1 X154.435 Y118.475 E0.0679
G1 X153.592 Y118.657 E0.5734
G1 X153.503 Y118.673 E0.0603
G1 X152.347 Y118.854 E0.7786
G1 X152.231 Y118.868 E0.0778
G1 X150.885 Y118.979 E0.8984
G1 X150.754 Y118.985 E0.0874
G1 X149.246 Y118.985 E1.0030
G1 X149.115 Y118.979 E0.0873
G1 X147.768 Y118.868 E0.8987
G1 X147.645 Y118.853 E0.0824
G1 X146.315 Y118.639 E0.8962
G1 X146.193 Y118.615 E0.0826
G1 X144.884 Y118.298 E0.8959
G1 X144.764 Y118.264 E0.0827
G1 X143.484 Y117.848 E0.8961
G1 X143.367 Y117.805 E0.0827
G1 X142.122 Y117.290 E0.8960
G1 X142.009 Y117.238 E0.0826
G1 X140.807 Y116.628 E0.8968
G1 X140.697 Y116.567 E0.0837
G1 X139.436 Y115.797 E0.9827
G1 X139.151 Y115.657 E0.2117
G1 X138.905 Y115.574 E0.1726
G1 X138.651 Y115.524 E0.1722
G1 X138.284 Y115.500 E0.2446
G1 X123.875 Y115.500 E9.5851
G1 X122.000 Y113.625 E1.7634
G1 X122.000 Y86.375 E18.1274
G1 X123.875 Y84.500 E1.7634
G1 X138.284 Y84.500 E9.5851
G1 X138.651 Y84.476 E0.2446
G1 X138.905 Y84.426 E0.1722
G1 X139.151 Y84.343 E0.1726
G1 X139.417 Y84.212 E0.1976
G1 X140.115 Y83.773 E0.5486
G1 X140.188 Y83.730 E0.0565
G1 X141.348 Y83.084 E0.8830
G1 X141.459 Y83.028 E0.0824
G1 X142.683 Y82.465 E0.8961
G1 X142.797 Y82.418 E0.0827
G1 X144.061 Y81.952 E0.8960
G1 X144.179 Y81.914 E0.0825
G1 X145.476 Y81.547 E0.8964
G1 X145.596 Y81.518 E0.0821
G1 X146.917 Y81.252 E0.8965
G1 X147.039 Y81.232 E0.0823
G1 X148.380 Y81.069 E0.8988
G1 X148.512 Y81.059 E0.0877
G1 X149.950 Y81.003 E0.9572
G1 X150.018 Y81.001 F750
G1 X150.150 Y81.001
G1 E-4.5000 F6000
G1 Z2.000 F1500
G1 X153.012 Y107.408 F21000
G1 Z1.000 F1500
G1 E4.6000 F6000
G1 X153.677 Y107.101 E0.4874 F750
G1 X154.343 Y106.717 E0.5113
G1 X154.586 Y106.553 E0.1947
G1 X155.192 Y106.082 E0.5112
G1 X155.726 Y105.581 E0.4868
G1 X156.213 Y105.034 E0.4868
G1 X156.647 Y104.445 E0.4867
G1 X157.025 Y103.819 E0.4867
G1 X157.348 Y103.156 E0.4905
G1 X157.569 Y102.577 E0.4127
G1 X157.799 Y101.761 E0.5637
G1 X157.933 Y101.014 E0.5046
G1 X157.965 Y100.723 E0.1948
G1 X157.997 Y99.919 E0.5353
G1 X157.989 Y99.619 E0.1996
G1 X157.928 Y98.956 E0.4430
G1 X157.798 Y98.229 E0.4911
G1 X157.603 Y97.524 E0.4869
G1 X157.345 Y96.839 E0.4867
G1 X157.025 Y96.181 E0.4868
G1 X156.647 Y95.555 E0.4867
G1 X156.213 Y94.966 E0.4867
G1 X155.727 Y94.419 E0.4862
G1 X155.192 Y93.918 E0.4873
G1 X154.615 Y93.469 E0.4868
G1 X153.998 Y93.075 E0.4868
G1 X153.348 Y92.738 E0.4868
G1 X152.671 Y92.463 E0.4866
G1 X151.970 Y92.250 E0.4869
G1 X151.218 Y92.095 E0.5111
G1 X150.927 Y92.056 E0.1948
G1 X150.156 Y92.005 E0.5145
G1 X149.535 Y92.018 E0.4128
G1 X148.692 Y92.112 E0.5641
G1 X147.987 Y92.261 E0.4799
G1 X147.288 Y92.478 E0.4867
G1 X146.577 Y92.771 E0.5113
G1 X146.309 Y92.905 E0.1993
G1 X145.732 Y93.238 E0.4430
G1 X145.127 Y93.660 E0.4913
G1 X144.575 Y94.126 E0.4802
G1 X143.984 Y94.733 E0.5637
G1 X143.570 Y95.243 E0.4371
G1 X143.397 Y95.486 E0.1984
G1 X142.996 Y96.142 E0.5112
G1 X142.672 Y96.798 E0.4868
G1 X142.410 Y97.482 E0.4869
G1 X142.212 Y98.186 E0.4867
G1 X142.079 Y98.906 E0.4869
G1 X142.012 Y99.634 E0.4867
G1 X142.012 Y100.366 E0.4866
G1 X142.079 Y101.096 E0.4877
G1 X142.212 Y101.814 E0.4859
G1 X142.410 Y102.518 E0.4868
G1 X142.672 Y103.202 E0.4869
G1 X142.996 Y103.858 E0.4868
G1 X143.378 Y104.482 E0.4868
G1 X143.815 Y105.069 E0.4867
G1 X144.309 Y105.617 E0.4908
G1 X144.795 Y106.072 E0.4429
G1 X145.027 Y106.263 E0.1999
G1 X145.652 Y106.710 E0.5112
G1 X146.284 Y107.080 E0.4868
G1 X146.970 Y107.401 E0.5041
G1 X147.352 Y107.546 E0.2721
G1 X148.016 Y107.748 E0.4613
G1 X148.307 Y107.817 E0.1988
G1 X149.101 Y107.947 E0.5356
G1 X149.393 Y107.975 E0.1949
G1 X150.161 Y107.995 E0.5111
G1 X150.891 Y107.947 E0.4868
G1 X151.614 Y107.832 E0.4867
G1 X152.323 Y107.652 E0.4868
G1 X152.823 Y107.474 E0.3531
G1 X153.012 Y107.408 F750
G1 E-4.5000 F6000
G1 Z2.000 F1500
G1 X124.352 Y86.286 F21000
G1 Z1.000 F1500
G1 E4.6000 F6000
G1 X171.523 Y86.286 E31.3786 F750
G1 X172.162 Y86.476 E0.4437
G1 X172.263 Y86.513 E0.0714
G1 X172.984 Y86.838 E0.5260
G1 X173.084 Y86.892 E0.0751
G1 X173.739 Y87.307 E0.5160
G1 X173.808 Y87.356 E0.0562
G1 X174.143 Y87.622 E0.2850
G1 X174.212 Y87.683 E0.0612
G1 X174.828 Y88.299 E0.5795
G1 X174.906 Y88.390 E0.0801
G1 X175.368 Y89.017 E0.5180
G1 X175.415 Y89.088 E0.0565
G1 X175.629 Y89.454 E0.2818
G1 X175.666 Y89.524 E0.0526
G1 X175.948 Y90.138 E0.4494
G1 X175.987 Y90.241 E0.0731
G1 X176.173 Y90.857 E0.4284
G1 X152.890 Y90.857 E15.4876
G1 X152.365 Y90.698 E0.3652
G1 X151.487 Y90.517 E0.5964
G1 X151.088 Y90.463 E0.2679
G1 X150.191 Y90.404 E0.5974
G1 X149.430 Y90.420 E0.5069
G1 X148.438 Y90.530 E0.6640
G1 X147.583 Y90.711 E0.5808
G1 X147.112 Y90.857 E0.3279
G1 X123.600 Y90.857 E15.6405
G1 X123.600 Y95.429 E3.0409
G1 X141.564 Y95.429 E11.9494
G1 X141.205 Y96.157 E0.5401
G1 X140.890 Y96.977 E0.5844
G1 X140.652 Y97.822 E0.5842
G1 X140.492 Y98.686 E0.5844
G1 X140.412 Y99.561 E0.5842
G1 X140.412 Y100.000 E0.2921
G1 X123.600 Y100.000 E11.1832
G1 X123.600 Y104.571 E3.0409
G1 X141.564 Y104.571 E11.9495
G1 X141.593 Y104.631 E0.0442
G1 X142.052 Y105.380 E0.5843
G1 X142.577 Y106.084 E0.5842
G1 X143.165 Y106.739 E0.5856
G1 X143.739 Y107.275 E0.5222
G1 X144.052 Y107.533 E0.2697
G1 X144.781 Y108.054 E0.5965
G1 X145.539 Y108.498 E0.5843
G1 X146.346 Y108.876 E0.5927
G1 X146.835 Y109.061 E0.3479
G1 X147.103 Y109.143 E0.1863
G1 X123.600 Y109.143 E15.6343
G1 X123.600 Y112.963 E2.5410
G1 X124.352 Y113.714 E0.7070
G1 X171.487 Y113.714 E31.3549
G1 X171.721 Y113.664 E0.1587
G1 X171.811 Y113.639 E0.0627
G1 X172.301 Y113.472 E0.3440
G1 X172.375 Y113.442 E0.0535
G1 X172.981 Y113.163 E0.4437
G1 X173.058 Y113.122 E0.0579
G1 X173.503 Y112.856 E0.3447
G1 X173.571 Y112.810 E0.0550
G1 X174.116 Y112.401 E0.4529
G1 X174.202 Y112.327 E0.0754
G1 X174.818 Y111.711 E0.5796
G1 X174.879 Y111.642 E0.0611
G1 X175.144 Y111.308 E0.2842
G1 X175.190 Y111.244 E0.0521
G1 X175.548 Y110.688 E0.4398
G1 X175.589 Y110.617 E0.0548
G1 X175.824 Y110.155 E0.3443
G1 X175.859 Y110.074 E0.0589
G1 X176.094 Y109.450 E0.4434
G1 X176.119 Y109.374 E0.0531
G1 X176.180 Y109.143 E0.1594
G1 X152.905 Y109.143 E15.4825
G1 X153.615 Y108.891 E0.5010
G1 X154.414 Y108.523 E0.5849
G1 X155.190 Y108.075 E0.5966
G1 X155.524 Y107.850 E0.2678
G1 X156.232 Y107.300 E0.5965
G1 X156.874 Y106.699 E0.5843
G1 X157.457 Y106.043 E0.5843
G1 X157.978 Y105.336 E0.5843
G1 X158.433 Y104.584 E0.5842
G1 X158.439 Y104.571 E0.0095
G1 X176.400 Y104.571 E11.9478
G1 X176.400 Y100.000 E3.0409
G1 X159.595 Y100.000 E11.1785
G1 X159.598 Y99.928 E0.0477
G1 X159.587 Y99.523 E0.2696
G1 X159.515 Y98.741 E0.5223
G1 X159.360 Y97.875 E0.5857
G1 X159.126 Y97.028 E0.5844
G1 X158.816 Y96.206 E0.5842
G1 X158.439 Y95.429 E0.5748
G1 X176.200 Y95.429 E11.8148
G1 X176.400 Y95.429 F750
G1 E-4.5000 F6000
; layer 2, Z = 1.444
; tool H0.444 W0.800
G1 Z2.000 F1500
G1 X157.416 Y101.635 F21000
G1 Z1.444 F1500
G1 E4.6000 F6000
G1 X173.959 Y85.092 E3.4585 F2250
G1 X173.870 Y85.044 E0.0150
G1 X173.185 Y84.735 E0.1111
G1 X157.580 Y100.339 E3.2622
G1 X157.597 Y99.917 E0.0625
G1 X157.589 Y99.643 E0.0405
G1 X157.552 Y99.236 E0.0604
G1 X172.345 Y84.443 E3.0925
G1 X172.038 Y84.352 E0.0473
G1 X171.864 Y84.310 E0.0265
G1 X171.430 Y84.227 E0.0653
G1 X157.392 Y98.264 E2.9346
G1 X157.222 Y97.648 E0.0946
G1 X157.128 Y97.397 E0.0395
G1 X170.406 Y84.119 E2.7758
G1 X170.196 Y84.105 E0.0312
G1 X170.068 Y84.100 E0.0189
G1 X169.294 Y84.100 E0.1144
G1 X156.788 Y96.607 E2.6145
G1 X156.674 Y96.372 E0.0386
G1 X156.379 Y95.884 E0.0843
G1 X168.163 Y84.100 E2.4635
G1 X167.031 Y84.100 E0.1672
G1 X155.907 Y95.225 E2.3256
G1 X155.902 Y95.218 E0.0013
G1 X155.440 Y94.699 E0.1026
G1 X155.369 Y94.631 E0.0145
G1 X165.900 Y84.100 E2.2016
G1 X164.769 Y84.100 E0.1672
G1 X154.771 Y94.098 E2.0900
G1 X154.384 Y93.796 E0.0726
G1 X154.114 Y93.624 E0.0474
G1 X163.637 Y84.100 E1.9909
G1 X162.506 Y84.100 E0.1672
